O00000001
(UGNX POSTING DATE: Thu Aug 17 18:22:26 2006)
G90 G40 G49 G00 G80
(**********)
(Start of Program Event)
(**********)
    
N0010 (PROFILE_BLOCK)
(Zero Point Return)
G91 G28 Z0.0
X0.0 Y0.0
T01 T02 M06
(First Tool Change Event)
G90 G00 X1.9685 Y-.4331 B0.0 S556 M03
G43 Z4.3307 H01
Z4.0551
G01 Z3.937 F.7 M08
X-.4331 F.8
Y4.3701
X4.3701
Y-.4331
X1.9685
X1.8701
G17 G03 X1.6439 Y-.5512 I0.0 J.2756
G00 Z4.3307
    
N0020 (MILL_CONTROL)
S500 M03
(Rapid Move)
G00 X1.9685 Y1.9685 B0.0
Z4.1339
(Linear Move Event)
G01 X1.7765 Y1.7765 Z4.1387 F11.8
    
N0030 (CIRCULAR_POCKET_CCLW_XY)
G01 X2.7441 Y1.9685 Z3.937 B0.0 F.7 S556 M03
(Circular move CCLW XY plane)
G03 I.7756 J0.0 F.8
    
N0040 (CIRCULAR_POCKET_CLW_XY)
(Circular move CLW XY plane)
G02 X2.7441 Y1.9685 I.7756 J0.0 F.8 S556
    
N0050 (CIRCULAR_POCKET_CCLW_ZX)
G01 X1.9685 Y0.0 Z2.7441 B0.0 F1.7 S968 M03
(Circular move CCLW ZX plane)
G18 G03 I0.0 K.7756 F1.9
    
N0060 (CIRCULAR_POCKET_CLW_ZX)
(Circular move CLW ZX plane)
G02 X1.9685 Z2.7441 I0.0 K.7756 F1.9 S968
    
N0070 (CIRCULAR_POCKET_CCLW_YZ)
(Circular move CCLW YZ plane)
G01 X-1.1929 Y1.9685 Z3.937 B90. F1.7 S968 M03
G17 G03 I.7756 J0.0 F1.9
    
N0080 (CIRCULAR_POCKET_CLW_YZ)
(Circular move CLW YZ plane)
G02 X-1.1929 Y1.9685 I.7756 J0.0 F1.9 S968
M01
    
N0090 (DRILL)
G91 G28 Z0.0
X0.0 Y0.0
T02 T03 M06
(Second Tool Change Event)
(Cycle Drill Event)
G90 G00 X.5906 Y.5906 B0.0 S564 M03
G43 Z4.0551 H02
G99 G81 Z3.4449 R4.0551 F1.1
Y3.3465
X3.3465
Y.5906
G80
M01
    
N0100 (DRIIL_DWELL)
G91 G28 Z0.0
X0.0 Y0.0
T03 T02 M06
(Third Tool Change Event)
G90 G00 X.5906 Y.5906 B0.0 S564 M03
G43 Z4.0551 H03
G99 G82 Z2.6772 R4.0551 F2.3
Y3.3465
X3.3465
Y.5906
G80
M01
    
N0110 (DRILL_DEEP)
G91 G28 Z0.0
X0.0 Y0.0
T02 T04 M06
(Fourth Tool Change Event)
G90 G00 X.5906 Y.5906 B0.0 S564 M03
G43 Z4.0157 H02
G99 G83 Z3.2283 R4.0157 F1.1 Q.0039
Y3.3465
X3.3465
Y.5906
G80
    
N0120 (DRILL_BRKCHP)
G99 G73 X3.3465 Y.5906 Z3.0709 B0.0 R4.0551 F1.1 Q.0039
X.5906
Y3.3465
X3.3465
G80
M01
    
N0130 (TAP_FLOAT)
(Cycle Tap Float)
G91 G28 Z0.0
X0.0 Y0.0
T04 T00 M06
(Fifth Tool Change Event)
G90 G00 X.5906 Y.5906 B0.0 S1129 M03
G43 Z4.0551 H04
G99 G84 Z1.7717 R4.0551 F4.5
Y3.3465
X3.3465 Y.5906
G80
    
N0140 (TAP_RIGID)
(Cycle Tap Rigid)
G99 G84 X.5906 Y.5906 Z3.0104 B0.0 R4.0551 F4.5
Y3.3465
X3.3465 Y.5906
Y3.3465
G80
M01
    
N0150 (BORE)
G91 G28 Z0.0
X0.0 Y0.0
T00 T01 M06
(Sixth Tool Change Event)
G90 G00 X.5906 Y.5906 B0.0 S1000 M03
G43 Z4.0551 H00
G99 G85 Z3.3858 R4.0551 F9.8
Y3.3465
X3.3465
Y.5906
G80
    
N0160 (BORE_DRAG)
G99 G86 X.5906 Y.5906 Z2.6378 B0.0 R4.0551 F9.8
Y3.3465
X3.3465
Y.5906
G80
    
N0170 (BORE_NODRAG)
G99 G76 X.5906 Y.5906 Z3.0748 B0.0 R4.0551 F9.8 Q.1
Y3.3465
X3.3465
Y.5906
G80
    
N0180 (BORE_DWELL)
G99 G89 X.5906 Y.5906 Z2.997 B0.0 R4.0551 F9.8 P2.
Y3.3465
X3.3465
Y.5906
G80
    
N0190 (BORE_MANUAL_DWELL)
G99 G88 X.5906 Y.5906 Z1.7717 B0.0 R4.0551 F9.8 P2.
Y3.3465
X3.3465
Y.5906
G80
    
N0200 (BORE_MANUAL)
G99 G88 X.5906 Y.5906 Z2.6063 B0.0 R4.0354 F9.8
Y3.3465
X3.3465
Y.5906
G80
    
N0210 (BORE_BACK)
G99 G87 X.5906 Y.5906 Z3.0394 B0.0 R4.0551 F9.8
Y3.3465
X3.3465
Y.5906
G80
M01
    
N0220 (MILL_SURFACE)
(4 Axis Mill Operation)
G91 G28 Z0.0
X0.0 Y0.0
T01 T01 M06
G90 G00 X-.5906 Y3.4121 B90. S0 M03
G43 Z4.0551 H01
G01 Z3.937 F9.8
Y3.937
X-.9406 Z3.8559 B96.061
X-1.2803 Z3.7383 B102.125
X-1.6057 Z3.5855 B108.189
X-1.913 Z3.3991 B114.252
X-2.199 Z3.1813 B120.316
X-2.4604 Z2.9345 B126.38
X-2.6942 Z2.6615 B132.443
X-2.8979 Z2.3653 B138.507
X-3.0691 Z2.0493 B144.57
X-3.2061 Z1.7169 B150.634
X-3.3071 Z1.372 B156.698
X-3.3711 Z1.0183 B162.761
X-3.3975 Z.6598 B168.825
X-3.3858 Z.3005 B174.888
X-3.3465 Z0.0 B180.
Y3.4121
X-3.3858 Z.3005 B174.888
X-3.3975 Z.6598 B168.825
X-3.3711 Z1.0183 B162.761
X-3.3071 Z1.372 B156.698
X-3.2061 Z1.7169 B150.634
X-3.0691 Z2.0493 B144.57
X-2.8979 Z2.3653 B138.507
X-2.6942 Z2.6615 B132.443
X-2.4604 Z2.9345 B126.38
X-2.199 Z3.1813 B120.316
X-1.913 Z3.3991 B114.252
X-1.6057 Z3.5855 B108.189
X-1.2803 Z3.7383 B102.125
X-.9406 Z3.8559 B96.061
X-.5906 Z3.937 B90.
G91 G28 Z0.0
G28 X0.0 Y0.0
M05 M09
M30
