%
O1999  ( 4AXIS_TEST_ONLY )
( NONE SPECIFIED  ISSUE: 0 )
( NX4 Operation  PROGRAM_1 )
( TUE FEB 20 17:54:04 2007 )
( HAAS VF2_with_A-AXIS Rotart Table POSTPROCESSOR VERSION 1.0 )
G00 G40 G17 G80 G90 G21 G94
G187
  
G91 G28 Z0.0 M09
G91 G28 Y0.0
G90
G0 A0.0 B0.0
   
N1200 T12 M06  ( MILL12 )
M31
T8
( TOP )
G54
G91 G28 Z0.0 M09
G91 G28 Y0.0
G90
 
( TABLE INDEX )
G0 A0.0
  
S5000 M03
G0 X0.0 Y5. M08
G43 Z146.763 H12
Z124.763
G94 G1 Z121.763 F250.
X-37.5
Y-5.
X37.5
Y5.
X0.0
G0 Z146.763
(APLUS10)
G54
G91 G28 Z0.0 M09
G91 G28 Y0.0
G90
 
( TABLE INDEX )
G0 A10.
  
S5000 M03
G0 X-37.5 Y-6.066 M08
G43 Z149.016 H12
Z123.782
G94 G1 Z120.782 F250.
X37.5
Y-16.22
G0 Z147.225
(APLUS45)
G54
G91 G28 Z0.0 M09
G91 G28 Y0.0
G90
 
( TABLE INDEX )
G0 A45.
  
S5000 M03
G0 X-37.5 Y-60.104 M08
G43 Z120.459 H12
Z98.459
G94 G1 Z95.459 F250.
X37.5
Y-74.246
G0 Z120.459
(APLUS90)
G54
G91 G28 Z0.0 M09
G91 G28 Y0.0
G90
 
( TABLE INDEX )
G0 A90.
  
S5000 M03
G0 X0.0 Y-80. M08
G43 Z125. H12
Z28.
G94 G1 Z25. F250.
X-37.5
Y-110.
X37.5
Y-80.
X0.0
G0 Z125.
G91 G28 Z0.
G28 Y0.
G28 X0.
G90 G0 A0.
M09
M05
M1
  
N800 T8 M06  ( D8 )
T12
( DRILL_90 )
G90
G54
G91 G28 Z0.0 M09
G91 G28 Y0.0
G90
 
( TABLE INDEX )
G0 A90.
  
S2000 M03
G0 X-12.111 Y-94.719 M08
G43 Z100. H08
G94 G98 G81 X-12.111 Y-94.719 R28. Z1.996 F250.
G80
G0 Z100.
(DRILL_180)
G54
G91 G28 Z0.0 M09
G91 G28 Y0.0
G90
 
( TABLE INDEX )
G0 A180.
  
S2000 M03
G0 X18.169 Y.312 M08
G43 Z20. H08
G94 G98 G81 X18.169 Y.312 R-77. Z-103.004 F250.
G80
G0 Z20.
(DRILL_270)
G54
G91 G28 Z0.0 M09
G91 G28 Y0.0
G90
 
( TABLE INDEX )
G0 A270.
  
S2000 M03
G0 X-.474 Y97.664 M08
G43 Z100. H08
G94 G98 G81 X-.474 Y97.664 R28. Z1.996 F250.
G80
G0 Z100.
G91 G28 Z0.
G28 Y0.
G28 X0.
G90 G0 A0.
M09
M05
M1
  
N1201 T12 M06  ( MILL12 )
T8
( A-10 )
G90
G54
G91 G28 Z0.0 M09
G91 G28 Y0.0
G90
 
( TABLE INDEX )
G0 A350.
  
S5000 M03
G0 X-37.5 Y16.22 M08
G43 Z147.225 H12
Z123.782
G94 G1 Z120.782 F250.
X37.5
Y6.066
G0 Z149.016
(A-45)
G54
G91 G28 Z0.0 M09
G91 G28 Y0.0
G90
 
( TABLE INDEX )
G0 A315.
  
S5000 M03
G0 X-37.5 Y74.246 M08
G43 Z120.459 H12
Z98.459
G94 G1 Z95.459 F250.
Y60.104
X27.5
G0 Z120.459
G91 G28 Z0.
G28 Y0.
G28 X0.
G90 G0 A0.
M09
M05
M1
  
N801 T8 M06  ( D8 )
T12
( DRILL-45 )
G90
G54
G91 G28 Z0.0 M09
G91 G28 Y0.0
G90
 
( TABLE INDEX )
G0 A135.
  
S2000 M03
G0 X18.75 Y-67.401 M08
G43 Z-120.459 H08
G94 G98 G81 X18.75 Y-67.401 R-92.459 Z-95.459 F250.
X-18.75 Y-67.104
G80
G0 Z-120.459
(DRILL_PLUS45)
G54
G91 G28 Z0.0 M09
G91 G28 Y0.0
G90
 
( TABLE INDEX )
G0 A45.
  
S2000 M03
G0 X18.75 Y-67.104 M08
G43 Z120.459 H08
G94 G98 G81 X18.75 Y-67.104 R98.459 Z77.056 F250.
X-18.75
G80
G0 Z120.459
M09
M05
G28 G91 Z0.
G28 G91 Y0.
G28 G91 X0.
G90 G0 A0. B0.
M33
M30
%
