%
O0001 (PROGRAM)
N0010 ( PART File : D:\post_kits\post_in_process\Ridge Engineering\Ridge_sample_part.prt  )
N0020 ( POSTPROCESSOR: D:\POST_KITS\POST_IN_PROCESS\RIDGE ENGINEERING\DMG_DMC160U_MILLPLUS_IN.TCL )
N0030 ( DATE     : Wed Apr 23 16:37:42 2008   )
N0040 ( PROGRAMMER: suyo   )
N0050 G40
N0060 G70
N0070 ( Path : FACE_MILLING  )
N0080 ( PLANFRAS_D80 0   )
N0090 G54 I1
N0100 G74 Z-.1 L1
N0110 G74 X-.1 Y-.1 L1
N0120 M56
N0130 G7 A5=0.0 B5=0.0 C5=0.0 L1=1
N0140 G174
N0150 M01
N0160 T00 M06
N0170 M57
N0180 S2786 M03
N0190 M08
N0200 G93 X0.0 Y0.0 Z0.0
N0210 G90
N0220 G00 B0.0 C0.0
N0230 X.6079 Y4.6458 Z11.9106
N0240 G94
N0250 G01 Z8.1327 F78.7
N0260 Z8.0327
N0270 Y3.4647
N0280 Y-3.4647 F39.4
N0290 Y-4.6458 F78.7
N0300 G00 Z8.1917
N0310 X-1.4677 Y4.3746
N0320 G01 Z8.1327
N0330 Z8.0327
N0340 Y3.1935
N0350 Y-3.1935 F39.4
N0360 Y-4.3746 F78.7
N0370 G00 Z11.9106
N0380 M05
N0390 M09
N0400 ( Path : VARI_CONT_GULPL_1A  )
N0410 ( HORNFRAS_D63 0   )
N0420 G54 I1
N0430 G74 Z-.1 L1
N0440 G74 X-.1 Y-.1 L1
N0450 M56
N0460 G7 A5=0.0 B5=0.0 C5=0.0 L1=1
N0470 G174
N0480 M01
N0490 T00 M06
N0500 S3538 M03
N0510 M08
N0520 G93 X0.0 Y0.0 Z0.0
N0530 G00 B-90. C285.
N0540 G141 L2=0 F2=15000.
N0550 X182.4064 Y-109.897 Z211.0339
N0560 G01 X202.4064 F78.7
N0570 Y-159.897
N0580 Y-179.7968 F47.2
N0590 Y-229.7968 F78.7
N0600 G00 X182.4064
N0610 M05 M09
N0620 G40
N0630 ( Path : VARI_CONT_GULPL_2A  )
N0640 ( HORNFRAS_D63_1 0   )
N0650 G54 I1
N0660 G74 Z-.1 L1
N0670 G74 X-.1 Y-.1 L1
N0680 M56
N0690 G7 A5=0.0 B5=0.0 C5=0.0 L1=1
N0700 G174
N0710 M01
N0720 T00 M06
N0730 S3538 M03
N0740 M08
N0750 G93 X0.0 Y0.0 Z0.0
N0760 G00 B-90. C225.
N0770 G141 L2=0 F2=15000.
N0780 X252.7949 Y107.8803 Z211.0339
N0790 G01 X272.7949 F78.7
N0800 Y57.8803
N0810 Y37.9805 F47.2
N0820 Y-12.0195 F78.7
N0830 G00 X252.7949
N0840 M05 M09
N0850 G40
N0860 ( Path : VARI_CONT_R_SVARTPL_1A  )
N0870 ( HORNFRAS_D63 0   )
N0880 G54 I1
N0890 G74 Z-.1 L1
N0900 G74 X-.1 Y-.1 L1
N0910 M56
N0920 G7 A5=0.0 B5=0.0 C5=0.0 L1=1
N0930 G174
N0940 M01
N0950 T00 M06
N0960 S3538 M03
N0970 M08
N0980 G93 X0.0 Y0.0 Z0.0
N0990 G00 B-90. C75.
N1000 G141 L2=0 F2=15000.
N1010 X-316.2773 Y120.3885 Z239.0339
N1020 X-266.2773
N1030 G01 Y84.3885 F78.7
N1040 Y56.3885 F47.2
N1050 Z233.0839
N1060 Y84.3885
N1070 Z227.1339
N1080 Y56.3885
N1090 Z221.1839
N1100 Y84.3885
N1110 Z215.2339
N1120 Y56.3885
N1130 Z209.2839
N1140 Y84.3885
N1150 Z203.3339
N1160 Y56.3885
N1170 Z197.3839
N1180 Y84.3885
N1190 Z191.4339
N1200 Y56.3885
N1210 Z185.4839
N1220 Y84.3885
N1230 Z179.5339
N1240 Y56.3885
N1250 Y51.3885 F78.7
N1260 G00 X-316.2773
N1270 M05 M09
N1280 G40
N1290 ( Path : VARI_CONT_R_VITAPL  )
N1300 ( PLANFRAS_D32 0   )
N1310 G54 I1
N1320 G74 Z-.1 L1
N1330 G74 X-.1 Y-.1 L1
N1340 M56
N1350 G7 A5=0.0 B5=0.0 C5=0.0 L1=1
N1360 G174
N1370 M01
N1380 T00 M06
N1390 S6966 M03
N1400 M08
N1410 G93 X0.0 Y0.0 Z0.0
N1420 G00 B-90. C0.0
N1430 G141 L2=0 F2=15000.
N1440 X-222.355 Y-233.9333 Z184.241
N1450 X-172.355
N1460 G01 Y-213.9333 F31.5
N1470 Y-170.3443
N1480 Z199.103
N1490 Y-179.0621
N1500 Y-183.421
N1510 Y-185.6005
N1520 Y-200.8566
N1530 Y-213.9333
N1540 Z213.9649
N1550 Y-196.4977
N1560 Y-179.0621
N1570 Y-170.3443
N1580 Z228.8268
N1590 Y-213.9333
N1600 G00 X-222.355
N1610 X-220.365 Z184.241
N1620 X-170.365
N1630 G01 Y-170.3443
N1640 Z199.103
N1650 Y-174.7032
N1660 Y-176.8827
N1670 Y-180.1519
N1680 Y-182.8762
N1690 Y-183.421
N1700 Y-185.6005
N1710 Y-186.1454
N1720 Y-191.594
N1730 Y-192.6837
N1740 Y-200.8566
N1750 Y-204.1258
N1760 Y-206.3053
N1770 Y-209.5744
N1780 Y-213.9333
N1790 Z213.9649
N1800 Y-196.4977
N1810 Y-179.0621
N1820 Y-170.3443
N1830 Z228.8268
N1840 Y-213.9333
N1850 G00 X-220.365
N1860 X-219.9 Z184.241
N1870 X-169.9
N1880 G01 Y-170.3443
N1890 Z199.103
N1900 Y-174.7032
N1910 Y-176.8827
N1920 Y-180.1519
N1930 Y-182.8762
N1940 Y-183.421
N1950 Y-185.6005
N1960 Y-186.1454
N1970 Y-191.594
N1980 Y-192.6837
N1990 Y-200.8566
N2000 Y-204.1258
N2010 Y-206.3053
N2020 Y-209.5744
N2030 Y-213.9333
N2040 Z213.9649
N2050 Y-196.4977
N2060 Y-179.0621
N2070 Y-170.3443
N2080 Z228.8268
N2090 Y-213.9333
N2100 Y-233.9333
N2110 G00 X-219.9
N2120 M09
N2130 M05
N2140 G40
N2150 ( Path : VARI_CONT_OLIV_UNDRE  )
N2160 ( HORNFRAS_D32_1_LJUG 0   )
N2170 G54 I1
N2180 G74 Z-.1 L1
N2190 G74 X-.1 Y-.1 L1
N2200 M56
N2210 G7 A5=0.0 B5=0.0 C5=0.0 L1=1
N2220 G174
N2230 M01
N2240 T00 M06
N2250 S6966 M03
N2260 M08
N2270 G93 X0.0 Y0.0 Z0.0
N2280 G00 B-45. C0.0
N2290 G141 L2=0 F2=15000.
N2300 X-217.7874 Y-223.9328 Z210.5549
N2310 X-182.4321 Z175.1995
N2320 G01 X-182.432 Y-213.9328 F31.5
N2330 X-182.4319 Y-170.3443 Z175.1997
N2340 G00 X-189.503 Z182.2707
N2350 X-188.096 Y-213.9328 Z180.8635
N2360 X-181.0249 Z173.7924
N2370 G01 X-181.0248 Y-170.3443 Z173.7925
N2380 G00 X-188.0958 Z180.8636
N2390 X-187.4136 Y-213.9328 Z180.1811
N2400 X-180.3425 Z173.11
N2410 G01 X-180.3424 Y-170.3443 Z173.1102
N2420 Y-160.3443
N2430 G00 X-215.6977 Z208.4655
N2440 M09
N2450 M05
N2460 G40
N2470 ( Path : FIXED_CONT_R_LJBLA_1A  )
N2480 ( MM10_KILSP 0   )
N2490 G54 I1
N2500 G74 Z-.1 L1
N2510 G74 X-.1 Y-.1 L1
N2520 M56
N2530 G7 A5=0.0 B5=0.0 C5=0.0 L1=1
N2540 G174
N2550 M01
N2560 T00 M06
N2570 S9000 M03
N2580 M08
N2590 G93 X0.0 Y0.0 Z0.0
N2600 G00 B-90. C75.
N2610 X-334.2773 Y70.6385 Z196.7839
N2620 G01 X-284.2773 F78.7
N2630 X-264.2773 F7.9
N2640 Y70.1385 F26.
N2650 Z221.2839
N2660 Y70.6385
N2670 Z196.7839
N2680 Z194.5339
N2690 Y67.8885
N2700 Z223.5339
N2710 Y72.8885
N2720 Z194.5339
N2730 Y70.6385
N2740 X-284.2773 F78.7
N2750 G00 X-282.2773 Z196.7839
N2760 G01 X-262.2773 F7.9
N2770 Y70.1385 F26.
N2780 Z221.2839
N2790 Y70.6385
N2800 Z196.7839
N2810 Z194.5339
N2820 Y67.8885
N2830 Z223.5339
N2840 Y72.8885
N2850 Z194.5339
N2860 Y70.6385
N2870 X-282.2773 F78.7
N2880 G00 X-280.2773 Z196.7839
N2890 G01 X-260.2773 F7.9
N2900 Y70.1385 F26.
N2910 Z221.2839
N2920 Y70.6385
N2930 Z196.7839
N2940 Z194.5339
N2950 Y67.8885
N2960 Z223.5339
N2970 Y72.8885
N2980 Z194.5339
N2990 Y70.6385
N3000 X-280.2773 F78.7
N3010 G00 X-330.2773
N3020 M05 M09
N3030 ( Path : FIXED_CONT_R_LJBLA_2A  )
N3040 ( MM10_KILSP_1 0   )
N3050 G54 I1
N3060 G74 Z-.1 L1
N3070 G74 X-.1 Y-.1 L1
N3080 M56
N3090 G7 A5=0.0 B5=0.0 C5=0.0 L1=1
N3100 G174
N3110 M01
N3120 T00 M06
N3130 S9000 M03
N3140 M08
N3150 G93 X0.0 Y0.0 Z0.0
N3160 G00 B-90. C285.
N3170 X-52.6181 Y-.0098 Z6.3102
N3180 G01 X-2.6181 F78.7
N3190 X-1.8307 F7.9
N3200 Z7.2748 F26.
N3210 Y.0098
N3220 Z6.3102
N3230 Y-.0098
N3240 Y-.0984
N3250 Z7.3634
N3260 Y.0984
N3270 Z6.2217
N3280 Y-.0984
N3290 Z6.3102
N3300 X-2.6181 F78.7
N3310 G00 X-52.6181
N3320 X-52.5394 Y-.0098
N3330 G01 X-2.5394
N3340 X-1.752 F7.9
N3350 Z7.2748 F26.
N3360 Y.0098
N3370 Z6.3102
N3380 Y-.0098
N3390 Y-.0984
N3400 Z7.3634
N3410 Y.0984
N3420 Z6.2217
N3430 Y-.0984
N3440 Z6.3102
N3450 X-2.5394 F78.7
N3460 G00 X-52.5394
N3470 X-52.4606 Y-.0098
N3480 G01 X-2.4606
N3490 X-1.6732 F7.9
N3500 Z7.2748 F26.
N3510 Y.0098
N3520 Z6.3102
N3530 Y-.0098
N3540 Y-.0984
N3550 Z7.3634
N3560 Y.0984
N3570 Z6.2217
N3580 Y-.0984
N3590 Z6.3102
N3600 X-1.7042 F78.7
N3610 G00 X-51.7042
N3620 M05 M09
N3630 ( Path : VARI_CONT_R_TILT  )
N3640 ( PLANFRAS_D32 0   )
N3650 G54 I1
N3660 G74 Z-.1 L1
N3670 G74 X-.1 Y-.1 L1
N3680 M56
N3690 G7 A5=0.0 B5=0.0 C5=0.0 L1=1
N3700 G174
N3710 M01
N3720 T00 M06
N3730 S6500 M03
N3740 M08
N3750 G93 X7.8745 Y-5.0965 Z9.2659
N3760 (*********coord_rot_on*************)
N3770 G74 Z-.1 L1
N3780 G7 A5=15. B5=0.0 C5=210. B7=254 C7=255
N3790 G00 B=E254 C=E255
N3800 (*********************************)
N3810 X-1.2548 Y-1.156 Z50.5118
N3820 Z.5118
N3830 G01 X-.0225 Y-.5394 B15. C270. F51.2
N3840 G03 X.3709 Y-.1923 I.3205 J-.7597
N3850 X.4367 Y.1551 I.4519 J-.2655
N3860 X.1704 Y.4672 I.409 J.0793
N3870 X-.2545 Y.4774 I.2274 J.6189
N3880 X-.6794 Y.1892 I-.2335 J.8016
N3890 G00 Z50.5118
N3900 X-.0004 Y-.5339 Z50.4528
N3910 Z.4528
N3920 G03 X.393 Y-.1868 I.3205 J-.7597
N3930 X.4588 Y.1606 I.4519 J-.2655
N3940 X.1925 Y.4727 I.409 J.0793
N3950 X-.2324 Y.4829 I.2274 J.6189
N3960 X-.6727 Y.173 I-.2289 J.793
N3970 G00 Z50.4528
N3980 X.0217 Y-.5284 Z50.3937
N3990 Z.3937
N4000 G03 X.4151 Y-.1812 I.3205 J-.7597
N4010 X.4809 Y.1661 I.4519 J-.2655
N4020 X.2146 Y.4782 I.409 J.0793
N4030 X-.2103 Y.4884 I.2274 J.6189
N4040 X-.666 Y.1568 I-.2298 J.7948
N4050 G00 Z50.3937
N4060 X.0438 Y-.5229 Z50.3346
N4070 Z.3346
N4080 G03 X.4372 Y-.1757 I.3205 J-.7597
N4090 X.503 Y.1716 I.4519 J-.2655
N4100 X.2367 Y.4837 I.409 J.0793
N4110 X-.1882 Y.4939 I.2274 J.6189
N4120 X-.6439 Y.1623 I-.2298 J.7948
N4130 G00 Z50.3346
N4140 X.0659 Y-.5174 Z50.2756
N4150 Z.2756
N4160 G03 X.4593 Y-.1702 I.3205 J-.7597
N4170 X.5251 Y.1771 I.4519 J-.2655
N4180 X.2588 Y.4892 I.409 J.0793
N4190 X-.1661 Y.4994 I.2274 J.6189
N4200 X-.6352 Y.1457 I-.2267 J.7886
N4210 G00 Z50.2756
N4220 X.088 Y-.5119 Z50.2165
N4230 Z.2165
N4240 G03 X.4814 Y-.1647 I.3205 J-.7597
N4250 X.5472 Y.1826 I.4519 J-.2655
N4260 X.2809 Y.4948 I.409 J.0793
N4270 X-.144 Y.5049 I.2274 J.6189
N4280 X-.6265 Y.1291 I-.2268 J.7888
N4290 G00 Z50.2165
N4300 X.1101 Y-.5064 Z50.1575
N4310 Z.1575
N4320 G03 X.5035 Y-.1592 I.3205 J-.7597
N4330 X.5693 Y.1882 I.4519 J-.2655
N4340 X.303 Y.5003 I.409 J.0793
N4350 X-.1219 Y.5105 I.2274 J.6189
N4360 X-.6044 Y.1346 I-.2268 J.7888
N4370 G01 X-.6157 Y.1123
N4380 G00 Z50.1575
N4390 X.1322 Y-.5008 Z50.0984
N4400 Z.0984
N4410 G03 X.5256 Y-.1537 I.3205 J-.7597
N4420 X.5914 Y.1937 I.4519 J-.2655
N4430 X.3683 Y.4861 I.4024 J.0756
N4440 G01 X.2787 Y.5218
N4450 G03 X-.1558 Y.4975 I.1804 J.6723
N4460 X-.5823 Y.1401 I-.2784 J.7654
N4470 G01 X-.6049 Y.0955
N4480 G00 Z50.0984
N4490 X.1543 Y-.4953 Z50.0394
N4500 Z.0394
N4510 G03 X.5477 Y-.1482 I.3205 J-.7597
N4520 G01 X.5701 Y-.1035
N4530 X.5884 Y-.0587
N4540 X.5937 Y-.042
N4550 G00 Z50.0394
N4560 X.6203 Y.1058
N4570 Z.0394
N4580 G03 X.4053 Y.483 I.4061 J-.0185
N4590 G00 Z50.0394
N4600 X.2578 Y.538
N4610 Z.0394
N4620 G03 X-.1337 Y.5031 I.1357 J.6906
N4630 X-.5602 Y.1457 I-.2784 J.7654
N4640 G01 X-.5828 Y.101
N4650 X-.5989 Y.0618
N4660 G00 Z50.0394
N4670 X.1616 Y-.4935 Z50.0197
N4680 Z.0197
N4690 G01 X.2377 Y-.4554
N4700 G03 X.555 Y-.1463 I.3766 J-.7041
N4710 G01 X.5775 Y-.1016
N4720 X.5957 Y-.0568
N4730 X.5971 Y-.0527
N4740 G00 Z50.0197
N4750 X.628 Y.1157
N4760 Z.0197
N4770 G01 X.6282 Y.1183
N4780 G03 X.4115 Y.4856 I.4073 J-.0072
N4790 G00 Z50.0197
N4800 X.2542 Y.5421
N4810 Z.0197
N4820 G03 X-.0704 Y.5233 I.1233 J.6845
N4830 X-.5261 Y.1917 I-.2298 J.7948
N4840 G01 X-.5528 Y.1475
N4850 X-.5754 Y.1028
N4860 X-.5939 Y.058
N4870 X-.5966 Y.0496
N4880 X-1.0176 Y-1.2624
N4890 G00 Z50.0197
N4900 M09
N4910 M05
N4920 ( Path : VARI_CONT_TILT  )
N4930 ( HORNFRAS_D32_1 0   )
N4940 G54 I1
N4950 G74 Z-.1 L1
N4960 G74 X-.1 Y-.1 L1
N4970 M56
N4980 G7 A5=0.0 B5=0.0 C5=0.0 L1=1
N4990 G174
N5000 M01
N5010 T00 M06
N5020 S6966 M03
N5030 M08
N5040 G93 X7.8745 Y-5.0965 Z9.2659
N5050 (*********coord_rot_on*************)
N5060 G74 Z-.1 L1
N5070 G7 A5=15. B5=0.0 C5=210. B7=254 C7=255
N5080 G00 B=E254 C=E255
N5090 (*********************************)
N5100 X-.8055 Y-1.249 Z50.
N5110 Z0.0
N5120 G01 X.3452 Y-.4909 B15. C270. F23.6
N5130 G03 X.6246 Y-.1124 I.3366 J-.5408
N5140 G00 Z50.
N5150 X.6353 Y.1254
N5160 Z0.0
N5170 G03 X.4132 Y.4859 I.5599 J.0964
N5180 G00 Z50.
N5190 X.2231 Y.5834
N5200 Z0.0
N5210 G03 X-.2344 Y.5649 I.203 J.6472
N5220 G00 Z50.
N5230 X-.3805 Y.485
N5240 Z0.0
N5250 G03 X-.6261 Y.1382 I-.371 J.5231
N5260 G01 X-.6304 Y.1199
N5270 X-.9425 Y-1.2223
N5280 G00 Z50.
N5290 M09
N5300 M05
N5310 ( Path : FIXED_CONT_TILT  )
N5320 ( MM10_90GR 0   )
N5330 G54 I1
N5340 G74 Z-.1 L1
N5350 G74 X-.1 Y-.1 L1
N5360 M56
N5370 G7 A5=0.0 B5=0.0 C5=0.0 L1=1
N5380 G174
N5390 M01
N5400 T00 M06
N5410 S9000 M03
N5420 M08
N5430 G93 X7.8745 Y-5.0965 Z9.2659
N5440 (*********coord_rot_on*************)
N5450 G74 Z-.1 L1
N5460 G7 A5=15. B5=0.0 C5=210. B7=254 C7=255
N5470 G00 B=E254 C=E255
N5480 (*********************************)
N5490 X-133.7018 Y149.2519 Z319.0694
N5500 G01 Z269.0694 B15. C270. F39.4
N5510 Z249.0694 F3.9
N5520 G03 X-134.0812 Y150.9428 I.8037 J-.7077 F11.8
N5530 X-137.6919 Y149.9031 I1.1888 J2.6612
N5540 X-137.1084 Y148.2708 I-.8853 J.604
N5550 X-133.7018 Y149.2519 I-1.0472 J-2.7687
N5560 G01 X-131.3431 Y148.1213
N5570 G03 X-132.6829 Y153.1617 I2.8253 J-1.9473
N5580 X-140.0581 Y151.0361 I2.5012 J5.1793
N5590 X-138.3262 Y145.9637 I-2.9415 J1.8275
N5600 X-131.3431 Y148.1213 I-2.1732 J-5.3456
N5610 G01 Z269.0694 F78.7
N5620 G00 X-133.7018 Y149.2519 Z267.5694
N5630 G01 Z247.5694 F3.9
N5640 G03 X-134.0812 Y150.9428 I.8037 J-.7077 F11.8
N5650 X-137.6919 Y149.9031 I1.1888 J2.6612
N5660 X-137.1084 Y148.2708 I-.8853 J.604
N5670 X-133.7018 Y149.2519 I-1.0472 J-2.7687
N5680 G01 X-131.3431 Y148.1213
N5690 G03 X-132.6829 Y153.1617 I2.8253 J-1.9473
N5700 X-140.0581 Y151.0361 I2.5012 J5.1793
N5710 X-138.3262 Y145.9637 I-2.9415 J1.8275
N5720 X-131.3431 Y148.1213 I-2.1732 J-5.3456
N5730 G01 Z267.5694 F78.7
N5740 G00 X-133.7018 Y149.2519 Z266.0694
N5750 G01 Z246.0694 F3.9
N5760 G03 X-134.0812 Y150.9428 I.8037 J-.7077 F11.8
N5770 X-137.6919 Y149.9031 I1.1888 J2.6612
N5780 X-137.1084 Y148.2708 I-.8853 J.604
N5790 X-133.7018 Y149.2519 I-1.0472 J-2.7687
N5800 G01 X-131.3431 Y148.1213
N5810 G03 X-132.6829 Y153.1617 I2.8253 J-1.9473
N5820 X-140.0581 Y151.0361 I2.5012 J5.1793
N5830 X-138.3262 Y145.9637 I-2.9415 J1.8275
N5840 X-131.3431 Y148.1213 I-2.1732 J-5.3456
N5850 G01 Z266.0694 F78.7
N5860 G00 X-133.7018 Y149.2519 Z264.5694
N5870 G01 Z244.5694 F3.9
N5880 G03 X-134.0812 Y150.9428 I.8037 J-.7077 F11.8
N5890 X-137.6919 Y149.9031 I1.1888 J2.6612
N5900 X-137.1084 Y148.2708 I-.8853 J.604
N5910 X-133.7018 Y149.2519 I-1.0472 J-2.7687
N5920 G01 X-131.3431 Y148.1213
N5930 G03 X-132.6829 Y153.1617 I2.8253 J-1.9473
N5940 X-140.0581 Y151.0361 I2.5012 J5.1793
N5950 X-138.3262 Y145.9637 I-2.9415 J1.8275
N5960 X-131.3431 Y148.1213 I-2.1732 J-5.3456
N5970 G01 Z264.5694 F78.7
N5980 G00 X-133.7018 Y149.2519 Z263.5694
N5990 G01 Z263.0694 F39.4
N6000 Z243.0694 F3.9
N6010 G03 X-134.0812 Y150.9428 I.8037 J-.7077 F11.8
N6020 X-137.6919 Y149.9031 I1.1888 J2.6612
N6030 X-137.1084 Y148.2708 I-.8853 J.604
N6040 X-133.7018 Y149.2519 I-1.0472 J-2.7687
N6050 G01 X-131.3431 Y148.1213
N6060 G03 X-132.6829 Y153.1617 I2.8253 J-1.9473
N6070 X-140.0581 Y151.0361 I2.5012 J5.1793
N6080 X-138.3262 Y145.9637 I-2.9415 J1.8275
N6090 X-131.3431 Y148.1213 I-2.1732 J-5.3456
N6100 G01 Z263.0694 F78.7
N6110 G00 Z263.5694
N6120 X-133.7018 Y149.2519
N6130 G01 Z261.5694 F39.4
N6140 Z241.5694 F3.9
N6150 G03 X-134.0812 Y150.9428 I.8037 J-.7077 F11.8
N6160 X-137.6919 Y149.9031 I1.1888 J2.6612
N6170 X-137.1084 Y148.2708 I-.8853 J.604
N6180 X-133.7018 Y149.2519 I-1.0472 J-2.7687
N6190 G01 X-131.3431 Y148.1213
N6200 G03 X-132.6829 Y153.1617 I2.8253 J-1.9473
N6210 X-140.0581 Y151.0361 I2.5012 J5.1793
N6220 X-138.3262 Y145.9637 I-2.9415 J1.8275
N6230 X-131.3431 Y148.1213 I-2.1732 J-5.3456
N6240 G01 Z261.5694 F78.7
N6250 G00 Z263.5694
N6260 X-133.7018 Y149.2519
N6270 G01 Z260.5694 F39.4
N6280 Z240.5694 F3.9
N6290 X-133.5659 Y149.4914 F11.8
N6300 G03 X-133.8662 Y150.8048 I.8713 J-.4918
N6310 X-135.871 Y151.1336 I1.3699 J2.0764
N6320 X-137.6919 Y149.9031 I-.5104 J2.7179
N6330 X-137.3519 Y148.4015 I-.8537 J.596
N6340 X-135.2404 Y148.1954 I-1.2902 J-2.2995
N6350 X-133.7018 Y149.2519 I.7395 J-2.7257
N6360 G01 X-131.3431 Y148.1213
N6370 G03 X-131.2915 Y151.9221 I2.869 J-1.9397
N6380 X-134.0296 Y153.639 I3.401 J2.3821
N6390 X-139.6689 Y151.6143 I1.1041 J5.7904
N6400 X-140.5384 Y148.6741 I-3.0006 J2.486
N6410 X-138.3262 Y145.9637 I-3.5286 J-.6221
N6420 X-131.8844 Y147.3858 I-2.1832 J-5.4117
N6430 G01 X-131.4414 Y147.9481
N6440 X-131.3431 Y148.1213
N6450 Z260.5694 F78.7
N6460 G00 Z310.5694
N6470 M09
N6480 M05
N6490 ( Path : VARI_CONT_R_FRIF  )
N6500 ( MM16_FULLR 0   )
N6510 G54 I1
N6520 G74 Z-.1 L1
N6530 G74 X-.1 Y-.1 L1
N6540 M56
N6550 G7 A5=0.0 B5=0.0 C5=0.0 L1=1
N6560 G174
N6570 M01
N6580 T00 M06
N6590 S9000 M03
N6600 M08
N6610 G93 X0.0 Y0.0 Z0.0
N6620 G00 B-70. C180.
N6630 G141 L2=0 F2=15000.
N6640 X82.0978 Y243.4537 Z244.1642
N6650 G01 Y233.4537 F51.2
N6660 Y150.824 F76.8
N6670 X80.16 Y152.2447 Z238.8401
N6680 Y232.033
N6690 X78.8113 Y231.1227 Z234.9438 B-74.522
N6700 Y223.326 B-74.368
N6710 X78.8112 Y215.5292 B-74.419
N6720 X78.8114 Y207.7324 B-74.423
N6730 Y199.9356
N6740 X78.8112 Y192.1388 B-74.419
N6750 X78.8114 Y184.3421 B-74.412
N6760 X78.8112 Y176.5453 B-74.419
N6770 X78.8114 Y168.7485 B-74.416
N6780 Y160.9517
N6790 X78.8112 Y153.1549 B-74.419
N6800 G00 X69.1787 Z237.6298
N6810 B-85.041
N6820 X68.1223 Y154.6734 Z231.7975
N6830 X78.0849 Z230.933
N6840 G01 Y156.6453 B-85.047
N6850 Y160.589 B-85.042
N6860 X78.0822 Y168.4765 Z230.9339 B-84.142
N6870 X78.0849 Y176.3639 Z230.933 B-85.057
N6880 Y184.2514 B-85.056
N6890 Y192.1388 B-85.041
N6900 X78.0847 Y200.0263 B-85.05
N6910 X78.084 Y207.9138 Z230.9333 B-84.533
N6920 X78.0849 Y215.8012 Z230.933 B-85.041
N6930 Y223.6887 B-85.053
N6940 X78.0846 Y227.6324 Z230.9331 B-84.741
N6950 X78.0849 Y229.6043 Z230.933 B-85.038
N6960 G00 X68.1224 Z231.798
N6970 B-47.924
N6980 X64.1168 Y218.4076 Z227.2074
N6990 X71.5393 Z220.5063
N7000 G01 Y216.6563
N7010 Y213.1538
N7020 Y206.1488
N7030 Y199.1438
N7040 Y192.1388
N7050 Y185.1338
N7060 Y178.1289
N7070 Y171.1239
N7080 Y167.6214
N7090 Y165.8701
N7100 G00 X64.1168 Z227.2074
N7110 B-61.266
N7120 X59.4686 Y167.1416 Z220.6702
N7130 X68.2372 Z215.8627
N7140 G01 Y169.9191
N7150 Y175.474 B-61.265
N7160 Y181.0289 Z215.8626 B-61.247
N7170 Y186.5839 Z215.8627 B-61.266
N7180 Y192.1388 B-61.265
N7190 Y197.6938 Z215.8626 B-61.252
N7200 Y203.2487 B-61.266
N7210 Y208.8037 B-61.265
N7220 X68.2373 Y214.3586 B-61.256
N7230 X68.2372 Y217.1361 B-61.266
N7240 G00 X59.4686 Z220.6701
N7250 B-75.962
N7260 X56.2246 Y215.4839 Z212.3718
N7270 X65.926 Z209.9462
N7280 G01 Y210.8149 B-75.971
N7290 Y206.1459
N7300 Y201.4768 B-75.963
N7310 Y196.8078 B-75.971
N7320 Y192.1388
N7330 Y187.4698
N7340 Y182.8008
N7350 Y178.1318
N7360 Y173.4628
N7370 Y168.7938
N7380 X64.8664 Y169.8745 Z204.0777 B-83.561
N7390 Y174.3274
N7400 Y178.7802
N7410 Y183.2331
N7420 Y187.686
N7430 Y192.1388
N7440 Y196.5917
N7450 Y201.0446
N7460 Y205.4974
N7470 Y209.9503
N7480 Y214.4032
N7490 X64.5895 Y213.6229 Z198.2603 B-90.99
N7500 Y200.7325
N7510 Y196.4357
N7520 Y192.1388
N7530 Y187.842
N7540 Y183.5452
N7550 Y170.6548
N7560 X64.5989 Y171.0315 Z196.5448 B-84.433
N7570 X64.4531 Y171.2199 Z195.7419 B-75.068
N7580 X-51.2649 Y175.0507 Z195.6439 B-90. C143.682
N7590 X-49.5761 Y175.7293 Z194.1123 C144.437
N7600 X-48.7034 Y176.0722 Z193.3442 C144.821
N7610 X-47.8463 Y176.408 Z192.5746 C145.198
N7620 X-36.5699 Y181.0898 Z192.486 C149.093
N7630 X63.0955 Y176.1571 Z191.9559 B-70. C180.
N7640 Y208.1206
N7650 X160.8307 Y148.6018 Z192.4861 B-90. C210.914
N7660 X171.4866 Y139.1219 Z192.5748 C214.806
N7670 X170.9677 Y139.4904 Z190.5734 C214.8
N7680 X170.5541 Y139.7778 Z188.5318
N7690 X170.3869 Y139.8928 Z187.4945 C214.801
N7700 X-5.7042 Y221.0589 Z185.4975 C162.104
N7710 Z183.2726
N7720 X1.3477 Y219.0397 Z183.4946 C163.94
N7730 X148.183 Y157.8739 Z184.2796 C207.172
N7740 X126.1036 Y171.2919 Z184.2559 C200.032
N7750 X103.9961 Y181.1677 Z184.2284 C193.201
N7760 X81.9356 Y188.0067 Z184.2093 C186.558
N7770 X59.9301 Y192.143 Z184.2035 C179.996
N7780 X38.0715 Y193.752 Z184.2092 C173.449
N7790 X16.2564 Y192.954 Z184.2283 C166.804
N7800 X-5.5288 Y189.7376 Z184.2559 C159.968
N7810 X-27.3058 Y183.9943 Z184.2796 C152.827
N7820 X107.6558 Y150.2406 Z183.4946 C196.06
N7830 X112.3806 Y144.6258 Z183.2726 C197.896
N7840 X105.434 Y144.6259 F51.2
N7850 G00 X95.834
N7860 B-70. C180.
N7870 X46.755 Y233.4537 Z257.028
N7880 X76.8252 Z246.0833
N7890 G01 X84.4471 Z243.3092
N7900 Y150.824 F76.8
N7910 X82.5092 Y152.2447 Z237.9851
N7920 Y232.033
N7930 X81.1684 Y231.1227 Z234.0859 B-74.995
N7940 Y223.326 B-74.973
N7950 Y215.5292 B-74.989
N7960 X81.1685 Y207.7324 Z234.0858 B-74.991
N7970 Y199.9356
N7980 X81.1684 Y192.1388 Z234.0859 B-74.989
N7990 Y184.3421 B-74.979
N8000 Y176.5453 B-74.989
N8010 X81.1685 Y168.7485 Z234.0858 B-74.982
N8020 X81.1684 Y160.9517 Z234.0859
N8030 Y153.1549 B-74.989
N8040 G00 X71.5097 Z236.676
N8050 B-87.026
N8060 X70.5424 Y154.6734 Z230.5623
N8070 X80.5289 Z230.0434
N8080 G01 X80.5288 Y156.6453 Z230.0435 B-87.092
N8090 X80.5289 Y160.589 Z230.0434 B-87.025
N8100 Y168.4765 B-87.029
N8110 X80.5287 Y176.3639 Z230.0435 B-87.091
N8120 X80.5289 Y184.2514 Z230.0434 B-87.026
N8130 Y192.1388
N8140 Y200.0263
N8150 Y207.9138 B-87.04
N8160 X80.5287 Y215.8012 Z230.0435 B-87.066
N8170 X80.5288 Y223.6887 B-87.018
N8180 Y227.6324 B-87.023
N8190 X80.5289 Y229.6043 Z230.0434 B-87.025
N8200 X74.0983 Y220.1588 Z219.5749 B-45.285
N8210 Y213.1538
N8220 Y206.1488
N8230 Y199.1438
N8240 Y192.1388
N8250 X74.0982 Y185.1338 B-45.281
N8260 X74.0983 Y178.1289 B-45.285
N8270 Y171.1239
N8280 Y164.1189
N8290 X-56.6596 Y208.6046 Z193.8899 B-90. C122.795
N8300 X70.6175 Y169.9191 Z214.9963 B-60.233 C180.
N8310 Y175.474
N8320 Y181.0289
N8330 Y186.5839
N8340 Y192.1388
N8350 Y197.6938
N8360 Y203.2487
N8370 Y208.8037
N8380 X70.6174 Y214.3586 B-60.255
N8390 X70.6175 Y217.1361 B-60.233
N8400 G00 X61.937 Z219.9611
N8410 B-76.316
N8420 X58.5726 Y215.4839 Z211.4518
N8430 X68.2888 Z209.0862
N8440 G01 Y210.8149 B-76.315
N8450 Y206.1459
N8460 Y201.4768 B-76.321
N8470 Y196.8078 B-76.315
N8480 Y192.1388
N8490 Y187.4698
N8500 Y182.8008
N8510 Y178.1318 B-76.316
N8520 Y173.4628 B-76.315
N8530 Y168.7938
N8540 X67.2872 Y169.8745 Z203.1966 B-84.377
N8550 Y174.3274
N8560 Y178.7802
N8570 Y183.2331
N8580 Y187.686
N8590 Y192.1388
N8600 Y196.5917
N8610 Y201.0446
N8620 Y205.4974
N8630 Y209.9503
N8640 Y214.4032
N8650 X67.1166 Y213.6229 Z197.3405 B-92.317
N8660 Y209.3261 B-92.323
N8670 Y205.0293 B-92.319
N8680 Y200.7325 B-92.325
N8690 Y196.4357 B-92.323
N8700 Y192.1388
N8710 Y187.842 B-92.322
N8720 Y183.5452 B-92.318
N8730 Y179.2484 B-92.317
N8740 Y174.9516 B-92.323
N8750 Y170.6548 B-92.315
N8760 X66.8769 Y171.1606 Z195.1289 B-75.309
N8770 X33.0884 Y228.828 Z162.8943 B-90. C145.984
N8780 X40.394 Y228.85 Z158.1083 C147.813
N8790 X63.9466 Y227.338 Z157.4205 C153.724
N8800 X65.4448 Y175.5406 Z191.1008 B-70. C180.
N8810 Y208.737
N8820 X234.0647 Y117.2331 Z157.4205 B-90. C206.276
N8830 X245.1045 Y96.3397 Z158.1083 C212.194
N8840 X245.091 Y96.3739 Z153.6585 C212.186
N8850 X-6.0951 Y221.8072 Z185.6518 C161.356
N8860 Z182.3144
N8870 X8.5989 Y217.5492 Z182.7515 C165.187
N8880 X12.1772 Y216.3468 Z182.8444 C166.132
N8890 X224.5396 Y131.899 Z148.0952 C201.897
N8900 X216.7386 Y142.3219 Z147.8267 C198.638
N8910 X199.9488 Y161.2183 Z147.4242 C192.306
N8920 X181.6149 Y177.7995 Z147.1884 C186.115
N8930 X161.855 Y192.1388 Z147.1107 C180.
N8940 X140.6693 Y204.299 Z147.1884 C173.882
N8950 X118.0654 Y214.2196 Z147.4242 C167.699
N8960 X93.9243 Y221.8046 Z147.8267 C161.361
N8970 X81.2313 Y224.6539 Z148.0952 C158.104
N8980 X104.2831 Y156.7294 Z182.8444 C193.868
N8990 X106.8453 Y153.9572 Z182.7515 C194.813
N9000 X116.7535 Y142.3048 Z182.3144 C198.644
N9010 X110.157 F51.2
N9020 G00 X97.357 Y142.3047
N9030 B-70. C180.
N9040 X46.755 Y233.4537 Z257.028
N9050 X79.8322 Z244.9889
N9060 G01 X86.7963 Z242.4541
N9070 Y150.824 F76.8
N9080 X84.8585 Y152.2447 Z237.13
N9090 Y232.033
N9100 G00 X75.4615 Z240.5502
N9110 B-75.732
N9120 X73.8364 Y231.1227 Z235.6917
N9130 X83.5279 Z233.2271
N9140 G01 Y223.326 B-75.71
N9150 Y215.5292 B-75.728
N9160 Y207.7324 B-75.73
N9170 X83.528 Y199.9356 B-75.725
N9180 X83.5279 Y192.1388 B-75.728
N9190 Y184.3421 B-75.714
N9200 Y176.5453 B-75.71
N9210 Y168.7485 B-75.733
N9220 X83.5278 Y160.9517 B-75.702
N9230 X83.5279 Y153.1549 B-75.728
N9240 G00 X73.8365 Z235.6924
N9250 B-89.625
N9260 X73.0032 Y154.6734 Z229.2083
N9270 X83.003 Z229.1429
N9280 G01 Y156.6453 B-89.64
N9290 Y160.589 B-89.617
N9300 Y168.4765 B-89.638
N9310 Y176.3639 B-89.641
N9320 X83.0031 Y184.2514 B-89.638
N9330 X83.003 Y192.1388 B-89.625
N9340 Y200.0263 B-89.618
N9350 X83.0029 Y207.9138 B-89.639
N9360 Y215.8012 B-89.642
N9370 X83.003 Y223.6887 B-89.628
N9380 X83.0029 Y227.6324 Z229.143 B-89.639
N9390 X83.003 Y229.6043 Z229.1429 B-89.625
N9400 G00 X73.0032 Z229.2083
N9410 B-41.852
N9420 X70.0486 Y220.1588 Z226.0691
N9430 X76.7207 Z218.6204
N9440 G01 X76.7206 Y213.1538 B-41.864
N9450 Y206.1488
N9460 Y199.1438 B-41.863
N9470 Y192.1388 B-41.864
N9480 Y185.1338 B-41.862
N9490 Y178.1289 B-41.864
N9500 X76.7207 Y171.1239 B-41.852
N9510 X76.7206 Y164.1189 B-41.864
N9520 G00 X70.047 Z226.0678
N9530 B-58.982
N9540 X64.4357 Y167.1416 Z219.28
N9550 X73.0058 Z214.127
N9560 G01 Y169.9191
N9570 Y175.474
N9580 Y181.0289
N9590 Y186.5839
N9600 Y192.1388
N9610 X73.0057 Y197.6938 Z214.1271 B-58.983
N9620 X73.0058 Y203.2487 Z214.127 B-58.982
N9630 Y208.8037
N9640 X73.0057 Y214.3586 B-58.984
N9650 X73.0058 Y217.1361 B-58.982
N9660 G00 X64.4357 Z219.28
N9670 B-76.713
N9680 X60.921 Y215.4839 Z210.5239
N9690 X70.6533 Z208.2256
N9700 G01 Y187.4698
N9710 Y168.7938
N9720 X69.7174 Y169.8745 Z202.312 B-85.301
N9730 Y183.2331
N9740 Y187.686
N9750 Y192.1388
N9760 Y196.5917
N9770 Y201.0446
N9780 Y214.4032
N9790 X69.6049 Y213.6229 Z196.4349 B-86.575
N9800 Y209.3261
N9810 Y205.0293 B-86.573
N9820 Y200.7325 B-86.558
N9830 Y196.4357 B-86.574
N9840 Y192.1388 B-86.576
N9850 Y187.842 B-86.575
N9860 Y183.5452 B-86.577
N9870 Y179.2484 B-86.557
N9880 Y174.9516 B-86.576
N9890 Y170.6548 B-86.574
N9900 X69.3117 Y171.0911 Z194.5587 B-75.676
N9910 X44.6434 Y228.8237 Z162.1425 B-90. C148.251
N9920 X48.237 Y228.7204 Z159.5923 C149.151
N9930 X51.7728 Y228.5676 Z157.0462 C150.037
N9940 X73.4005 Y226.4201 Z156.4134 C155.48
N9950 X67.794 Y175.5406 Z190.2458 B-70. C180.
N9960 Y208.737
N9970 X232.8799 Y123.2021 Z156.4134 B-90. C204.52
N9980 X243.6985 Y104.3464 Z157.0462 C209.964
N9990 X243.693 Y104.3591 Z154.8212 C209.961
N0010 Z153.7088
N0020 X-6.7169 Y222.5803 Z186.3579 C160.551
N0030 Z181.3518
N0040 X8.6874 Y218.3208 Z181.8089 C164.553
N0050 X16.1556 Y215.83 Z181.9964 C166.524
N0060 X19.8283 Y214.4978 Z182.0803 C167.502
N0070 X216.2137 Y146.0494 Z146.8698 C197.436
N0080 X200.2362 Y163.4183 Z146.4943 C191.525
N0090 X182.9201 Y178.7617 Z146.2736 C185.731
N0100 X164.355 Y192.1388 Z146.2008 C180.
N0110 X144.5362 Y203.6028 Z146.2736 C174.266
N0120 X123.4592 Y213.1114 Z146.4943 C168.475
N0130 X101.0725 Y220.5698 Z146.8698 C162.565
N0140 X102.9937 Y160.6703 Z182.0803 C192.5
N0150 X105.7151 Y157.8621 Z181.9964 C193.479
N0160 X111.0465 Y152.0699 Z181.8089 C195.45
N0170 X121.2351 Y139.7698 Z181.3518 C199.449
N0180 X114.9395 F51.2
N0190 G00 X98.9395
N0200 B-70. C180.
N0210 X46.755 Y233.4537 Z257.028
N0220 X82.8392 Z243.8944
N0230 G01 X89.1455 Z241.5991
N0240 Y150.824 F76.8
N0250 X87.2077 Y152.2447 Z236.275
N0260 Y232.033
N0270 G00 X77.8108 Z239.6952
N0280 B-76.708
N0290 X76.1589 Y231.1227 Z234.6662
N0300 X85.891 Z232.367
N0310 G01 Y223.326
N0320 Y215.5292 B-76.714
N0330 Y207.7324 B-76.715
N0340 X85.8909 Y199.9356
N0350 X85.891 Y192.1388 B-76.714
N0360 Y184.3421 B-76.708
N0370 Y176.5453
N0380 X85.8909 Y168.7485 B-76.717
N0390 X85.891 Y160.9517 B-76.706
N0400 Y153.1549 B-76.714
N0410 G00 X76.1587 Z234.6651
N0420 B-93.196
N0430 X75.5408 Y153.6875 Z227.6674
N0440 X85.5253 Z228.2249
N0450 G01 Y154.6734
N0460 Y156.6453
N0470 Y160.589 B-93.202
N0480 Y168.4765 B-93.196
N0490 Y176.3639 B-93.195
N0500 Y184.2514 B-93.202
N0510 Y192.1388 B-93.196
N0520 Y200.0263 B-93.202
N0530 Y207.9138 B-93.196
N0540 Y215.8012 B-93.195
N0550 Y223.6887 B-93.196
N0560 Y227.6324
N0570 Y230.5902
N0580 G00 X75.5408 Z227.6674
N0590 B-37.272
N0600 X73.3872 Y221.0345 Z225.5871
N0610 X79.4433 Z217.6295
N0620 G01 Y220.1588 B-37.266
N0630 Y213.1538
N0640 Y206.1488
N0650 Y199.1438 B-37.273
N0660 Y192.1388 B-37.266
N0670 Y185.1338
N0680 Y178.1289
N0690 Y171.1239
N0700 Y164.1189
N0710 Y163.2432
N0720 G00 X73.388 Z225.5877
N0730 B-57.343
N0740 X66.9867 Y167.1416 Z218.6495
N0750 X75.4059 Z213.2535
N0760 G01 Y169.9191
N0770 Y175.474
N0780 Y181.0289 B-57.337
N0790 Y186.5839 B-57.343
N0800 Y192.1388
N0810 Y197.6938 B-57.336
N0820 Y203.2487 B-57.343
N0830 Y208.8037
N0840 Y214.3586 B-57.336
N0850 Y217.1361 B-57.343
N0860 G00 X66.9867 Z218.6495
N0870 B-77.167
N0880 X63.2696 Y215.4839 Z209.5853
N0890 X73.0198 Z207.3642
N0900 G01 Y210.8149
N0910 Y206.1459 B-77.164
N0920 Y201.4768
N0930 Y196.8078
N0940 Y192.1388 B-77.167
N0950 Y187.4698
N0960 Y182.8008 B-77.164
N0970 Y178.1318 B-77.167
N0980 Y173.4628 B-77.164
N0990 Y168.7938
N1000 X72.1591 Y169.8745 Z201.4233 B-86.345
N1010 Y178.7802
N1020 Y183.2331 B-86.346
N1030 Y187.686 B-86.345
N1040 Y192.1388
N1050 Y196.5917 B-86.346
N1060 Y201.0446 B-86.345
N1070 Y214.4032
N1080 X72.0346 Y213.6229 Z195.5505 B-83.188
N1090 Y209.3261
N1100 Y205.0293
N1110 Y200.7325
N1120 Y196.4357 B-83.19
N1130 Y192.1388 B-83.188
N1140 Y187.842
N1150 Y183.5452 B-83.187
N1160 Y179.2484
N1170 Y174.9516 B-83.188
N1180 Y170.6548 B-83.182
N1190 X71.7573 Y171.0109 Z194.033 B-76.113
N1200 X54.8791 Y228.5358 Z161.4667 B-90. C150.189
N1210 X58.4314 Y228.3149 Z158.7342 C151.08
N1220 X61.944 Y228.0429 Z156.0059 C151.962
N1230 X81.9262 Y225.4491 Z155.4193 C157.008
N1240 X70.1432 Y175.5406 Z189.3907 B-70. C180.
N1250 Y208.737
N1260 X232.0261 Y128.3013 Z155.4193 B-90. C202.992
N1270 X242.5764 Y111.1344 Z156.0059 C208.038
N1280 Z154.8935
N1290 Z154.3372
N1300 X-7.6417 Y223.3745 Z187.0589 C159.671
N1310 Z180.3842
N1320 X8.5456 Y219.1319 Z180.8633 C163.861
N1330 X24.0665 Y213.841 Z181.2281 C167.967
N1340 X27.8454 Y212.3613 Z181.3022 C168.983
N1350 X29.7286 Y211.5971 Z181.3368 C169.492
N1360 X208.5289 Y157.5307 Z145.7242 C193.593
N1370 X200.7652 Y165.3283 Z145.5667 C190.838
N1380 X184.3662 Y179.5984 Z145.3594 C185.394
N1390 X166.855 Y192.1388 Z145.2909 C180.
N1400 X148.239 Y202.9802 Z145.3594 C174.605
N1410 X128.5085 Y212.095 Z145.5667 C169.162
N1420 X118.2147 Y215.9832 Z145.7242 C166.407
N1430 X99.8162 Y166.2325 Z181.3368 C190.51
N1440 X101.2752 Y164.8379 Z181.3022 C191.015
N1450 X104.1703 Y161.9987 Z181.2281 C192.03
N1460 X115.3601 Y150.0034 Z180.8633 C196.138
N1470 X125.8603 Y136.9678 Z180.3842 C200.329
N1480 X119.8053 F51.2
N1490 G00 X100.6053 Y136.9676
N1500 B-70. C180.
N1510 X46.755 Y233.4537 Z257.028
N1520 X85.8462 Z242.7999
N1530 G01 X91.4948 Z240.744
N1540 Y150.824 F76.8
N1550 X89.5569 Y152.2447 Z235.4199
N1560 Y232.033
N1570 X89.3807 Y231.9192 Z234.9357
N1580 G00 X79.9838 Z238.3559
N1590 B-78.119
N1600 X78.4741 Y231.1227 Z233.5635
N1610 X88.2599 Z231.5048
N1620 G01 Y223.326 B-78.116
N1630 Y215.5292 B-78.12
N1640 Y207.7324 B-78.116
N1650 Y199.9356
N1660 Y192.1388
N1670 Y184.3421 B-78.119
N1680 Y176.5453
N1690 Y168.7485
N1700 Y160.9517
N1710 Y153.1549 B-78.116
N1720 G00 X78.4742 Z233.5641
N1730 B-98.422
N1740 X78.2401 Y153.6875 Z225.8114
N1750 X88.1322 Z227.276
N1760 G01 Y154.6734
N1770 Y156.6453
N1780 Y160.589 B-98.425
N1790 Y168.4765 B-98.422
N1800 Y176.3639
N1810 Y184.2514 B-98.425
N1820 Y192.1388 B-98.422
N1830 Y200.0263 B-98.425
N1840 Y207.9138 B-98.422
N1850 Y215.8012
N1860 Y223.6887 B-98.425
N1870 Y227.6324 B-98.422
N1880 Y230.5902
N1890 G00 X78.2401 Z225.8114
N1900 B-30.698
N1910 X77.2377 Y222.7857 Z225.1728
N1920 X82.3429 Z216.5741
N1930 G01 Y221.9101 B-30.699
N1940 Y220.1588
N1950 Y213.1538 B-30.701
N1960 Y206.1488
N1970 Y199.1438 B-30.702
N1980 Y192.1388 B-30.701
N1990 Y185.1338 B-30.698
N2000 Y178.1289 B-30.701
N2010 Y171.1239 B-30.699
N2020 Y164.1189 B-30.701
N2030 Y161.492
N2040 G00 X77.2372 Z225.1725
N2050 B-55.121
N2060 X69.6205 Y165.7529 Z218.0917
N2070 X77.8241 Z212.3733
N2080 G01 Y167.1416
N2090 Y169.9191
N2100 Y175.474
N2110 Y181.0289
N2120 Y186.5839
N2130 Y192.1388
N2140 Y197.6938
N2150 Y203.2487
N2160 Y208.8037
N2170 Y214.3586
N2180 Y217.1361
N2190 Y218.5248
N2200 G00 X69.6205 Z218.0917
N2210 B-77.679
N2220 X65.6192 Y215.4839 Z208.6358
N2230 X75.3889 Z206.5019
N2240 G01 Y210.8149
N2250 Y206.1459 B-77.68
N2260 Y201.4768
N2270 Y196.8078
N2280 Y192.1388 B-77.681
N2290 Y187.4698 B-77.679
N2300 Y182.8008 B-77.681
N2310 Y178.1318 B-77.679
N2320 Y173.4628 B-77.68
N2330 Y168.7938 B-77.681
N2340 X74.994 Y169.1848 Z204.3828 B-81.21
N2350 X53.9515 Y228.6953 Z172.3285 B-90. C149.33
N2360 X54.8336 Y228.6587 Z171.4329 C149.551
N2370 X57.427 Y228.5329 Z168.7821 C150.201
N2380 X74.6432 Y169.7764 Z201.0872 B-86.637 C180.
N2390 X74.6149 Y169.8745 Z200.5295 B-87.551
N2400 Y174.3274 B-87.552
N2410 Y178.7802 B-87.551
N2420 Y183.2331
N2430 Y187.686
N2440 Y192.1388
N2450 Y196.5917 B-87.55
N2460 Y201.0446 B-87.551
N2470 Y205.4974
N2480 Y209.9503 B-87.55
N2490 Y214.4032 B-87.551
N2500 X74.4365 Y213.6229 Z194.6763 B-80.959
N2510 Y209.3261 B-80.958
N2520 Y205.0293 B-80.956
N2530 Y200.7325 B-80.958
N2540 Y196.4357
N2550 Y192.1388
N2560 Y187.842
N2570 Y183.5452 B-80.956
N2580 Y179.2484 B-80.959
N2590 Y174.9516 B-80.958
N2600 Y170.6548 B-80.956
N2610 X74.218 Y170.9153 Z193.5721 B-76.657
N2620 X64.038 Y228.0767 Z160.8803 B-90. C151.86
N2630 X67.6022 Y227.7511 Z157.9294 C152.756
N2640 X69.3704 Y227.5689 Z156.4557 C153.201
N2650 X70.252 Y227.4728 Z155.7192 C153.423
N2660 X70.6926 Y227.4233 Z155.3511 C153.534
N2670 X130.6528 Y133.846 Z188.3104 C201.299
N2680 X73.9407 Y227.0323 Z154.8944 C154.353
N2690 X76.7241 Y226.6603 Z154.8084 C155.056
N2700 X82.2288 Y225.8222 Z154.6447 C156.45
N2710 X89.7072 Y224.4608 Z154.4357 C158.353
N2720 X72.4925 Y175.5406 Z188.5357 B-70. C180.
N2730 Y208.737
N2740 X231.4623 Y132.7154 Z154.4357 B-90. C201.647
N2750 X235.7666 Y126.4497 Z154.6447 C203.55
N2760 X238.7885 Y121.7679 Z154.8084 C204.945
N2770 X240.2679 Y119.3813 Z154.8944 C205.648
N2780 X-8.9303 Y224.1846 Z188.3104 C158.701
N2790 Z179.4108
N2800 X8.1601 Y219.983 Z179.9142 C163.108
N2810 X24.4913 Y214.6217 Z180.2968 C167.412
N2820 X32.3911 Y211.5281 Z180.4451 C169.536
N2830 X36.2746 Y209.8812 Z180.5087 C170.592
N2840 X38.2012 Y209.0328 Z180.538 C171.119
N2850 X201.4991 Y167.0013 Z144.6412 C190.229
N2860 X185.9239 Y180.3384 Z144.4456 C185.094
N2870 X169.355 Y192.1388 Z144.3809 C180.
N2880 X151.8074 Y202.4189 Z144.4456 C174.907
N2890 X133.2579 Y211.1687 Z144.6412 C169.771
N2900 X97.5211 Y170.6412 Z180.538 C188.879
N2910 X99.0901 Y169.2277 Z180.5087 C189.408
N2920 X102.1827 Y166.3588 Z180.4451 C190.464
N2930 X108.2375 Y160.4208 Z180.2968 C192.587
N2940 X119.8191 Y147.7147 Z179.9142 C196.892
N2950 X130.6528 Y133.846 Z179.4108 C201.299
N2960 X124.7644 Y133.8461 F51.2
N2970 G00 X102.3644 Y133.8462
N2980 B-70. C180.
N2990 X46.755 Y233.4537 Z257.028
N3000 X85.8462 Z242.7999
N3010 G01 X93.844 Z239.889
N3020 Y150.824 F76.8
N3030 X91.9062 Y152.2447 Z234.5649
N3040 Y232.033
N3050 X91.6342 Y231.8574 Z233.8177
N3060 X276.3658 Y1.3999 Z212.4239 B-90. C236.738
N3070 X276.3644 Y1.6038 Z212.2997 C236.687
N3080 X276.3626 Y1.8511 Z212.1469 C236.625
N3090 X276.358 Y2.3508 Z211.8413 C236.5
N3100 X90.6393 Y223.326 Z230.6388 B-80.274 C180.
N3110 Y215.5292 B-80.275
N3120 Y207.7324 B-80.274
N3130 Y199.9356 B-80.275
N3140 Y192.1388 B-80.274
N3150 Y184.3421
N3160 Y176.5453 B-80.275
N3170 Y168.7485 B-80.274
N3180 Y160.9517 B-80.275
N3190 Y153.1549 B-80.274
N3200 G00 X80.783 Z232.3281
N3210 B-103.59
N3220 X81.1864 Y153.1945 Z223.9166
N3230 X90.9064 Z226.2663
N3240 G01 Y154.6734
N3250 Y156.6453 B-103.591
N3260 Y160.589
N3270 Y176.3639
N3280 Y184.2514 B-103.59
N3290 Y192.1388 B-103.591
N3300 Y200.0263
N3310 Y223.6887
N3320 Y227.6324
N3330 Y229.6043 B-103.59
N3340 Y231.0832
N3350 G00 X81.1864 Z223.9166
N3360 X46.755 Z215.593
N3370 B-40.248
N3380 Y226.0649 Z266.6339
N3390 B-24.459
N3400 X62.2953 Y224.537
N3410 X79.5194 Z228.7672
N3420 G01 X81.4654 Z224.4891 F51.2
N3430 G00 X85.6058 Z215.3865
N3440 G01 Y223.6613 F76.8
N3450 Y220.1588
N3460 Y213.1538
N3470 Y206.1488
N3480 Y199.1438
N3490 Y192.1388
N3500 Y185.1338
N3510 Y178.1289 B-24.458
N3520 Y171.1239 B-24.459
N3530 Y164.1189
N3540 Y160.6164
N3550 Y159.7407
N3560 G00 X81.4654 Z224.4891
N3570 G01 X79.5194 Z228.7672 F51.2
N3580 G00 X62.2953 Z266.6339
N3590 B-33.995
N3600 X46.755 Y161.7209
N3610 B-51.949
N3620 Y165.4057 Z237.7169
N3630 X80.2729 Z211.482
N3640 G01 Y165.7529 F76.8
N3650 Y167.1416
N3660 Y169.9191
N3670 Y175.474
N3680 Y181.0289
N3690 Y186.5839
N3700 Y192.1388
N3710 Y197.6938
N3720 Y203.2487
N3730 Y208.8037
N3740 Y214.3586
N3750 Y217.1361
N3760 Y218.5248
N3770 Y218.872
N3780 G00 X72.3982 Z217.6456
N3790 B-78.275
N3800 X67.9697 Y215.4839 Z207.6708
N3810 X77.7611 Z205.6386
N3820 G01 Y210.8149
N3830 Y206.1459
N3840 Y201.4768
N3850 Y196.8078
N3860 Y192.1388
N3870 Y187.4698
N3880 Y182.8008
N3890 Y178.1318
N3900 Y173.4628
N3910 Y168.7938
N3920 X77.5964 Y168.9511 Z204.7885 B-79.801
N3930 X62.2357 Y228.3955 Z172.6795 B-90. C150.78
N3940 X64.3398 Y228.2498 Z170.3869 C151.308
N3950 X67.2544 Y228.0163 Z167.1893 C152.04
N3960 X77.089 Y169.8687 Z199.6626 B-88.892 C180.
N3970 X77.0883 Y169.8745 Z199.6292 B-88.95
N3980 Y174.3274
N3990 Y178.7802 B-88.951
N4000 Y183.2331
N4010 Y187.686
N4020 Y192.1388 B-88.95
N4030 Y196.5917 B-88.951
N4040 Y201.0446
N4050 Y205.4974
N4060 Y209.9503 B-88.95
N4070 Y214.4032 B-88.951
N4080 X76.823 Y213.6229 Z193.8077 B-79.377
N4090 Y209.3261
N4100 Y205.0293
N4110 Y200.7325
N4120 Y196.4357
N4130 Y192.1388 B-79.376
N4140 Y187.842 B-79.377
N4150 Y183.5452 B-79.376
N4160 Y179.2484 B-79.377
N4170 Y174.9516
N4180 Y170.6548
N4190 X76.6991 Y170.7972 Z193.2058 B-77.364
N4200 X72.2675 Y227.5263 Z160.4147 B-90. C153.301
N4210 X75.9097 Y227.0999 Z157.1919 C154.219
N4220 X76.1356 Y227.0716 Z156.9907 C154.276
N4230 X137.2051 Y128.0371 Z189.9521 C203.072
N4240 X136.9791 Y128.3714 Z189.5777 C202.971
N4250 X136.5253 Y129.0386 Z188.8288 C202.769
N4260 X135.613 Y130.3651 Z187.3302 C202.366
N4270 X132.9025 Y134.1919 Z187.4755 C201.192
N4280 X131.5251 Y136.0741 Z187.5449 C200.608
N4290 X130.834 Y137.0046 Z187.5788 C200.318
N4300 X89.8739 Y224.9135 Z153.657 C157.758
N4310 X96.867 Y223.4822 Z153.4608 C159.545
N4320 X74.8417 Y175.5406 Z187.6806 B-70. C180.
N4330 Y208.737
N4340 X231.1611 Y136.5656 Z153.4608 B-90. C200.455
N4350 X235.3304 Y130.7714 Z153.657 C202.242
N4360 X-2.5988 Y223.3633 Z187.5788 C159.682
N4370 X-3.73 Y223.6138 Z187.5449 C159.392
N4380 X-6.0117 Y224.0988 Z187.4755 C158.808
N4390 X-10.613 Y225.0041 Z187.3302 C157.634
N4400 Z178.4306
N4410 X7.463 Y220.8753 Z178.9611 C162.277
N4420 X24.7019 Y215.4558 Z179.3634 C166.802
N4430 X41.1607 Y208.828 Z179.6454 C171.245
N4440 X49.1081 Y205.0787 Z179.7431 C173.445
N4450 X51.0649 Y204.0972 Z179.7631 C173.993
N4460 X192.3058 Y177.2368 Z143.5767 C186.338
N4470 X191.3665 Y178.0001 Z143.5668 C186.035
N4480 X187.5756 Y180.9982 Z143.5323 C184.825
N4490 X171.855 Y192.1388 Z143.471 C180.
N4500 X155.253 Y201.9177 Z143.5323 C175.175
N4510 X150.9651 Y204.1478 Z143.5668 C173.965
N4520 X149.8841 Y204.6922 Z143.5767 C173.662
N4530 X91.2795 Y178.0705 Z179.7631 C186.007
N4540 X92.976 Y176.6869 Z179.7431 C186.555
N4550 X99.6514 Y170.9722 Z179.6454 C188.755
N4560 X112.4389 Y158.6719 Z179.3634 C193.198
N4570 X124.4431 Y145.1643 Z178.9611 C197.723
N4580 X135.613 Y130.3651 Z178.4306 C202.366
N4590 X129.8006 F51.2
N4600 G00 X104.2006 Y130.3653
N4610 B-70. C180.
N4620 X46.755 Y233.4537 Z257.028
N4630 X88.8532 Z241.7055
N4640 G01 X95.7234 Z239.2049
N4650 Y150.824 F76.8
N4660 X93.7856 Y152.2447 Z233.8808
N4670 Y232.033
N4680 X93.5212 Y231.8623 Z233.1545
N4690 G00 X84.1242 Z236.5747
N4700 B-83.057
N4710 X82.6311 Y231.1227 Z231.1492
N4720 X92.5577 Z229.9405
N4730 G01 Y223.326
N4740 Y215.5292
N4750 Y207.7324
N4760 Y199.9356
N4770 Y192.1388
N4780 Y184.3421
N4790 Y176.5453
N4800 Y168.7485
N4810 Y160.9517
N4820 Y153.1549
N4830 X92.5539 Y153.1514 Z229.9085 B-83.304
N4840 G00 X82.6221 Z231.0746
N4850 B-97.196
N4860 X83.1606 Y152.7632 Z224.2218
N4870 X93.0819 Z225.4745
N4880 G01 Y152.948
N4890 Y153.1945
N4900 Y153.6875
N4910 Y154.6734
N4920 Y156.6453
N4930 Y160.589
N4940 Y168.4765
N4950 Y184.2514
N4960 Y192.1388
N4970 Y200.0263
N4980 Y207.9138
N4990 Y215.8012
N5000 Y223.6887
N5010 Y227.6324
N5020 Y229.6043
N5030 Y231.5145
N5040 G00 X83.1606 Z224.2218
N5050 B-33.87
N5060 X82.5084 Y226.8355 Z222.7885
N5070 X88.0815 Z214.4854
N5080 G01 Y226.726
N5090 Y226.2882
N5100 Y225.4126
N5110 Y223.6613
N5120 Y220.1588
N5130 Y213.1538
N5140 Y206.1488
N5150 Y199.1438
N5160 Y192.1388
N5170 Y185.1338
N5180 Y178.1289
N5190 Y171.1239
N5200 Y164.1189
N5210 Y160.6164
N5220 Y158.8651
N5230 Y157.9895
N5240 Y157.5517
N5250 Y157.4422
N5260 G00 X82.5084 Z222.7885
N5270 B-48.204
N5280 X74.8156 Y164.5811 Z217.4197
N5290 X82.2708 Z210.7548
N5300 G01 Y164.7113
N5310 Y165.0585
N5320 Y165.7529
N5330 Y167.1416
N5340 Y169.9191
N5350 Y175.474
N5360 Y181.0289
N5370 Y186.5839
N5380 Y192.1388
N5390 Y197.6938
N5400 Y203.2487
N5410 Y208.8037
N5420 Y214.3586
N5430 Y217.1361
N5440 Y218.5248
N5450 Y219.2192
N5460 Y219.5664
N5470 Y219.6966
N5480 G00 X74.8156 Z217.4196
N5490 B-78.822
N5500 X69.8513 Y215.4839 Z206.8855
N5510 X79.6615 Z204.9468
N5520 G01 Y210.8149
N5530 Y206.1459
N5540 Y201.4768
N5550 Y196.8078
N5560 Y192.1388
N5570 Y187.4698
N5580 Y182.8008
N5590 Y178.1318
N5600 Y173.4628
N5610 Y168.7938
N5620 X79.6356 Y168.8184 Z204.8143 B-79.075
N5630 X68.6693 Y228.0659 Z172.6455 B-90. C151.893
N5640 X69.9508 Y227.9543 Z171.177 C152.215
N5650 X70.3008 Y227.9229 Z170.7731 C152.303
N5660 X70.4759 Y227.907 Z170.5713 C152.347
N5670 X70.5634 Y227.899 Z170.4703 C152.369
N5680 X147.5964 Y114.6269 Z202.7801 C207.033
N5690 X147.5864 Y114.6445 Z202.7564 C207.028
N5700 X147.5644 Y114.6823 Z202.7091 C207.017
N5710 X147.2192 Y115.2763 Z201.9523 C206.845
N5720 X146.8723 Y115.869 Z201.1954 C206.673
N5730 X146.7001 Y116.1624 Z200.8168 C206.588
N5740 X146.6129 Y116.3102 Z200.6275 C206.545
N5750 X72.599 Y227.7015 Z168.1243 C152.881
N5760 X72.6229 Y227.6986 Z168.0991 C152.887
N5770 X72.6666 Y227.6941 Z168.0487 C152.898
N5780 X72.75 Y227.6865 Z167.9478 C152.919
N5790 X73.4493 Y227.6135 Z167.141 C153.095
N5800 X73.7989 Y227.5761 Z166.7376 C153.183
N5810 X73.9697 Y227.5585 Z166.536 C153.226
N5820 X74.0571 Y227.549 Z166.4352 C153.248
N5830 X74.0809 Y227.546 Z166.41 C153.254
N5840 X79.0263 Y169.8661 Z198.9728 B-95.706 C180.
N5850 X79.0313 Y169.8745 Z198.9221 B-95.557
N5860 Y214.4032
N5870 X79.0359 Y214.3971 Z198.8742 B-95.415
N5880 X79.0404 Y214.391 Z198.8263 B-95.274
N5890 X79.0489 Y214.3788 Z198.7307 B-94.992
N5900 X79.0647 Y214.3544 Z198.54 B-94.43
N5910 X79.0903 Y214.3056 Z198.1608 B-93.313
N5920 X79.1193 Y214.2081 Z197.4105 B-91.107
N5930 X79.0922 Y214.013 Z195.9408 B-86.786
N5940 X78.9589 Y213.818 Z194.5098 B-82.563
N5950 X78.7251 Y213.6229 Z193.1154 B-78.407
N5960 Y209.3261
N5970 Y205.0293
N5980 Y200.7325
N5990 Y196.4357
N6000 Y192.1388
N6010 Y187.842
N6020 Y183.5452
N6030 Y179.2484
N6040 Y174.9516
N6050 Y170.6548
N6060 X78.7067 Y170.6758 Z193.0268 B-78.142
N6070 X78.2465 Y227.0579 Z160.1756 B-90. C154.304
N6080 X79.0983 Y226.9479 Z159.3875 C154.519
N6090 X79.336 Y226.9171 Z159.1653 C154.579
N6100 X79.3954 Y226.9093 Z159.1098 C154.594
N6110 X143.1098 Y122.0525 Z192.0344 C204.861
N6120 X143.0927 Y122.079 Z192.0086 C204.853
N6130 X143.0309 Y122.1773 Z191.9056 C204.824
N6140 X142.7789 Y122.5754 Z191.4934 C204.706
N6150 X141.7691 Y124.1539 Z189.8438 C204.237
N6160 X139.7197 Y127.2716 Z186.5404 C203.303
N6170 X134.1124 Y135.2762 Z186.8354 C200.856
N6180 X131.2219 Y139.1358 Z186.9695 C199.649
N6190 X131.1296 Y139.256 Z186.9736 C199.611
N6200 X131.0834 Y139.316 Z186.9756 C199.592
N6210 X100.6985 Y223.0696 Z152.7277 C160.015
N6220 X100.9944 Y223.0023 Z152.7194 C160.091
N6230 X101.5936 Y222.8627 Z152.703 C160.245
N6240 X102.2196 Y222.7152 Z152.686 C160.406
N6250 X76.7211 Y175.5406 Z186.9966 B-70. C180.
N6260 Y208.737
N6270 X231.0882 Y139.31 Z152.686 B-90. C199.594
N6280 X231.479 Y138.7989 Z152.703 C199.755
N6290 X231.8514 Y138.3089 Z152.7194 C199.909
N6300 X232.0347 Y138.0677 Z152.7277 C199.985
N6310 X2.2274 Y222.7137 Z186.9756 C160.408
N6320 X2.1535 Y222.7309 Z186.9736 C160.389
N6330 X2.0058 Y222.7655 Z186.9695 C160.351
N6340 X-2.6983 Y223.8229 Z186.8354 C159.144
N6350 X-12.2981 Y225.6589 Z186.5404 C156.697
N6360 Z177.6408
N6370 X-2.6983 Y223.8229 Z177.9357 C159.144
N6380 X6.6557 Y221.6181 Z178.1954 C161.55
N6390 X15.7865 Y219.0607 Z178.4213 C163.924
N6400 X24.698 Y216.164 Z178.6148 C166.27
N6410 X33.3942 Y212.9395 Z178.777 C168.592
N6420 X41.8869 Y209.3951 Z178.9085 C170.896
N6430 X50.1728 Y205.5392 Z179.0102 C173.184
N6440 X58.2631 Y201.3754 Z179.0825 C175.462
N6450 X66.1574 Y196.9076 Z179.1257 C177.733
N6460 X66.645 Y196.6181 Z179.1274 C177.875
N6470 X180.9757 Y187.3385 Z142.7558 C182.15
N6480 X180.9168 Y187.3798 Z142.7555 C182.132
N6490 X180.7991 Y187.4622 Z142.7551 C182.096
N6500 X180.5634 Y187.6267 Z142.7543 C182.024
N6510 X179.6153 Y188.2853 Z142.7513 C181.735
N6520 X177.706 Y189.5911 Z142.7467 C181.156
N6530 X173.855 Y192.1388 Z142.7431 C180.
N6540 X169.9534 Y194.6083 Z142.7467 C178.844
N6550 X167.9806 Y195.8163 Z142.7513 C178.265
N6560 X166.9914 Y196.4112 Z142.7543 C177.976
N6570 X166.7445 Y196.5584 Z142.7551 C177.904
N6580 X166.621 Y196.6319 Z142.7555 C177.868
N6590 X166.5592 Y196.6686 Z142.7558 C177.85
N6600 X80.8939 Y187.3953 Z179.1274 C182.125
N6610 X81.358 Y187.0693 Z179.1257 C182.267
N6620 X88.6672 Y181.6976 Z179.0825 C184.538
N6630 X95.7794 Y176.0225 Z179.0102 C186.816
N6640 X102.69 Y170.0417 Z178.9085 C189.104
N6650 X109.4021 Y163.7462 Z178.777 C191.408
N6660 X115.9051 Y157.1329 Z178.6148 C193.73
N6670 X122.1977 Y150.1899 Z178.4213 C196.076
N6680 X128.2707 Y142.9078 Z178.1954 C198.45
N6690 X134.1124 Y135.2762 Z177.9357 C200.856
N6700 X139.7197 Y127.2716 Z177.6408 C203.303
N6710 X139.5082 Y117.3661 Z176.2853 F51.2
N6720 M09
N6730 M05
N6740 G40
N6750 ( Path : VARI_CONT_FRIF  )
N6760 ( FULLR_D10 0   )
N6770 G54 I1
N6780 G74 Z-.1 L1
N6790 G74 X-.1 Y-.1 L1
N6800 M56
N6810 G7 A5=0.0 B5=0.0 C5=0.0 L1=1
N6820 G174
N6830 M01
N6840 T00 M06
N6850 S11000 M03
N6860 M08
N6870 G93 X0.0 Y0.0 Z0.0
N6880 G00 B0.0 C203.303
N6890 G141 L2=0 F2=15000.
N6900 X184.655 Y185.5407 Z239.0339
N6910 G01 X180.6991 Y176.3564 F129.9
N6920 X167.624 Y146.0007
N6930 X96.1932 Y196.2703 B-70. C180.
N6940 Y150.824
N6950 X94.2554 Y152.2447 Z233.7098
N6960 Y232.033
N6970 X-125.1186 Y216.191 Z231.7461 B-90. C127.928
N6980 X-121.9373 Y217.2707 Z229.7641 C128.769
N6990 X93.041 Y230.6354 Z229.7646 B-84.008 C180.
N7000 Y157.0533
N7010 Y153.6422
N7020 X177.6751 Y23.3571 Z229.7641 B-90. C231.231
N7030 X177.992 Y20.0284 Z225.2845 C232.068
N7040 X93.6072 Y153.1945 Z225.2833 B-95.976 C180.
N7050 Y184.2514
N7060 Y192.1388
N7070 Y200.0263
N7080 Y207.9138
N7090 Y215.8012
N7100 Y223.6887
N7110 Y231.0832
N7120 X-125.1035 Y216.197 Z225.2845 B-90. C127.932
N7130 X93.6588 Y231.3004 Z224.6071 B-92.738 C180.
N7140 X93.6715 Y231.0246 Z223.8808 B-89.269
N7150 X93.5487 Y230.4731 Z222.3147 B-81.763
N7160 X93.1924 Y229.9215 Z220.6737 B-73.738
N7170 X92.9218 Y229.6458 Z219.8563 B-69.626
N7180 X92.5918 Y229.37 Z219.0572 B-65.498
N7190 X92.2072 Y229.0942 Z218.2876 B-61.389
N7200 X91.7744 Y228.8184 Z217.557 B-57.333
N7210 X90.7973 Y228.2669 Z216.2405 B-49.5
N7220 X89.7335 Y227.7154 Z215.1447 B-42.203
N7230 X-95.8465 Y224.2312 Z214.2544 B-90. C135.533
N7240 X88.6569 Y226.726 Z214.276 B-35.594 C180.
N7250 Y223.6613
N7260 Y220.1588
N7270 Y213.1538
N7280 Y206.1488
N7290 Y199.1438
N7300 Y192.1388
N7310 Y185.1338
N7320 Y178.1289
N7330 Y171.1239
N7340 Y164.1189
N7350 Y157.5517
N7360 X173.3394 Y50.0101 Z214.2544 B-90. C224.467
N7370 X173.2306 Y50.4938 Z214.2329 C224.343
N7380 X87.884 Y158.0784 Z213.7667 B-31.173 C180.
N7390 X87.1451 Y158.9653 Z213.3545 B-27.133
N7400 X86.3804 Y159.8521 Z212.996 B-23.099
N7410 X85.5698 Y160.739 Z212.6845 B-18.952
N7420 X85.1939 Y161.1921 Z212.4448 B-28.647
N7430 X84.8072 Y161.6453 Z212.2217 B-31.317
N7440 X84.069 Y162.5516 Z211.7242 B-36.64
N7450 X82.779 Y164.3641 Z210.5699 B-47.003
N7460 Y169.9191
N7470 Y175.474
N7480 Y181.0289
N7490 Y186.5839
N7500 Y192.1388
N7510 Y197.6938
N7520 Y203.2487
N7530 Y208.8037
N7540 Y214.3586
N7550 Y217.1361
N7560 Y218.5248
N7570 Y219.2192
N7580 X-53.3292 Y228.8456 B-90. C146.255
N7590 X-41.3438 Y228.706 Z207.7052 C149.256
N7600 X-29.7402 Y227.9718 Z204.7733 C152.167
N7610 X80.1371 Y214.9002 Z204.7737 B-78.97 C180.
N7620 Y201.4768
N7630 Y182.8008
N7640 Y169.3774
N7650 X149.6775 Y111.8496 Z204.7733 B-90. C207.833
N7660 X146.9035 Y116.6644 Z198.7207 C206.442
N7670 X79.5845 Y170.4311 B-90.598 C180.
N7680 Y213.8466
N7690 X-24.2121 Y227.4123 B-90. C153.558
N7700 X79.6214 Y214.2081 Z197.2773 B-90.697 C180.
N7710 X79.586 Y214.013 Z195.8191 B-86.518
N7720 X79.4472 Y213.8209 Z194.3885 B-82.399
N7730 X-20.2987 Y226.9345 Z192.985 B-90. C154.545
N7740 X-20.267 Y226.9308 Z192.9413 C154.553
N7750 X79.2 Y213.0858 Z192.9426 B-78.196 C180.
N7760 Y171.1919
N7770 X144.8479 Y120.0655 Z192.9413 B-90. C205.447
N7780 X140.7666 Y126.4503 Z186.3421 C203.55
N7790 X135.1281 Y134.5701 Z186.6405 C201.075
N7800 X132.2161 Y138.4873 Z186.7761 C199.853
N7810 X77.1909 Y175.6577 Z186.8256 B-70. C180.
N7820 Y208.62
N7830 X1.7123 Y222.9516 Z186.7761 B-90. C160.147
N7840 X-3.0542 Y224.0035 Z186.6405 C158.925
N7850 X-12.7712 Y225.8215 Z186.3421 C156.45
N7860 Z177.4424
N7870 X-3.0542 Y224.0035 Z177.7408 C158.925
N7880 X6.4166 Y221.8076 Z178.0034 C161.359
N7890 X15.6554 Y219.2508 Z178.2319 C163.759
N7900 X24.6696 Y216.3471 Z178.4275 C166.13
N7910 X33.463 Y213.1086 Z178.5913 C168.476
N7920 X42.0506 Y209.5431 Z178.7242 C170.804
N7930 X50.4288 Y205.659 Z178.8269 C173.116
N7940 X58.6049 Y201.4611 Z178.8999 C175.417
N7950 X66.5783 Y196.9541 Z178.9436 C177.71
N7960 X74.355 Y192.1388 Z178.9581 C180.
N7970 X81.9331 Y187.0167 Z178.9436 C182.29
N7980 X89.3099 Y181.5879 Z178.8999 C184.583
N7990 X96.4882 Y175.8484 Z178.8269 C186.884
N8000 X103.4629 Y169.7957 Z178.7242 C189.196
N8010 X110.2333 Y163.4224 Z178.5913 C191.524
N8020 X116.7885 Y156.7258 Z178.4275 C193.87
N8030 X123.1295 Y149.6918 Z178.2319 C196.241
N8040 X129.2461 Y142.3109 Z178.0034 C198.641
N8050 X135.1281 Y134.5701 Z177.7408 C201.075
N8060 X140.7666 Y126.4503 Z177.4424 C203.55
N8070 X140.5526 Y116.5468 Z176.0736
N8080 M09
N8090 M05
N8100 G40
N8110 ( Path : VARI_CONT_DLP  )
N8120 ( DIAM_2_FRAS 0   )
N8130 G54 I1
N8140 G74 Z-.1 L1
N8150 G74 X-.1 Y-.1 L1
N8160 M56
N8170 G7 A5=0.0 B5=0.0 C5=0.0 L1=1
N8180 G174
N8190 M01
N8200 T00 M06
N8210 S9000 M03
N8220 M08
N8230 G93 X0.0 Y0.0 Z0.0
N8240 G00 B-90. C0.0
N8250 G141 L2=0 F2=15000.
N8260 X-178.355 Y-192.1388 Z216.0339
N8270 G01 X-168.355 F3.9
N8280 Z224.5339 F9.8
N8290 Y-197.1388
N8300 G03 Z215.5339 J0.0 K4.5
N8310 G01 Y-196.1388
N8320 Y-197.1388
N8330 G02 Z224.5339 J0.0 K-4.5
N8340 G01 Y-193.1388
N8350 Y-192.7562 Z224.4578
N8360 Y-192.4317 Z224.241
N8370 Y-192.215 Z223.9166
N8380 Y-192.1388 Z223.5339
N8390 Z206.5339
N8400 Y-187.1388
N8410 G03 Z215.5339 J0.0 K-4.5
N8420 G01 Y-188.1388
N8430 Y-187.1388
N8440 G02 Z206.5339 J0.0 K4.5
N8450 G01 Y-191.1388
N8460 Y-191.5215 Z206.6101
N8470 Y-191.846 Z206.8268
N8480 Y-192.0627 Z207.1513
N8490 Y-192.1388 Z207.5339
N8500 Z216.0339
N8510 X-167.355
N8520 Z224.5339
N8530 Y-197.1388
N8540 G03 Z215.5339 J0.0 K4.5
N8550 G01 Y-196.1388
N8560 Y-197.1388
N8570 G02 Z224.5339 J0.0 K-4.5
N8580 G01 Y-193.1388
N8590 Y-192.7562 Z224.4578
N8600 Y-192.4317 Z224.241
N8610 Y-192.215 Z223.9166
N8620 Y-192.1388 Z223.5339
N8630 Z206.5339
N8640 Y-187.1388
N8650 G03 Z215.5339 J0.0 K-4.5
N8660 G01 Y-188.1388
N8670 Y-187.1388
N8680 G02 Z206.5339 J0.0 K4.5
N8690 G01 Y-191.1388
N8700 Y-191.5215 Z206.6101
N8710 Y-191.846 Z206.8268
N8720 Y-192.0627 Z207.1513
N8730 Y-192.1388 Z207.5339
N8740 Z216.0339
N8750 X-177.355 F78.7
N8760 G40
N8770 ( Path : VARI_CONT_2AN  )
N8780 ( DIAM_2_FRAS 0   )
N8790 G54 I1
N8800 S9000 M03
N8810 G93 X0.0 Y0.0 Z0.0
N8820 G141 L2=0 F2=15000.
N8830 G00 X-171.355 Y-178.7935 Z191.8406
N8840 G01 X-168.355 B-90. C0.0 F3.9
N8850 Y-181.2991 Z196.6472 F9.8
N8860 G02 Y-175.6502 Z198.2951 J-2.6603 K-1.3867
N8870 G03 Y-181.2991 Z196.6472 J2.9886 K.2612
N8880 G01 Y-177.0501 Z188.4962
N8890 G02 Y-177.9368 Z187.0339 J.8867 K.4623
N8900 G01 Y-181.6388
N8910 Y-176.2878
N8920 Y-178.7935 Z191.8406
N8930 X-167.355
N8940 Y-181.2991 Z196.6472
N8950 G02 Y-175.6502 Z198.2951 J-2.6603 K-1.3867
N8960 G03 Y-181.2991 Z196.6472 J2.9886 K.2612
N8970 G01 Y-177.0501 Z188.4962
N8980 G02 Y-177.9368 Z187.0339 J.8867 K.4623
N8990 G01 Y-181.6388
N9000 Y-176.2878
N9010 Y-178.7935 Z191.8406
N9020 X-170.355 F78.7
N9030 M05 M09
N9040 G40
N9050 ( Path : VARI_CONT_1A_0  )
N9060 ( DIAM_2_FRAS_1 0   )
N9070 I1
N9080 G74 Z-.1 L1
N9090 G74 X-.1 Y-.1 L1
N9100 M56
N9110 G7 A5=0.0 B5=0.0 C5=0.0 L1=1
N9120 G174
N9130 M01
N9140 T00 M06
N9150 S9000 M03
N9160 M08
N9170 G93 X0.0 Y0.0 Z0.0
N9180 G00 B-90. C0.0
N9190 G141 L2=0 F2=15000.
N9200 X-171.355 Y-184.6388 Z198.0339
N9210 G01 X-168.355 F3.9
N9220 G03 Y-189.1388 Z200.632 J3. K0.0 F9.8
N9230 G01 Y-189.7602 Z200.1553
N9240 Y-190.2369 Z199.5339
N9250 Y-190.5366 Z198.8104
N9260 Y-190.6388 Z198.0339
N9270 Z190.0339
N9280 G03 Y-186.1388 Z187.4359 J-3. K0.0
N9290 G01 Y-185.5175 Z187.9126
N9300 Y-185.0408 Z188.5339
N9310 Y-184.7411 Z189.2575
N9320 Y-184.6388 Z190.0339
N9330 Z198.0339
N9340 G00 X-172.355
N9350 X-171.555
N9360 G01 X-167.355 F3.9
N9370 G03 Y-189.1388 Z200.632 J3. K0.0 F9.8
N9380 G01 Y-189.7602 Z200.1553
N9390 Y-190.2369 Z199.5339
N9400 Y-190.5366 Z198.8104
N9410 Y-190.6388 Z198.0339
N9420 Z190.0339
N9430 G03 Y-186.1388 Z187.4359 J-3. K0.0
N9440 G01 Y-185.5175 Z187.9126
N9450 Y-185.0408 Z188.5339
N9460 Y-184.7411 Z189.2575
N9470 Y-184.6388 Z190.0339
N9480 Z198.0339
N9490 X-170.355 F78.7
N9500 M05 M09
N9510 G40
N9520 ( Path : VARI_CONT_2A_0  )
N9530 ( DIAM_2_FRAS 0   )
N9540 G54 I1
N9550 G74 Z-.1 L1
N9560 G74 X-.1 Y-.1 L1
N9570 M56
N9580 G7 A5=0.0 B5=0.0 C5=0.0 L1=1
N9590 G174
N9600 M01
N9610 T00 M06
N9620 S9000 M03
N9630 M08
N9640 G93 X0.0 Y0.0 Z0.0
N9650 G00 B-90. C0.0
N9660 G141 L2=0 F2=15000.
N9670 X-171.355 Y-193.6388 Z198.0339
N9680 G01 X-168.355 F3.9
N9690 G03 Y-198.1388 Z200.632 J3. K0.0 F9.8
N9700 G01 Y-198.7602 Z200.1553
N9710 Y-199.2369 Z199.5339
N9720 Y-199.5366 Z198.8104
N9730 Y-199.6388 Z198.0339
N9740 Z190.0339
N9750 G03 Y-195.1388 Z187.4359 J-3. K0.0
N9760 G01 Y-194.5175 Z187.9126
N9770 Y-194.0408 Z188.5339
N9780 Y-193.7411 Z189.2575
N9790 Y-193.6388 Z190.0339
N9800 Z198.0339
N9810 G00 X-172.355
N9820 X-171.555
N9830 G01 X-167.355 F3.9
N9840 G03 Y-198.1388 Z200.632 J3. K0.0 F9.8
N9850 G01 Y-198.7602 Z200.1553
N9860 Y-199.2369 Z199.5339
N9870 Y-199.5366 Z198.8104
N9880 Y-199.6388 Z198.0339
N9890 Z190.0339
N9900 G03 Y-195.1388 Z187.4359 J-3. K0.0
N9910 G01 Y-194.5175 Z187.9126
N9920 Y-194.0408 Z188.5339
N9930 Y-193.7411 Z189.2575
N9940 Y-193.6388 Z190.0339
N9950 Z198.0339
N9960 X-170.355 F78.7
N9970 M05 M09
N9980 G40
N9990 ( Path : VARI_CONT_3AN  )
N0010 ( DIAM_2_FRAS_1 0   )
N0020 G54 I1
N0030 G74 Z-.1 L1
N0040 G74 X-.1 Y-.1 L1
N0050 M56
N0060 G7 A5=0.0 B5=0.0 C5=0.0 L1=1
N0070 G174
N0080 M01
N0090 T00 M06
N0100 S9000 M03
N0110 M08
N0120 G93 X0.0 Y0.0 Z0.0
N0130 G00 B-90. C0.0
N0140 G141 L2=0 F2=15000.
N0150 X-171.355 Y-202.8104 Z199.0339
N0160 G01 X-168.355 F3.9
N0170 G03 Y-206.6649 Z195.2149 J2.8284 K1. F9.8
N0180 G01 Y-206.0021 Z194.9736
N0190 Y-205.601 Z194.7031
N0200 Y-205.3739 Z194.2759
N0210 Z193.792
N0220 Y-205.601 Z193.3648
N0230 Y-206.0021 Z193.0942
N0240 Y-206.6649 Z192.853
N0250 G03 Y-202.8104 Z189.0339 J-1.0261 K2.8191
N0260 G02 Y-206.6649 Z192.853 J2.8284 K-1.
N0270 G01 Y-206.0021 Z193.0942
N0280 Y-205.601 Z193.3648
N0290 Y-205.3739 Z193.792
N0300 Z194.2759
N0310 Y-205.601 Z194.7031
N0320 Y-206.0021 Z194.9736
N0330 Y-206.6649 Z195.2149
N0340 G02 Y-202.8104 Z199.0339 J-1.0261 K-2.819
N0350 G00 X-172.355
N0360 X-171.555
N0370 G01 X-167.355 F3.9
N0380 G03 Y-206.6649 Z195.2149 J2.8284 K1. F9.8
N0390 G01 Y-206.0021 Z194.9736
N0400 G02 Y-205.601 Z193.3648 J.3421 K.9397
N0410 G01 Y-206.0021 Z193.0942
N0420 Y-206.6649 Z192.853
N0430 G03 Y-202.8104 Z189.0339 J-1.0261 K2.8191
N0440 G02 Y-206.6649 Z192.853 J2.8284 K-1.
N0450 G01 Y-206.0021 Z193.0942
N0460 G03 Y-205.601 Z194.7031 J.3421 K-.9397
N0470 G01 Y-205.785 Z194.863
N0480 Y-206.0021 Z194.9736
N0490 Y-206.6649 Z195.2149
N0500 G02 Y-202.8104 Z199.0339 J-1.0261 K-2.819
N0510 G01 X-170.355 F78.7
N0520 M09
N0530 M05
N0540 G40
N0550 ( Path : VARIABLE_CONTOUR  )
N0560 ( FULLR_D10 0   )
N0570 G54 I1
N0580 G74 Z-.1 L1
N0590 G74 X-.1 Y-.1 L1
N0600 M56
N0610 G7 A5=0.0 B5=0.0 C5=0.0 L1=1
N0620 G174
N0630 M01
N0640 T00 M06
N0650 S0 M03
N0660 G93 X0.0 Y0.0 Z0.0
N0670 G00 B-70. C180.
N0680 G141 L2=0 F2=15000.
N0690 X96.1932 Y150.824 Z239.0339
N0700 G01 X93.4249 Y152.8536 Z231.4281 F9.8 M08
N0710 X93.4137 Y152.8624 Z231.3972 B-70.269
N0720 G00 X89.0633 Z232.9575
N0730 X68.355 Z240.3848
N0740 B-108.805
N0750 Y153.1156 Z219.4991
N0760 X89.1807 Z226.5907
N0770 G01 X93.0319 Z227.9021
N0780 X93.0539 Y153.1069 Z227.8369 B-108.476
N0790 X93.0965 Y153.088 Z227.7069 B-107.823
N0800 X93.2495 Y152.9924 Z227.1918 B-105.258
N0810 X93.2883 Y152.9616 Z227.0459 B-104.536
N0820 X93.2977 Y152.9541 Z227.0094 B-104.356
N0830 G00 X89.668 Z226.0803
N0840 X68.355 Z220.6254
N0850 B-32.855
N0860 Y158.5921 Z245.0339
N0870 B-23.21
N0880 X72.6677 Y159.5883
N0890 X84.4906 Z217.4619
N0900 G01 X86.4016 Z213.0051
N0910 X86.3776 Y159.6163 Z212.9948 B-23.085
N0920 X86.1848 Y159.8428 Z212.9147 B-22.088
N0930 X85.6985 Y160.4111 Z212.7295 B-19.603
N0940 X85.5754 Y160.5525 Z212.6864 B-18.98
N0950 X85.5128 Y160.6239 Z212.6651 B-18.665
N0960 X85.4817 Y160.6593 Z212.6546 B-18.508
N0970 G00 X84.1658 Z216.5855
N0980 X74.6428 Z245.0339
N0990 B-26.239
N1000 X68.355 Y161.7811
N1010 B-75.824
N1020 Y168.1298 Z209.4481
N1030 X76.1114 Z207.4888
N1040 G01 X80.4965 Z206.3812
N1050 X80.3849 Y168.3507 Z205.884 B-78.87
N1060 X80.361 Y168.4041 Z205.7582 B-79.636
N1070 X80.3497 Y168.4305 Z205.6949 B-80.02
N1080 X80.3441 Y168.4437 Z205.6633 B-80.212
N1090 G00 X76.2386 Z206.3715
N1100 X68.355 Z207.7315
N1110 B-94.378
N1120 Y169.8709 Z197.7025
N1130 X76.3317 Z198.3132
N1140 G01 X79.5645 Z198.5608
N1150 X79.5672 Y169.8699 Z198.5261 B-94.279
N1160 X79.5771 Y169.8649 Z198.3875 B-93.881
N1170 X79.6069 Y169.8317 Z197.8339 B-92.292
N1180 X79.6157 Y169.8142 Z197.5721 B-91.542
N1190 X78.4952 Y172.217 Z190.4131 B-70.668
N1200 X78.4866 Y172.2369 Z190.3884 B-70.593
N1210 X78.4518 Y172.3172 Z190.2907 B-70.296
N1220 X78.5526 Y172.1647 Z190.5788 B-71.17
N1230 X78.5191 Y172.164 Z190.4815 B-70.876
N1240 X76.9802 Y176.1571 Z186.2467 B-70.
N1250 X77.906 Z188.7902
N1260 X78.4168 Y176.2519 Z190.1935
N1270 X78.9387 Y175.4027 Z191.8473 B-74.97
N1280 X79.1598 Y175.0199 Z192.7549 B-77.646
N1290 X79.3451 Y174.7084 Z193.7118 B-80.439
N1300 X79.4875 Y174.4762 Z194.7102 B-83.328
N1310 X79.581 Y174.3287 Z195.7391 B-86.288
N1320 X79.6214 Y174.2682 Z196.785 B-89.287
N1330 X79.6069 Y174.2931 Z197.8339 B-92.292
N1340 X79.583 Y174.3291 Z198.9428 B-90.174
N1350 X79.6002 Y174.2977 Z200.0519 B-88.055
N1360 X79.6579 Y174.2024 Z201.1541 B-85.947
N1370 X79.755 Y174.0477 Z202.2428 B-83.86
N1380 X79.8897 Y173.8382 Z203.3132 B-81.799
N1390 X80.0597 Y173.5792 Z204.3613 B-79.771
N1400 X80.4965 Y172.9316 Z206.3812 B-75.824
N1410 X80.6713 Y172.6521 Z207.0416 B-74.519
N1420 X80.913 Y172.3268 Z207.65 B-67.834
N1430 X81.449 Y171.5902 Z208.7566 B-60.478
N1440 X82.0771 Y170.7787 Z209.7248 B-53.574
N1450 X82.779 Y169.9191 Z210.5699 B-47.003
N1460 X83.5365 Y169.0216 Z211.2978 B-40.72
N1470 X84.3608 Y168.1167 Z211.9328 B-34.496
N1480 X85.2468 Y167.2098 Z212.4735 B-28.288
N1490 X86.1848 Y166.302 Z212.9147 B-22.088
N1500 X86.957 Y165.5879 Z213.2602 B-26.128
N1510 X87.7315 Y164.9018 Z213.6759 B-30.326
N1520 X88.504 Y164.2455 Z214.1683 B-34.701
N1530 X89.2649 Y163.6254 Z214.7412 B-39.25
N1540 X90.0067 Y163.0446 Z215.4003 B-43.989
N1550 X90.7167 Y162.5104 Z216.1472 B-48.911
N1560 X91.3837 Y162.0273 Z216.9847 B-54.025
N1570 X91.9922 Y161.6028 Z217.91 B-59.314
N1580 X92.5281 Y161.2423 Z218.9198 B-64.775
N1590 X92.9756 Y160.9521 Z220.0043 B-70.379
N1600 X93.3212 Y160.7364 Z221.1519 B-76.104
N1610 X93.5531 Y160.5987 Z222.3457 B-81.912
N1620 X93.6634 Y160.5401 Z223.5666 B-87.768
N1630 X93.6483 Y160.5598 Z224.7948 B-93.635
N1640 X93.5088 Y160.655 Z226.0089 B-99.473
N1650 X93.2495 Y160.8217 Z227.1918 B-105.258
N1660 X93.0965 Y160.8981 Z227.7069 B-107.823
N1670 X93.0472 Y160.949 Z228.2468 B-96.457
N1680 X93.0091 Y160.9719 Z229.3316 B-87.563
N1690 X93.1383 Y160.8906 Z230.405 B-78.705
N1700 X93.4249 Y160.7107 Z231.4281 B-70.
N1710 X96.1932 Y159.087 Z239.0339
N1720 Y167.35
N1730 X93.4249 Y168.5677 Z231.4281
N1740 X93.1383 Y168.7027 Z230.405 B-78.705
N1750 X93.0091 Y168.7637 Z229.3316 B-87.563
N1760 X93.0472 Y168.7465 Z228.2468 B-96.457
N1770 X93.0965 Y168.7083 Z227.7069 B-107.823
N1780 X93.2495 Y168.651 Z227.1918 B-105.258
N1790 X93.5088 Y168.5259 Z226.0089 B-99.473
N1800 X93.6483 Y168.4545 Z224.7948 B-93.635
N1810 X93.6634 Y168.4398 Z223.5666 B-87.768
N1820 X93.5531 Y168.4837 Z222.3457 B-81.912
N1830 X93.3212 Y168.587 Z221.1519 B-76.104
N1840 X92.9756 Y168.7488 Z220.0043 B-70.379
N1850 X92.5281 Y168.9664 Z218.9198 B-64.775
N1860 X91.9922 Y169.2368 Z217.91 B-59.314
N1870 X91.3837 Y169.5552 Z216.9847 B-54.025
N1880 X90.7167 Y169.9175 Z216.1472 B-48.911
N1890 X90.0067 Y170.3182 Z215.4003 B-43.989
N1900 X89.2649 Y170.7537 Z214.7412 B-39.25
N1910 X88.504 Y171.2189 Z214.1683 B-34.701
N1920 X87.7315 Y171.711 Z213.6759 B-30.326
N1930 X86.957 Y172.2257 Z213.2602 B-26.128
N1940 X86.1848 Y172.7612 Z212.9147 B-22.088
N1950 X85.2468 Y173.4421 Z212.4735 B-28.288
N1960 X84.3608 Y174.1222 Z211.9328 B-34.496
N1970 X83.5365 Y174.8009 Z211.2978 B-40.72
N1980 X82.779 Y175.474 Z210.5699 B-47.003
N1990 X82.0771 Y176.1187 Z209.7248 B-53.574
N2000 X81.449 Y176.7273 Z208.7566 B-60.478
N2010 X80.913 Y177.2798 Z207.65 B-67.834
N2020 X80.6713 Y177.5238 Z207.0416 B-74.519
N2030 X80.4965 Y177.7334 Z206.3812 B-75.824
N2040 X80.0597 Y178.2191 Z204.3613 B-79.771
N2050 X79.755 Y178.5705 Z202.2428 B-83.86
N2060 X79.6579 Y178.6865 Z201.1541 B-85.947
N2070 X79.6002 Y178.758 Z200.0519 B-88.055
N2080 X79.583 Y178.7815 Z198.9428 B-90.174
N2090 X79.6069 Y178.7546 Z197.8339 B-92.292
N2100 X79.6214 Y178.7359 Z196.785 B-89.287
N2110 X79.581 Y178.7812 Z195.7391 B-86.288
N2120 X79.4875 Y178.8919 Z194.7102 B-83.328
N2130 X79.3451 Y179.066 Z193.7118 B-80.439
N2140 X79.1598 Y179.2996 Z192.7549 B-77.646
N2150 X78.9387 Y179.5867 Z191.8473 B-74.97
N2160 X78.4168 Y180.2236 Z190.1935 B-70.
N2170 X77.3952 Y180.1526 Z187.3869
N2180 X75.815 Z183.0454
N2190 X75.001 Y184.148 Z180.8088
N2200 X76.3737 Z184.5803
N2210 X78.4168 Y184.1954 Z190.1935
N2220 X78.9387 Y183.7708 Z191.8473 B-74.97
N2230 X79.1598 Y183.5794 Z192.7549 B-77.646
N2240 X79.3451 Y183.4236 Z193.7118 B-80.439
N2250 X79.4875 Y183.3075 Z194.7102 B-83.328
N2260 X79.581 Y183.2338 Z195.7391 B-86.288
N2270 X79.6214 Y183.2035 Z196.785 B-89.287
N2280 X79.6069 Y183.216 Z197.8339 B-92.292
N2290 X79.6002 Y183.2183 Z200.0519 B-88.055
N2300 X79.755 Y183.0932 Z202.2428 B-83.86
N2310 X80.0597 Y182.859 Z204.3613 B-79.771
N2320 X80.4965 Y182.5352 Z206.3812 B-75.824
N2330 X80.6713 Y182.3955 Z207.0416 B-74.519
N2340 X80.913 Y182.2328 Z207.65 B-67.834
N2350 X81.449 Y181.8645 Z208.7566 B-60.478
N2360 X82.0771 Y181.4587 Z209.7248 B-53.574
N2370 X82.779 Y181.0289 Z210.5699 B-47.003
N2380 X83.5365 Y180.5802 Z211.2978 B-40.72
N2390 X84.3608 Y180.1278 Z211.9328 B-34.496
N2400 X85.2468 Y179.6743 Z212.4735 B-28.288
N2410 X86.1848 Y179.2204 Z212.9147 B-22.088
N2420 X86.957 Y178.8634 Z213.2602 B-26.128
N2430 X87.7315 Y178.5203 Z213.6759 B-30.326
N2440 X88.504 Y178.1922 Z214.1683 B-34.701
N2450 X89.2649 Y177.8821 Z214.7412 B-39.25
N2460 X90.0067 Y177.5917 Z215.4003 B-43.989
N2470 X90.7167 Y177.3246 Z216.1472 B-48.911
N2480 X91.3837 Y177.0831 Z216.9847 B-54.025
N2490 X91.9922 Y176.8708 Z217.91 B-59.314
N2500 X92.5281 Y176.6906 Z218.9198 B-64.775
N2510 X92.9756 Y176.5455 Z220.0043 B-70.379
N2520 X93.3212 Y176.4376 Z221.1519 B-76.104
N2530 X93.5531 Y176.3688 Z222.3457 B-81.912
N2540 X93.6634 Y176.3395 Z223.5666 B-87.768
N2550 X93.6483 Y176.3493 Z224.7948 B-93.635
N2560 X93.5088 Y176.3969 Z226.0089 B-99.473
N2570 X93.2495 Y176.4803 Z227.1918 B-105.258
N2580 X93.0965 Y176.5185 Z227.7069 B-107.823
N2590 X93.0472 Y176.5439 Z228.2468 B-96.457
N2600 X93.0091 Y176.5554 Z229.3316 B-87.563
N2610 X93.1383 Y176.5147 Z230.405 B-78.705
N2620 X93.4249 Y176.4248 Z231.4281 B-70.
N2630 X96.1932 Y175.6129 Z239.0339
N2640 Y183.8759
N2650 X93.4249 Y184.2818 Z231.4281
N2660 X93.1383 Y184.3268 Z230.405 B-78.705
N2670 X93.0091 Y184.3471 Z229.3316 B-87.563
N2680 X93.0472 Y184.3414 Z228.2468 B-96.457
N2690 X93.0965 Y184.3287 Z227.7069 B-107.823
N2700 X93.2495 Y184.3095 Z227.1918 B-105.258
N2710 X93.5088 Y184.2679 Z226.0089 B-99.473
N2720 X93.6483 Y184.2441 Z224.7948 B-93.635
N2730 X93.6634 Y184.2392 Z223.5666 B-87.768
N2740 X93.5531 Y184.2538 Z222.3457 B-81.912
N2750 X93.3212 Y184.2882 Z221.1519 B-76.104
N2760 X92.9756 Y184.3421 Z220.0043 B-70.379
N2770 X92.5281 Y184.4147 Z218.9198 B-64.775
N2780 X91.9922 Y184.5048 Z217.91 B-59.314
N2790 X91.3837 Y184.611 Z216.9847 B-54.025
N2800 X90.7167 Y184.7317 Z216.1472 B-48.911
N2810 X90.0067 Y184.8653 Z215.4003 B-43.989
N2820 X89.2649 Y185.0105 Z214.7412 B-39.25
N2830 X88.504 Y185.1655 Z214.1683 B-34.701
N2840 X87.7315 Y185.3296 Z213.6759 B-30.326
N2850 X86.957 Y185.5011 Z213.2602 B-26.128
N2860 X86.1848 Y185.6796 Z212.9147 B-22.088
N2870 X85.2468 Y185.9066 Z212.4735 B-28.288
N2880 X84.3608 Y186.1333 Z211.9328 B-34.496
N2890 X83.5365 Y186.3595 Z211.2978 B-40.72
N2900 X82.779 Y186.5839 Z210.5699 B-47.003
N2910 X82.0771 Y186.7987 Z209.7248 B-53.574
N2920 X81.449 Y187.0016 Z208.7566 B-60.478
N2930 X80.913 Y187.1858 Z207.65 B-67.833
N2940 X80.6713 Y187.2671 Z207.0416 B-74.519
N2950 X80.4965 Y187.337 Z206.3812 B-75.824
N2960 X80.0597 Y187.4989 Z204.3613 B-79.771
N2970 X79.755 Y187.616 Z202.2428 B-83.86
N2980 X79.6002 Y187.6786 Z200.0519 B-88.055
N2990 X79.6069 Y187.6774 Z197.8339 B-92.292
N3000 X79.581 Y187.6863 Z195.7391 B-86.288
N3010 X79.3451 Y187.7812 Z193.7118 B-80.439
N3020 X78.9387 Y187.9548 Z191.8473 B-74.97
N3030 X78.4168 Y188.1671 Z190.1935 B-70.
N3040 X76.3737 Y188.1434 Z184.5803
N3050 X74.5222 Z179.4932
N3060 X74.3626 Y192.1388 Z179.0547
N3070 X78.4168 Z190.1935
N3080 X78.9387 Z191.8473 B-74.97
N3090 X79.3451 Z193.7118 B-80.439
N3100 X79.581 Z195.7391 B-86.288
N3110 X79.6069 Z197.8339 B-92.292
N3120 X79.6002 Z200.0519 B-88.055
N3130 X79.755 Z202.2428 B-83.86
N3140 X80.0597 Z204.3613 B-79.771
N3150 X80.4965 Z206.3812 B-75.824
N3160 X80.6713 Z207.0416 B-74.519
N3170 X80.913 Z207.65 B-67.833
N3180 X81.449 Y192.1387 Z208.7566 B-60.478
N3190 X82.0771 Z209.7249 B-53.574
N3200 X82.779 Y192.1388 Z210.5699 B-47.003
N3210 X83.5364 Z211.2978 B-40.72
N3220 X84.3608 Z211.9328 B-34.496
N3230 X85.2468 Z212.4735 B-28.288
N3240 X86.1848 Z212.9147 B-22.088
N3250 X86.957 Z213.2602 B-26.128
N3260 X87.7315 Z213.6759 B-30.326
N3270 X88.504 Z214.1683 B-34.701
N3280 X89.2649 Z214.7412 B-39.25
N3290 X90.0067 Z215.4003 B-43.989
N3300 X90.7167 Z216.1472 B-48.911
N3310 X91.3837 Z216.9847 B-54.025
N3320 X91.9922 Z217.91 B-59.314
N3330 X92.5281 Z218.9198 B-64.775
N3340 X92.9756 Z220.0043 B-70.379
N3350 X93.3212 Z221.1519 B-76.104
N3360 X93.5531 Z222.3457 B-81.912
N3370 X93.6634 Z223.5666 B-87.768
N3380 X93.6483 Z224.7948 B-93.635
N3390 X93.5088 Z226.0089 B-99.473
N3400 X93.2495 Z227.1918 B-105.258
N3410 X93.0965 Z227.7069 B-107.823
N3420 X93.0472 Z228.2468 B-96.457
N3430 X93.0091 Z229.3316 B-87.563
N3440 X93.1383 Z230.405 B-78.705
N3450 X93.4249 Z231.4281 B-70.
N3460 X96.1932 Z239.0339
N3470 Y200.4018
N3480 X93.4249 Y199.9959 Z231.4281
N3490 X93.1383 Y199.9509 Z230.405 B-78.705
N3500 X93.0091 Y199.9306 Z229.3316 B-87.563
N3510 X93.0472 Y199.9363 Z228.2468 B-96.457
N3520 X93.0965 Y199.949 Z227.7069 B-107.823
N3530 X93.2495 Y199.9681 Z227.1918 B-105.258
N3540 X93.5088 Y200.0098 Z226.0089 B-99.473
N3550 X93.6483 Y200.0336 Z224.7948 B-93.635
N3560 X93.6634 Y200.0385 Z223.5666 B-87.768
N3570 X93.5531 Y200.0239 Z222.3457 B-81.912
N3580 X93.3212 Y199.9894 Z221.1519 B-76.104
N3590 X92.9756 Y199.9355 Z220.0043 B-70.379
N3600 X92.5281 Y199.863 Z218.9198 B-64.775
N3610 X91.9922 Y199.7728 Z217.91 B-59.314
N3620 X91.3837 Y199.6667 Z216.9847 B-54.025
N3630 X90.7167 Y199.546 Z216.1472 B-48.911
N3640 X90.0067 Y199.4124 Z215.4003 B-43.989
N3650 X89.2649 Y199.2672 Z214.7412 B-39.25
N3660 X88.504 Y199.1122 Z214.1683 B-34.701
N3670 X87.7315 Y198.9481 Z213.6759 B-30.326
N3680 X86.957 Y198.7766 Z213.2602 B-26.128
N3690 X86.1848 Y198.5981 Z212.9147 B-22.088
N3700 X85.2468 Y198.3711 Z212.4735 B-28.288
N3710 X84.3608 Y198.1444 Z211.9328 B-34.496
N3720 X83.5364 Y197.9182 Z211.2978 B-40.72
N3730 X82.779 Y197.6938 Z210.5699 B-47.003
N3740 X82.0772 Y197.4787 Z209.7249 B-53.574
N3750 X81.449 Y197.2759 Z208.7566 B-60.478
N3760 X80.913 Y197.0918 Z207.65 B-67.833
N3770 X80.6714 Y197.0105 Z207.0416 B-74.519
N3780 X80.4965 Y196.9406 Z206.3812 B-75.824
N3790 X80.0597 Y196.7787 Z204.3613 B-79.771
N3800 X79.755 Y196.6616 Z202.2428 B-83.86
N3810 X79.6002 Y196.5991 Z200.0519 B-88.055
N3820 X79.6069 Y196.6003 Z197.8339 B-92.292
N3830 X79.581 Y196.5914 Z195.7391 B-86.288
N3840 X79.3451 Y196.4964 Z193.7118 B-80.439
N3850 X78.9387 Y196.3229 Z191.8473 B-74.97
N3860 X78.4168 Y196.1106 Z190.1935 B-70.
N3870 X76.3737 Y196.1343 Z184.5803
N3880 X74.5222 Z179.4932
N3890 X75.001 Y200.1297 Z180.8088
N3900 X76.3737 Z184.5803
N3910 X78.4168 Y200.0823 Z190.1935
N3920 X78.9387 Y200.5069 Z191.8473 B-74.97
N3930 X79.1598 Y200.6983 Z192.7549 B-77.646
N3940 X79.3451 Y200.8541 Z193.7118 B-80.439
N3950 X79.4875 Y200.9702 Z194.7102 B-83.328
N3960 X79.581 Y201.0439 Z195.7391 B-86.288
N3970 X79.6214 Y201.0742 Z196.785 B-89.287
N3980 X79.6069 Y201.0617 Z197.8339 B-92.292
N3990 X79.6002 Y201.0594 Z200.0519 B-88.055
N4000 X79.755 Y201.1844 Z202.2428 B-83.86
N4010 X80.0597 Y201.4187 Z204.3613 B-79.771
N4020 X80.4965 Y201.7424 Z206.3812 B-75.824
N4030 X80.6714 Y201.8822 Z207.0416 B-74.519
N4040 X80.913 Y202.0448 Z207.65 B-67.833
N4050 X81.449 Y202.413 Z208.7566 B-60.478
N4060 X82.0772 Y202.8187 Z209.7249 B-53.574
N4070 X82.779 Y203.2487 Z210.5699 B-47.003
N4080 X83.5364 Y203.6975 Z211.2978 B-40.72
N4090 X84.3608 Y204.1499 Z211.9328 B-34.496
N4100 X85.2468 Y204.6033 Z212.4735 B-28.288
N4110 X86.1848 Y205.0573 Z212.9147 B-22.088
N4120 X86.957 Y205.4143 Z213.2602 B-26.128
N4130 X87.7315 Y205.7574 Z213.6759 B-30.326
N4140 X88.504 Y206.0855 Z214.1683 B-34.701
N4150 X89.2649 Y206.3956 Z214.7412 B-39.25
N4160 X90.0067 Y206.6859 Z215.4003 B-43.989
N4170 X90.7167 Y206.9531 Z216.1472 B-48.911
N4180 X91.3837 Y207.1946 Z216.9847 B-54.025
N4190 X91.9922 Y207.4069 Z217.91 B-59.314
N4200 X92.5281 Y207.5871 Z218.9198 B-64.775
N4210 X92.9756 Y207.7322 Z220.0043 B-70.379
N4220 X93.3212 Y207.84 Z221.1519 B-76.104
N4230 X93.5531 Y207.9089 Z222.3457 B-81.912
N4240 X93.6634 Y207.9382 Z223.5666 B-87.768
N4250 X93.6483 Y207.9284 Z224.7948 B-93.635
N4260 X93.5088 Y207.8808 Z226.0089 B-99.473
N4270 X93.2495 Y207.7974 Z227.1918 B-105.258
N4280 X93.0965 Y207.7592 Z227.7069 B-107.823
N4290 X93.0472 Y207.7338 Z228.2468 B-96.457
N4300 X93.0091 Y207.7223 Z229.3316 B-87.563
N4310 X93.1383 Y207.763 Z230.405 B-78.705
N4320 X93.4249 Y207.8529 Z231.4281 B-70.
N4330 X96.1932 Y208.6648 Z239.0339
N4340 Y216.9277
N4350 X93.4249 Y215.71 Z231.4281
N4360 X93.1383 Y215.575 Z230.405 B-78.705
N4370 X93.0091 Y215.514 Z229.3316 B-87.563
N4380 X93.0472 Y215.5312 Z228.2468 B-96.457
N4390 X93.0965 Y215.5694 Z227.7069 B-107.823
N4400 X93.2495 Y215.6267 Z227.1918 B-105.258
N4410 X93.5088 Y215.7518 Z226.0089 B-99.473
N4420 X93.6483 Y215.8232 Z224.7948 B-93.635
N4430 X93.6634 Y215.8379 Z223.5666 B-87.768
N4440 X93.5531 Y215.7939 Z222.3457 B-81.912
N4450 X93.3212 Y215.6907 Z221.1519 B-76.104
N4460 X92.9756 Y215.5289 Z220.0043 B-70.379
N4470 X92.5281 Y215.3112 Z218.9198 B-64.775
N4480 X91.9922 Y215.0409 Z217.91 B-59.314
N4490 X91.3837 Y214.7225 Z216.9847 B-54.025
N4500 X90.7167 Y214.3602 Z216.1472 B-48.911
N4510 X90.0067 Y213.9595 Z215.4003 B-43.989
N4520 X89.2649 Y213.524 Z214.7412 B-39.25
N4530 X88.504 Y213.0588 Z214.1683 B-34.701
N4540 X87.7315 Y212.5667 Z213.6759 B-30.326
N4550 X86.957 Y212.052 Z213.2602 B-26.128
N4560 X86.1848 Y211.5165 Z212.9147 B-22.088
N4570 X85.2468 Y210.8356 Z212.4735 B-28.288
N4580 X84.3608 Y210.1555 Z211.9328 B-34.496
N4590 X83.5364 Y209.4768 Z211.2978 B-40.72
N4600 X82.779 Y208.8037 Z210.5699 B-47.003
N4610 X82.0772 Y208.1587 Z209.7249 B-53.574
N4620 X81.449 Y207.5501 Z208.7567 B-60.477
N4630 X80.913 Y206.9978 Z207.6501 B-67.833
N4640 X80.6714 Y206.7539 Z207.0416 B-74.519
N4650 X80.4965 Y206.5442 Z206.3812 B-75.824
N4660 X80.0597 Y206.0586 Z204.3613 B-79.771
N4670 X79.755 Y205.7072 Z202.2428 B-83.86
N4680 X79.6579 Y205.5911 Z201.1541 B-85.947
N4690 X79.6002 Y205.5197 Z200.0519 B-88.055
N4700 X79.583 Y205.4962 Z198.9428 B-90.174
N4710 X79.6069 Y205.5231 Z197.8339 B-92.292
N4720 X79.6214 Y205.5418 Z196.785 B-89.287
N4730 X79.581 Y205.4964 Z195.7391 B-86.288
N4740 X79.4875 Y205.3858 Z194.7102 B-83.328
N4750 X79.3451 Y205.2117 Z193.7118 B-80.439
N4760 X79.1598 Y204.9781 Z192.7549 B-77.646
N4770 X78.9387 Y204.691 Z191.8473 B-74.97
N4780 X78.4168 Y204.0541 Z190.1935 B-70.
N4790 X77.3952 Y204.1251 Z187.3869
N4800 X75.815 Z183.0454
N4810 X76.9802 Y208.1206 Z186.2467
N4820 X77.906 Z188.7902
N4830 X78.4168 Y208.0258 Z190.1935
N4840 X78.9387 Y208.875 Z191.8473 B-74.97
N4850 X79.1598 Y209.2578 Z192.7549 B-77.646
N4860 X79.3451 Y209.5693 Z193.7118 B-80.439
N4870 X79.4875 Y209.8015 Z194.7102 B-83.328
N4880 X79.581 Y209.949 Z195.7391 B-86.288
N4890 X79.6214 Y210.0095 Z196.785 B-89.287
N4900 X79.6069 Y209.9845 Z197.8339 B-92.292
N4910 X79.583 Y209.9486 Z198.9428 B-90.174
N4920 X79.6002 Y209.98 Z200.0519 B-88.055
N4930 X79.6579 Y210.0752 Z201.1541 B-85.947
N4940 X79.755 Y210.23 Z202.2428 B-83.86
N4950 X79.8897 Y210.4394 Z203.3132 B-81.799
N4960 X80.0597 Y210.6985 Z204.3613 B-79.771
N4970 X80.4965 Y211.346 Z206.3812 B-75.824
N4980 X80.6714 Y211.6255 Z207.0416 B-74.519
N4990 X80.913 Y211.9508 Z207.6501 B-67.833
N5000 X81.449 Y212.6872 Z208.7567 B-60.477
N5010 X82.0772 Y213.4987 Z209.7249 B-53.574
N5020 X82.779 Y214.3586 Z210.5699 B-47.003
N5030 X83.5364 Y215.2561 Z211.2978 B-40.72
N5040 X84.3608 Y216.161 Z211.9328 B-34.496
N5050 X85.2468 Y217.0678 Z212.4735 B-28.288
N5060 X86.1848 Y217.9757 Z212.9147 B-22.088
N5070 X86.957 Y218.6897 Z213.2602 B-26.128
N5080 X87.7315 Y219.3759 Z213.6759 B-30.326
N5090 X88.504 Y220.0321 Z214.1683 B-34.701
N5100 X89.2649 Y220.6523 Z214.7412 B-39.25
N5110 X90.0067 Y221.233 Z215.4003 B-43.989
N5120 X90.7167 Y221.7673 Z216.1472 B-48.911
N5130 X91.3837 Y222.2504 Z216.9847 B-54.025
N5140 X91.9922 Y222.6749 Z217.91 B-59.314
N5150 X92.5281 Y223.0354 Z218.9198 B-64.775
N5160 X92.9756 Y223.3256 Z220.0043 B-70.379
N5170 X93.3212 Y223.5413 Z221.1519 B-76.104
N5180 X93.5531 Y223.679 Z222.3457 B-81.912
N5190 X93.6634 Y223.7376 Z223.5666 B-87.768
N5200 X93.6483 Y223.7179 Z224.7948 B-93.635
N5210 X93.5088 Y223.6227 Z226.0089 B-99.473
N5220 X93.2495 Y223.456 Z227.1918 B-105.258
N5230 X93.0965 Y223.3795 Z227.7069 B-107.823
N5240 X93.0472 Y223.3287 Z228.2468 B-96.457
N5250 X93.0091 Y223.3057 Z229.3316 B-87.563
N5260 X93.1383 Y223.3871 Z230.405 B-78.705
N5270 X93.4249 Y223.567 Z231.4281 B-70.
N5280 X96.1932 Y225.1907 Z239.0339
N5290 Y233.4537
N5300 X93.4249 Y231.4241 Z231.4281
N5310 X93.4137 Y231.4153 Z231.3972 B-70.269
N5320 G00 X89.0633 Z232.9575
N5330 X68.355 Z240.3848
N5340 B-108.805
N5350 Y231.1621 Z219.4991
N5360 X89.1807 Z226.5907
N5370 G01 X93.0319 Z227.9021
N5380 X93.0539 Y231.1708 Z227.8369 B-108.476
N5390 X93.0965 Y231.1897 Z227.7069 B-107.823
N5400 X93.2495 Y231.2853 Z227.1918 B-105.258
N5410 X93.2883 Y231.3161 Z227.0459 B-104.536
N5420 X93.2977 Y231.3236 Z227.0094 B-104.356
N5430 G00 X89.668 Z226.0803
N5440 X68.355 Z220.6254
N5450 B-32.855
N5460 Y225.6856 Z245.0339
N5470 B-23.21
N5480 X72.6677 Y224.6894
N5490 X84.4906 Z217.4619
N5500 G01 X86.4016 Z213.0051
N5510 X86.3776 Y224.6614 Z212.9948 B-23.085
N5520 X86.1848 Y224.4349 Z212.9147 B-22.088
N5530 X85.6985 Y223.8666 Z212.7295 B-19.603
N5540 X85.5754 Y223.7252 Z212.6864 B-18.98
N5550 X85.5128 Y223.6538 Z212.6651 B-18.665
N5560 X85.4817 Y223.6184 Z212.6546 B-18.508
N5570 G00 X84.1658 Z216.5855
N5580 X74.6428 Z245.0339
N5590 B-24.956
N5600 X68.355 Y222.7651
N5610 B-47.003
N5620 Y219.9135 Z224.0188
N5630 X80.0573 Z213.1075
N5640 G01 X82.779 Z210.5699
N5650 X82.7559 Y219.879 Z210.545 B-47.206
N5660 G00 X80.0958 Z213.0077
N5670 X68.355 Z223.8775
N5680 B-75.824
N5690 Y216.1478 Z209.4481
N5700 X76.1114 Z207.4888
N5710 G01 X80.4965 Z206.3812
N5720 X80.3849 Y215.9269 Z205.884 B-78.87
N5730 X80.361 Y215.8736 Z205.7582 B-79.636
N5740 X80.3497 Y215.8472 Z205.6949 B-80.02
N5750 X80.3441 Y215.834 Z205.6633 B-80.212
N5760 G00 X76.2386 Z206.3715
N5770 X68.355 Z207.7315
N5780 B-94.378
N5790 Y214.4068 Z197.7025
N5800 X76.3317 Z198.3132
N5810 G01 X79.5645 Z198.5608
N5820 X79.5672 Y214.4078 Z198.5261 B-94.279
N5830 X79.5771 Y214.4128 Z198.3875 B-93.881
N5840 X79.6069 Y214.446 Z197.8339 B-92.292
N5850 X79.6157 Y214.4635 Z197.5721 B-91.542
N5860 X78.4952 Y212.0607 Z190.4131 B-70.668
N5870 X78.4866 Y212.0407 Z190.3884 B-70.593
N5880 X78.4518 Y211.9605 Z190.2907 B-70.296
N5890 X78.5526 Y212.113 Z190.5788 B-71.17
N5900 X78.5191 Y212.1137 Z190.4815 B-70.876
N5910 M05 M09
N5920 G40
N5930 ( Path : DRILLING  )
N5940 ( BORR_D10 0   )
N5950 G54 I1
N5960 G74 Z-.1 L1
N5970 G74 X-.1 Y-.1 L1
N5980 M56
N5990 G7 A5=0.0 B5=0.0 C5=0.0 L1=1
N6000 G174
N6010 M01
N6020 T00 M06
N6030 S3184 M03
N6040 M08
N6050 G93 X0.0 Y0.0 Z0.0
N6060 G00 B0.0 C180.
N6070 X.0143 Y1.566 Z9.804
N6080 G81 Y.1181 Z-.7874 B9.804 F12.5
N6090 G79 X-.4445 Y1.566 Z7.9736
N6100 G79 X-.4052 Y-1.5613
N6110 G00 X.051 Z9.7941
N6120 M09
N6130 M05
N6140 ( Path : TAPPING  )
N6150 ( TAP_1 0   )
N6160 G54 I1
N6170 G74 Z-.1 L1
N6180 G74 X-.1 Y-.1 L1
N6190 M56
N6200 G7 A5=0.0 B5=0.0 C5=0.0 L1=1
N6210 G174
N6220 M01
N6230 T00 M06
N6240 S3184 M03
N6250 M08
N6260 G93 X0.0 Y0.0 Z0.0
N6270 G00 B0.0 C180.
N6280 X.0143 Y1.566 Z9.804
N6290 G84 Y.1181 Z-.7874 J.0625 B9.804 F12.5
N6300 G79 X-.4445 Y1.566 Z7.9736
N6310 G79 X-.4052 Y-1.5613
N6320 G00 X.051 Z9.7941
N6330 M09
N6340 M05
N6350 ( Path : DRILLING_TILT  )
N6360 ( BORR_D10 0   )
N6370 G54 I1
N6380 G74 Z-.1 L1
N6390 G74 X-.1 Y-.1 L1
N6400 M56
N6410 G7 A5=0.0 B5=0.0 C5=0.0 L1=1
N6420 G174
N6430 M01
N6440 T00 M06
N6450 S3184 M03
N6460 M08
N6470 G93 X7.8745 Y-5.0965 Z9.2659
N6480 (*********coord_rot_on*************)
N6490 G74 Z-.1 L1
N6500 G7 A5=15. B5=0.0 C5=210. B7=254 C7=255
N6510 G00 B=E254 C=E255
N6520 (*********************************)
N6530 X-.7874 Y0.0 Z1.9685
N6540 G81 Y.1181 Z-.7874 B1.9685 F12.5
N6550 G79 X-.7874 Y0.0 Z0.0
N6560 G79 X-.3937 Y.6819
N6570 G79 X.3937
N6580 G79 X.7874 Y0.0
N6590 G79 X.3937 Y-.6819
N6600 G00 Z1.9685
N6610 M09
N6620 M05
N6630 ( Path : TAPPING_TILT  )
N6640 ( TAP_1 0   )
N6650 G54 I1
N6660 G74 Z-.1 L1
N6670 G74 X-.1 Y-.1 L1
N6680 M56
N6690 G7 A5=0.0 B5=0.0 C5=0.0 L1=1
N6700 G174
N6710 M01
N6720 T00 M06
N6730 S3184 M03
N6740 M08
N6750 G93 X7.8745 Y-5.0965 Z9.2659
N6760 (*********coord_rot_on*************)
N6770 G74 Z-.1 L1
N6780 G7 A5=15. B5=0.0 C5=210. B7=254 C7=255
N6790 G00 B=E254 C=E255
N6800 (*********************************)
N6810 X-.7874 Y0.0 Z1.9685
N6820 G84 Y.1181 Z-.7874 B1.9685 F12.5
N6830 G79 X-.7874 Y0.0 Z0.0
N6840 G79 X-.3937 Y.6819
N6850 G79 X.3937
N6860 G79 X.7874 Y0.0
N6870 G79 X.3937 Y-.6819
N6880 G00 Z1.9685
N6890 M09
N6900 M05
N6910 G74 Z-.1 L1
N6920 G74 X-.1 Y-.1 L1
N6930 M56
N6940 G7 A5=0.0 B5=0.0 C5=0.0 L1=1
N6950 M30
%
