============================================================
Information listing created by :  suyo
Date                           :  3/2/2007 5:21:24 PM
Current work part              :  D:\machine_kits\MS_NMV\MS_NMV_IN\MS_NMV_sample_in.prt
Node name                      :  shappdcsuyo
============================================================
%
O0001
G40 G17 G90 G20
(Operation Name: CAVITY_MILL)
(Current Tool: 8)
G53
G91 G28 Z0.0
T08
M06
T09
G00 G90 X2.187 Y.488 B0.0 C0.0 S0 M03
G43.4 Z2.0685 H08
Z1.8224
G01 Z1.7224 F9.8 M08
X1.9661
X2.087
Y.3667
X1.8447
X1.7509 Y.2731
G02 X1.7172 Y.2454 I-.1428 J.1398
G01 X2.087
Y.1242
X1.5922
G02 X1.5639 Y.0867 I-.1364 J.0734
X1.4812 Y.0029 I-16.4319 J16.142
G01 X2.087
G00 X2.187
Z1.8224
Y.2428
Z1.5764
G01 Z1.4764
X1.967
X2.087
Y.1225
X1.8328
G03 X1.775 Y.0513 I.3894 J-.3758
G02 X1.7301 Y.0021 I-1.4172 J1.2475
G01 X2.087
G00 X2.187
Z1.5764
Y-.0004
Z1.3303
G01 Z1.2303
X1.9701
X2.087
G00 X2.187
Z1.3303
Z2.1685
X1.386 Y2.1884
Z2.0685
Z1.8224
G01 Z1.7224
Y1.9719
X2.0884
Y1.8547
X1.5032
X1.546 Y1.8119
G02 X1.5993 Y1.7375 I-.5724 J-.4668
G01 X2.0884
Y1.6204
X1.7394
G02 X1.7899 Y1.546 I-.2097 J-.1967
G03 X1.7964 Y1.5032 I.4038 J.0398
G01 X2.0884
Y1.386
X1.9711
G00 Z1.7724
X1.9961
Z1.8224
X1.5422 Y2.1884
Z1.5764
G01 Z1.4764
Y1.9797
X2.0884
Y1.8704
X1.6516
X1.7609 Y1.7611
X2.0884
Y1.6517
X1.8702
X1.9795 Y1.5424
X2.0884
G00 X2.1884
Z1.5764
X1.7199 Y2.1884
Z1.3303
G01 Z1.2303
Y1.9661
X2.0884
Y1.8431
X1.8197
G03 X1.867 Y1.7876 I.1426 J.0737
G02 X1.9523 Y1.7308 I-.089 J-.226
X1.9643 Y1.7202 I-1.0466 J-1.1996
G01 X2.0884
G00 X2.1884
Z1.3303
X1.8702 Y2.1884
Z1.0843
G01 Z.9843
Y1.9798
X2.0884
Y1.8705
X1.9795
G00 Z1.0343
X2.0045
Z1.0843
X2.1884 Y2.0071
Z.8382
G01 Z.7382
X2.0088
X2.0884
G00 X2.1884
Z.8382
Z2.1685
X-.2215 Y1.9663
Z2.0685
Z1.8224
G01 Z1.7224
X-.1215
X.6201
G03 X.538 Y1.8832 I12.9138 J-12.8512
X.5074 Y1.8425 I.1268 J-.127
G01 X-.1215
Y1.7188
X.4319
G02 X.369 Y1.6856 I-.117 J.1458
G03 X.298 Y1.6431 I.0449 J-.1554
G01 X.2496 Y1.595
X-.1215
Y1.4713
X.1607
G03 X.155 Y1.4527 I.2423 J-.0844
G02 X.048 Y1.3597 I-.2033 J.1259
G03 X.0137 Y1.3475 I.0327 J-.1459
G01 X-.1215
G00 X-.2215
Z1.8224
Y1.9661
Z1.5764
G01 Z1.4764
X-.1215
X.4957
G03 X.3722 Y1.8421 I11.5922 J-11.6716
G01 X-.1215
Y1.7182
X.2533
G02 X.1979 Y1.6663 I-.7539 J.7497
G03 X.1224 Y1.5942 I5.0211 J-5.3302
G01 X-.1215
Y1.4703
X-.0024
G00 Z1.5264
X-.0274
Z1.5764
X-.2215 Y1.9658
Z1.3303
G01 Z1.2303
X-.1215
X.3736
G03 X.2883 Y1.8796 I11.4094 J-11.3847
X.2594 Y1.8416 I.1186 J-.12
G01 X-.1215
Y1.7173
X.1446
G03 X.0851 Y1.6765 I.0681 J-.163
X-.0028 Y1.5931 I2.0022 J-2.1979
G01 X-.1215
G00 X-.2215
Z1.3303
Y1.9651
Z1.0843
G01 Z.9843
X-.1215
X.2506
G03 X.2338 Y1.9456 I1.0116 J-.8901
X.1829 Y1.867 I.1239 J-.136
G02 X.1619 Y1.8402 I-.2734 J.1921
G01 X-.1215
Y1.7153
X.001
G00 Z1.0343
X-.024
Z1.0843
X-.2215 Y1.9652
Z.8382
G01 Z.7382
X-.1215
X.1255
G03 X.085 Y1.9229 I2.6854 J-2.6119
G01 X.048 Y1.8859
G03 X.0006 Y1.8404 I2.5994 J-2.7567
G01 X-.1215
G00 X-.2215
Z.8382
Y2.0061
Z.5921
G01 Z.4921
X-.1215
X.0414
G03 X-.0423 Y1.9221 I2.9 J-2.9756
G01 X-.1215
G00 X-.2215
Z.5921
Y2.0244
Z.3461
G01 Z.2461
X-.1215
X-.0595
G00 Z.2961
X-.0845
Z.3961
Z2.1685
X-.2115 Y.2514
Z2.0685
Z1.8224
G01 Z1.7224
X-.1115
X.0084
G03 X.0999 Y.1599 I369.7844 J369.7004
G02 X.1431 Y.1303 I-.1342 J-.242
G01 X-.1115
X-.1116 Y.0093
X.2507
G00 Z1.7724
X.2257
 
(Operation Name: PLANAR_PROFILE_ROUGH)
(Current Tool: 8)
G53
G00 X.8383 Y2.2329 B0.0 C0.0 S0 M03
Z.1
G01 Z0.0 F9.8
G03 X1.0383 Y2.1329 I.2 J.15
G01 X1.1133
X1.9685
G02 X2.1329 Y1.9685 I0.0 J-.1644
G01 Y0.0
G02 X1.9685 Y-.1644 I-.1644 J0.0
G01 X0.0
G02 X-.1644 Y0.0 I0.0 J.1644
G01 Y1.9685
G02 X0.0 Y2.1329 I.1644 J0.0
G01 X1.1133
X1.1883
G03 X1.3883 Y2.2329 I0.0 J.25
 
(Operation Name: PLANAR_PROFILE_FINISH)
(Current Tool: 8)
G53
G00 Z.1 B0.0 C0.0
X.8074 Y2.1935 S0 M03
G01 Z0.0 F9.8
G03 X1.0074 Y2.0935 I.2 J.15
G01 X1.0824
X1.9685
G02 X2.0935 Y1.9685 I0.0 J-.125
G01 Y0.0
G02 X1.9685 Y-.125 I-.125 J0.0
G01 X0.0
G02 X-.125 Y0.0 I0.0 J.125
G01 Y1.9685
G02 X0.0 Y2.0935 I.125 J0.0
G01 X1.0824
X1.1574
G03 X1.3574 Y2.1935 I0.0 J.25
M05 M09
G91 G28 Z0.0
 
(Operation Name: VARIABLE_CONTOUR_MCS1)
(Current Tool: 9)
G54
G91 G28 Z0.0
M06
T05
G01 G90 X.7806 Y.6186 Z0.0 B-37.576 C45. F9.8 S0 M03 M08
X.8781 Y.5413
Y.3867
X.683 Y.5413
X.5854 Y.464
X.8781 Y.232
Y.0773
X.4879 Y.3867
X.3903 Y.3093
X.8781 Y-.0773
Y-.232
X.2927 Y.232
X.1951 Y.1547
X.8781 Y-.3867
Y-.5413
X.0976 Y.0773
X0.0 Y0.0
X.8781 Y-.696
 
(Operation Name: VARIABLE_CONTOUR_MCS2)
(Current Tool: 9)
G55
G01 X1.2055 Y.696 Z0.0 B-54.736 C135. F9.8 S0 M03
X0.0 Y0.0
X.1205 Y-.0696
X1.2055 Y.5568
Y.4176
X.4935 Y.0065
X.4916 Y.0054 Z-.1575
X.4709 Y-.0065
X.469 Y-.0076 Z0.0
X.2411 Y-.1392
X.3616 Y-.2088
X1.2055 Y.2784
Y.1392
X.4822 Y-.2784
X.6027 Y-.348
X1.2055 Y0.0
Y-.1392
X.7233 Y-.4176
X.8438 Y-.4872
X1.2055 Y-.2784
Y-.4176
X.9644 Y-.5568
X1.0849 Y-.6264
X1.2055 Y-.5568
 
(Operation Name: VARIABLE_CONTOUR_MCS3)
(Current Tool: 9)
G56
G01 X1.6322 Y-.696 Z0.0 B-64.761 C225. F9.8 S0 M03
X0.0 Y0.0
X.1484 Y.0633
X1.6322 Y-.5694
Y-.4429
X.2968 Y.1265
X.4451 Y.1898
X1.6322 Y-.3164
Y-.1898
X.5935 Y.2531
X.7419 Y.3164
X1.6322 Y-.0633
Y.0633
X.8903 Y.3796
X1.0387 Y.4429
X1.6322 Y.1898
Y.3164
X1.1871 Y.5062
X1.3354 Y.5694
X1.6322 Y.4429
Y.5694
X1.4838 Y.6327
 
(Operation Name: VARIABLE_CONTOUR_MCS4)
(Current Tool: 9)
G57
G01 X0.0 Y0.0 Z0.0 B-70.529 C315. F9.8 S0 M03
X2.0879 Y.696
Y.5694
X.1898 Y-.0633
X.3796 Y-.1265
X2.0879 Y.4429
Y.3164
X.5694 Y-.1898
X.7592 Y-.2531
X1.3717 Y-.0489
X1.373 Y-.0485 Z-.2362
X1.4353 Y-.0277
X1.4366 Y-.0273 Z0.0
X2.0879 Y.1898
Y.0633
X.9491 Y-.3164
X1.1389 Y-.3796
X2.0879 Y-.0633
Y-.1898
X1.3287 Y-.4429
X1.5185 Y-.5062
X2.0879 Y-.3164
Y-.4429
X1.7083 Y-.5694
X1.8981 Y-.6327
X2.0879 Y-.5694
M05 M09
G91 G28 Z0.0
 
(Operation Name: FACE_MILLING_MCS9)
(Current Tool: 5)
G54.1 P3
G91 G28 Z0.0
M06
T01
G00 G90 X-.6711 Y-.8731 B0.0 C315. S900 M03
G43.4 Z.2362 H05
Z.1181
G01 Z0.0 F9.8 M08
Y-.755
Y.755
X-.5872
Y-.755
X-.5034
Y.755
X-.4195
Y-.755
X-.3356
Y.755
X-.2517
Y-.755
X-.1678
Y.755
X-.0839
Y-.755
X0.0
Y.755
X.0839
Y-.755
X.1678
Y.755
X.2517
Y-.755
X.3356
Y.755
X.4195
Y-.755
X.5034
Y.755
X.5872
Y-.755
X.6711
Y.755
G00 Y.8731
 
(Operation Name: VARIABLE_CONTOUR_MCS9)
(Current Tool: 5)
G54.1 P3
(AI CONTOUR CONTROL MODE ON)
G05.1 Q1
G01 X0.0 Y0.0 Z-.3881 B0.0 C315. F9.8 S1000 M03
X-.0004 B-.274 C369.167
X-.0007 B-.531 C377.786
X-.001 B-.782 C386.207
X-.0013 B-1.029 C394.483
X-.0016 B-1.273 C402.643
X-.0019 B-1.513 C410.703
X-.0022 Z-.388 B-1.751 C418.677
X-.0025 B-1.987 C426.573
X-.0028 B-2.221 C434.398
X-.0031 B-2.452 C442.158
X-.0034 B-2.682 C449.857
X-.0037 B-2.911 C457.501
X-.004 Z-.3879 B-3.138 C465.092
X-.0043 B-3.363 C472.634
X-.0046 B-3.587 C480.129
X-.0049 B-3.81 C487.579
X-.0051 Z-.3878 B-4.032 C494.987
X-.0054 B-4.252 C502.355
X-.0057 B-4.471 C509.684
X-.006 B-4.69 C516.975
X-.0062 Z-.3877 B-4.907 C524.231
X-.0065 B-5.123 C531.453
X-.0068 B-5.339 C538.641
X-.0071 Z-.3876 B-5.553 C545.797
X-.0073 B-5.767 C552.922
X-.0076 B-5.98 C560.018
X-.0079 Z-.3875 B-6.192 C567.084
X-.0081 B-6.403 C574.122
X-.0084 B-6.614 C581.132
X-.0087 Z-.3874 B-6.823 C588.116
X-.0089 B-7.033 C595.073
X-.0092 Z-.3873 B-7.241 C602.006
X-.0095 B-7.449 C608.914
X-.0097 B-7.656 C615.797
X-.01 Z-.3872 B-7.863 C622.658
X-.0102 B-8.069 C629.495
X-.0105 Z-.3871 B-8.274 C636.31
X-.0108 B-8.479 C643.103
X-.011 Z-.387 B-8.684 C649.875
X-.0113 B-8.887 C656.626
X-.0115 Z-.3869 B-9.091 C663.356
X-.0118 B-9.294 C670.066
X-.012 B-9.496 C676.756
X-.0123 Z-.3868 B-9.698 C683.427
X-.0125 Z-.3867 B-9.899 C690.079
X-.0128 B-10.1 C696.712
X-.013 Z-.3866 B-10.301 C703.327
X-.0133 B-10.501 C709.925
X-.0135 Z-.3865 B-10.701 C716.504
X-.0138 B-10.9 C723.066
X-.014 Z-.3864 B-11.099 C729.611
X-.0143 B-11.298 C736.14
X-.0145 Z-.3863 B-11.496 C742.652
X-.0148 Z-.3862 B-11.694 C749.147
X-.015 B-11.891 C755.627
X-.0152 Z-.3861 B-12.089 C762.091
X-.0155 B-12.285 C768.539
X-.0157 Z-.386 B-12.482 C774.973
X-.016 Z-.3859 B-12.678 C781.391
X-.0162 B-12.874 C787.794
X-.0165 Z-.3858 B-13.07 C794.183
X-.0167 Z-.3857 B-13.265 C800.558
X-.0169 B-13.46 C806.918
X-.0172 Z-.3856 B-13.655 C813.264
X-.0174 Z-.3855 B-13.85 C819.597
X-.0176 B-14.044 C825.916
X-.0179 Z-.3854 B-14.238 C832.222
X-.0181 Z-.3853 B-14.432 C838.514
X-.0183 B-14.625 C844.793
X-.0186 Z-.3852 B-14.819 C851.059
X-.0188 Z-.3851 B-15.012 C857.313
X-.0191 Z-.385 B-15.205 C863.554
X-.0193 B-15.397 C869.782
X-.0195 Z-.3849 B-15.59 C875.999
X-.0197 Z-.3848 B-15.782 C882.203
X-.02 Z-.3847 B-15.974 C888.395
X-.0202 B-16.166 C894.575
X-.0204 Z-.3846 B-16.358 C900.744
X-.0207 Z-.3845 B-16.55 C906.901
X-.0209 Z-.3844 B-16.741 C913.046
X-.0211 B-16.932 C919.18
X-.0214 Z-.3843 B-17.123 C925.303
X-.0216 Z-.3842 B-17.314 C931.415
X-.0218 Z-.3841 B-17.505 C937.516
X-.022 Z-.384 B-17.696 C943.606
X-.0223 Z-.3839 B-17.886 C949.685
X-.0225 B-18.077 C955.754
X-.0227 Z-.3838 B-18.267 C961.812
X-.0229 Z-.3837 B-18.457 C967.86
X-.0232 Z-.3836 B-18.647 C973.898
X-.0234 Z-.3835 B-18.837 C979.925
X-.0236 Z-.3834 B-19.027 C985.942
X-.0238 Z-.3833 B-19.217 C991.95
X-.024 Z-.3832 B-19.406 C997.947
X-.0243 Z-.3831 B-19.596 C1003.934
X-.0245 Z-.383 B-19.785 C1009.912
X-.0247 B-19.975 C1015.88
X-.0249 Z-.3829 B-20.164 C1021.839
X-.0252 Z-.3828 B-20.353 C1027.788
X-.0254 Z-.3827 B-20.542 C1033.728
X-.0256 Z-.3826 B-20.731 C1039.659
X-.0258 Z-.3825 B-20.921 C1045.58
X-.026 Z-.3824 B-21.11 C1051.493
X-.0262 Z-.3823 B-21.299 C1057.396
X-.0265 Z-.3822 B-21.487 C1063.29
X-.0267 Z-.3821 B-21.676 C1069.176
X-.0269 Z-.382 B-21.865 C1075.053
X-.0271 Z-.3819 B-22.054 C1080.921
X-.0273 Z-.3818 B-22.243 C1086.78
X-.0275 Z-.3817 B-22.431 C1092.631
X-.0278 Z-.3816 B-22.62 C1098.473
X-.028 Z-.3815 B-22.809 C1104.307
X-.0282 Z-.3814 B-22.998 C1110.133
X-.0284 Z-.3812 B-23.186 C1115.95
X-.0286 Z-.3811 B-23.375 C1121.759
X-.0288 Z-.381 B-23.564 C1127.56
X-.029 Z-.3809 B-23.753 C1133.353
X-.0292 Z-.3808 B-23.941 C1139.138
X-.0294 Z-.3807 B-24.13 C1144.915
X-.0297 Z-.3806 B-24.319 C1150.684
X-.0299 Z-.3805 B-24.508 C1156.445
X-.0301 Z-.3804 B-24.696 C1162.198
X-.0303 Z-.3802 B-24.885 C1167.944
X-.0305 Z-.3801 B-25.074 C1173.682
X-.0307 Z-.38 B-25.263 C1179.412
X-.0309 Z-.3799 B-25.452 C1185.135
X-.0311 Z-.3798 B-25.641 C1190.85
X-.0313 Z-.3797 B-25.83 C1196.558
X-.0315 Z-.3795 B-26.019 C1202.259
X-.0317 Z-.3794 B-26.209 C1207.952
X-.0319 Z-.3793 B-26.398 C1213.638
X-.0321 Z-.3792 B-26.587 C1219.317
X-.0323 Z-.3791 B-26.777 C1224.988
X-.0325 Z-.3789 B-26.966 C1230.653
X-.0328 Z-.3788 B-27.156 C1236.31
X-.033 Z-.3787 B-27.345 C1241.961
X-.0332 Z-.3786 B-27.535 C1247.604
X-.0334 Z-.3784 B-27.725 C1253.241
X-.0336 Z-.3783 B-27.915 C1258.87
X-.0338 Z-.3782 B-28.105 C1264.493
X-.034 Z-.378 B-28.295 C1270.109
X-.0342 Z-.3779 B-28.486 C1275.718
X-.0344 Z-.3778 B-28.676 C1281.321
X-.0346 Z-.3777 B-28.866 C1286.917
X-.0348 Z-.3775 B-29.057 C1292.506
X-.035 Z-.3774 B-29.248 C1298.089
X-.0352 Z-.3772 B-29.439 C1303.665
X-.0354 Z-.3771 B-29.63 C1309.235
X-.0355 Z-.377 B-29.821 C1314.798
X-.0357 Z-.3768 B-30.012 C1320.355
X-.0359 Z-.3767 B-30.204 C1325.906
X-.0361 Z-.3766 B-30.395 C1331.45
X-.0363 Z-.3764 B-30.587 C1336.988
X-.0365 Z-.3763 B-30.779 C1342.52
X-.0367 Z-.3761 B-30.971 C1348.045
X-.0369 Z-.376 B-31.163 C1353.565
X-.0371 Z-.3759 B-31.356 C1359.078
X-.0373 Z-.3757 B-31.549 C1364.585
X-.0375 Z-.3756 B-31.741 C1370.087
X-.0377 Z-.3754 B-31.934 C1375.582
X-.0379 Z-.3753 B-32.128 C1381.071
X-.0381 Z-.3751 B-32.321 C1386.554
X-.0383 Z-.375 B-32.515 C1392.032
X-.0384 Z-.3748 B-32.709 C1397.503
X-.0386 Z-.3747 B-32.903 C1402.969
X-.0388 Z-.3745 B-33.097 C1408.429
X-.039 Z-.3744 B-33.291 C1413.883
X-.0392 Z-.3742 B-33.486 C1419.331
X-.0394 Z-.374 B-33.681 C1424.774
X-.0396 Z-.3739 B-33.876 C1430.211
X-.0398 Z-.3737 B-34.072 C1435.642
X-.0399 Z-.3736 B-34.267 C1441.068
X-.0401 Z-.3734 B-34.463 C1446.488
X-.0403 Z-.3733 B-34.66 C1451.903
X-.0405 Z-.3731 B-34.856 C1457.312
X-.0407 Z-.3729 B-35.053 C1462.716
X-.0409 Z-.3728 B-35.25 C1468.114
X-.041 Z-.3726 B-35.447 C1473.507
X-.0412 Z-.3724 B-35.645 C1478.894
X-.0414 Z-.3723 B-35.843 C1484.276
X-.0416 Z-.3721 B-36.041 C1489.653
X-.0418 Z-.3719 B-36.239 C1495.024
X-.0419 Z-.3718 B-36.438 C1500.39
X-.0421 Z-.3716 B-36.637 C1505.751
X-.0423 Z-.3714 B-36.837 C1511.107
X-.0425 Z-.3712 B-37.036 C1516.457
X-.0426 Z-.3711 B-37.236 C1521.802
X-.0428 Z-.3709 B-37.437 C1527.143
X-.043 Z-.3707 B-37.638 C1532.478
X-.0432 Z-.3705 B-37.839 C1537.808
X-.0433 Z-.3704 B-38.04 C1543.132
X-.0435 Z-.3702 B-38.242 C1548.452
X-.0437 Z-.37 B-38.444 C1553.767
X-.0439 Z-.3698 B-38.647 C1559.077
X-.044 Z-.3696 B-38.85 C1564.382
X-.0442 Z-.3694 B-39.053 C1569.682
X-.0444 Z-.3693 B-39.257 C1574.977
X-.0445 Z-.3691 B-39.461 C1580.267
X-.0447 Z-.3689 B-39.666 C1585.552
X-.0449 Z-.3687 B-39.871 C1590.833
X-.045 Z-.3685 B-40.076 C1596.109
X-.0452 Z-.3683 B-40.282 C1601.379
X-.0454 Z-.3681 B-40.488 C1606.646
X-.0455 Z-.3679 B-40.695 C1611.907
X-.0457 Z-.3677 B-40.902 C1617.164
X-.0459 Z-.3675 B-41.11 C1622.415
X-.046 Z-.3673 B-41.318 C1627.663
X-.0462 Z-.3671 B-41.527 C1632.905
X-.0463 Z-.3669 B-41.736 C1638.143
X-.0465 Z-.3667 B-41.946 C1643.377
X-.0467 Z-.3665 B-42.156 C1648.605
X-.0468 Z-.3663 B-42.366 C1653.83
X-.047 Z-.3661 B-42.578 C1659.049
X-.0471 Z-.3659 B-42.789 C1664.264
X-.0473 Z-.3657 B-43.002 C1669.475
X-.0474 Z-.3655 B-43.214 C1674.681
X-.0476 Z-.3652 B-43.428 C1679.883
X-.0477 Z-.365 B-43.642 C1685.08
X-.0479 Z-.3648 B-43.856 C1690.273
X-.048 Z-.3646 B-44.071 C1695.461
X-.0482 Z-.3644 B-44.287 C1700.645
X-.0483 Z-.3641 B-44.503 C1705.825
X-.0485 Z-.3639 B-44.72 C1711.
X-.0486 Z-.3637 B-44.938 C1716.171
X-.0488 Z-.3635 B-45.156 C1721.338
X-.0489 Z-.3632 B-45.375 C1726.501
X-.0491 Z-.363 B-45.595 C1731.659
X-.0492 Z-.3628 B-45.815 C1736.813
X-.0493 Z-.3625 B-46.036 C1741.962
X-.0495 Z-.3623 B-46.257 C1747.108
X-.0496 Z-.3621 B-46.48 C1752.249
X-.0497 Z-.3618 B-46.703 C1757.386
X-.0499 Z-.3616 B-46.927 C1762.519
X-.05 Z-.3613 B-47.151 C1767.648
X-.0501 Z-.3611 B-47.376 C1772.772
X-.0503 Z-.3609 B-47.603 C1777.893
X-.0504 Z-.3606 B-47.83 C1783.009
X-.0505 Z-.3604 B-48.057 C1788.122
X-.0506 Z-.3601 B-48.286 C1793.23
X-.0508 Z-.3599 B-48.515 C1798.334
X-.0509 Z-.3596 B-48.746 C1803.435
X-.051 Z-.3593 B-48.977 C1808.531
X-.0511 Z-.3591 B-49.209 C1813.623
X-.0512 Z-.3588 B-49.442 C1818.711
X-.0513 Z-.3585 B-49.676 C1823.796
X-.0515 Z-.3583 B-49.911 C1828.876
X-.0516 Z-.358 B-50.146 C1833.953
X-.0517 Z-.3577 B-50.383 C1839.025
X-.0518 Z-.3575 B-50.621 C1844.094
X-.0519 Z-.3572 B-50.86 C1849.159
X-.052 Z-.3569 B-51.1 C1854.22
X-.0521 Z-.3566 B-51.341 C1859.277
X-.0522 Z-.3563 B-51.583 C1864.33
X-.0523 Z-.356 B-51.826 C1869.379
Z-.3558 B-52.07 C1874.425
X-.0524 Z-.3555 B-52.316 C1879.467
X-.0525 Z-.3552 B-52.562 C1884.505
X-.0526 Z-.3549 B-52.81 C1889.539
X-.0527 Z-.3546 B-53.059 C1894.57
Z-.3543 B-53.309 C1899.597
X-.0528 Z-.3539 B-53.561 C1904.62
X-.0529 Z-.3536 B-53.814 C1909.639
Z-.3533 B-54.068 C1914.655
X-.053 Z-.353 B-54.324 C1919.667
Z-.3527 B-54.581 C1924.676
X-.0531 Z-.3523 B-54.839 C1929.68
Z-.352 B-55.099 C1934.682
X-.0532 Z-.3517 B-55.361 C1939.679
Z-.3513 B-55.624 C1944.673
Z-.351 B-55.889 C1949.663
Z-.3507 B-56.155 C1954.65
Z-.3503 B-56.423 C1959.633
X-.0533 Z-.35 B-56.693 C1964.613
Z-.3496 B-56.964 C1969.589
X-.0532 Z-.3492 B-57.237 C1974.562
Z-.3489 B-57.512 C1979.531
Z-.3485 B-57.789 C1984.497
Z-.3481 B-58.068 C1989.459
X-.0531 Z-.3477 B-58.349 C1994.417
Z-.3473 B-58.632 C1999.373
X-.053 Z-.3469 B-58.917 C2004.324
X-.0529 Z-.3465 B-59.204 C2009.273
Z-.3461 B-59.494 C2014.218
X-.0528 Z-.3457 B-59.785 C2019.159
X-.0526 Z-.3453 B-60.079 C2024.097
X-.0525 Z-.3448 B-60.376 C2029.032
X-.0524 Z-.3444 B-60.675 C2033.963
X-.0522 Z-.3439 B-60.977 C2038.891
X-.052 Z-.3435 B-61.281 C2043.816
X-.0519 Z-.3432 B-61.434 C2046.276
Z-.3431 B-61.511 C2047.507
X.0865 Z-.268 B-61.53 C2047.814
Z-.2681 B-61.55 C2048.122
X.0866 B-61.588 C2048.737
X.0868 Z-.2686 B-61.898 C2053.655
X.0871 Z-.2691 B-62.211 C2058.57
X.0873 Z-.2696 B-62.527 C2063.481
X.0876 Z-.27 B-62.846 C2068.389
X.0878 Z-.2705 B-63.169 C2073.294
X.0881 Z-.271 B-63.495 C2078.195
X.0883 Z-.2715 B-63.824 C2083.094
X.0886 Z-.2721 B-64.157 C2087.988
X.0888 Z-.2726 B-64.494 C2092.88
X.0891 Z-.2731 B-64.835 C2097.769
X.0893 Z-.2736 B-65.18 C2102.654
X.0896 Z-.2742 B-65.53 C2107.536
X.0898 Z-.2747 B-65.883 C2112.415
X.0901 Z-.2753 B-66.242 C2117.291
X.0903 Z-.2759 B-66.606 C2122.163
X.0906 Z-.2765 B-66.974 C2127.033
X.0908 Z-.2771 B-67.348 C2131.899
X.0911 Z-.2777 B-67.728 C2136.762
X.0913 Z-.2783 B-68.114 C2141.622
X.0916 Z-.2789 B-68.506 C2146.479
X.0918 Z-.2795 B-68.905 C2151.333
X.0921 Z-.2802 B-69.311 C2156.184
X.0923 Z-.2809 B-69.724 C2161.031
X.0926 Z-.2815 B-70.146 C2165.876
X.0928 Z-.2822 B-70.576 C2170.717
X.0931 Z-.2829 B-71.015 C2175.555
X.0933 Z-.2837 B-71.463 C2180.391
X.0936 Z-.2844 B-71.922 C2185.223
X.0938 Z-.2852 B-72.393 C2190.052
X.0941 Z-.286 B-72.875 C2194.878
X.0943 Z-.2868 B-73.371 C2199.702
X.0946 Z-.2876 B-73.881 C2204.522
X.0947 Z-.2881 B-74.142 C2206.931
X.0691 Z.2953 B75.522 C2208.135
X.0699 C2209.339
X.073 C2214.153
X.0762 C2218.965
X.0764 Z.296 B76.1 C2223.773
X.0766 Z.2969 B76.71 C2228.578
X.0768 Z.2977 B77.348 C2233.381
X.077 Z.2986 B78.02 C2238.18
X.0772 Z.2996 B78.73 C2242.977
X.0774 Z.3006 B79.487 C2247.77
X.0776 Z.3017 B80.302 C2252.561
X.0778 Z.3029 B81.19 C2257.349
X.078 Z.3042 B82.178 C2262.134
X.0782 Z.3058 B83.307 C2266.916
X.0784 Z.3076 B84.669 C2271.695
X.0786 Z.3102 B86.526 C2276.472
X.0787 Z.3122 B88.024 C2278.858
Z.3131 B88.635 C2279.455
Z.3137 B89.082 C2279.753
(AI CONTOUR CONTROL MODE OFF)
G05.1 Q0
M05 M09
G91 G28 Z0.0
 
(Operation Name: DRING_BREAK_CHIP_G73)
(Current Tool: 1)
G54
G91 G28 Z0.0
M06
T02
G00 G90 X-.5101 Y.0342 B37.576 C2385. S1000 M03
G43.4 Z.0787 H01
G98 G73 Z-.0353 R.0787 F.4 Q.005
G80
M05 M09
G91 G28 Z0.0
 
(Operation Name: TAPPING_LEFT_HAND_G74)
(Current Tool: 2)
G55
G91 G28 Z0.0
M06
T03
G00 G90 X-.481 Y0.0 B54.736 C2475. S900 M04
G43.4 Z.1181 H02
G98 G74 Z-.0353 R.1181 F.4
X-.9098 Y-.0945
G80
M05 M09
G91 G28 Z0.0
 
(Operation Name: BORING_NO_DRAG_G76)
(Current Tool: 3)
G56
G91 G28 Z0.0
M06
T04
G00 G90 X-1.24 Y.0591 B64.761 C2565. S800 M03
G43.4 Z.2362 H03
G99 G76 Z-.1969 R.2362 F9.8
X-1.3902 Y-.2486
X-.7068 Y-.0302
G80
M05 M09
G91 G28 Z0.0
 
(Operation Name: SPOT_DRILLING_G81)
(Current Tool: 4)
G57
G91 G28 Z0.0
M06
T03
G00 G90 X-1.7624 Y.3144 B70.529 C2655. S800 M03
G43.4 Z.1181 H04
G99 G81 Z0.0 R.1181 F9.8
X-1.7677 Y-.1503
X-1.3919 Y0.0
X-.9413
G80
 
(Operation Name: DRILLING_G82)
(Current Tool: 4)
G58
G98 G82 X-.9843 Y-.84 Z-.2756 B90. C2700. R.1181 F9.8 P5
G80
M05 M09
G91 G28 Z0.0
 
(Operation Name: DRILLING_DEEP_G83)
(Current Tool: 3)
G59
G91 G28 Z0.0
M06
T02
G00 G90 X-.9882 Y-.9879 B90. C2610. S900 M03
G43.4 Z.1181 H03
G99 G83 Z-.1181 R.1181 F9.8 Q0.0
X-.3618 Y-1.0042
G80
M05 M09
G91 G28 Z0.0
 
(Operation Name: TAPPING_RIGHT_HAND_G84)
(Current Tool: 2)
G54.1 P1
G91 G28 Z0.0
M06
T01
G00 G90 X-.9843 Y-1.0891 B90. C2520. S1000 M03
G43.4 Z.1181 H02
G98 G84 Z-.1181 R.1181 F9.8
X-.4921 Y-.7421
Y-1.4764
G80
M05 M09
G91 G28 Z0.0
 
(Operation Name: BORING_G85)
(Current Tool: 1)
G54.1 P2
G91 G28 Z0.0
M06
T07
G00 G90 X-1.1906 Y-.7934 B90. C2430. S800 M03
G43.4 Z.1181 H01
G98 G85 Z0.0 R.1181 F9.8
X-1.2298 Y-1.3587
X-.5882 Y-1.4002
Y-.8071
G80
M05 M09
G91 G28 Z0.0
 
(Operation Name: BORING_DRAG_G86)
(Current Tool: 7)
G54.1 P3
G91 G28 Z0.0
M06
T06
G00 G90 X-.0536 Y-.6472 B0.0 C2430. S800 M03
G43.4 Z.1181 H07
G99 G86 Z-.1969 R.1181 F9.8
X-.2634 Y-.4776
G80
M05 M09
G91 G28 Z0.0
 
(Operation Name: BORING_BACK_G87)
(Current Tool: 6)
G54.1 P3
G91 G28 Z0.0
M06
T01
G00 G90 X-.595 Y-.0056 B0.0 C2430. S1000 M03
G43.4 Z.1181 H06
G99 G87 Z-.1969 R.1181 F9.8
X-.3928 Y.2678
G80
M05 M09
G91 G28 Z0.0
 
(Operation Name: BORING_MANUAL_G88)
(Current Tool: 1)
G54.1 P3
G91 G28 Z0.0
M06
T02
G00 G90 X-.0134 Y.6517 B0.0 C2430. S900 M03
G43.4 Z.1181 H01
G99 G88 Z0.0 R.1181 F9.8 P50
X.25 Y.4508
G80
M05 M09
G91 G28 Z0.0
 
(Operation Name: BORING_BORE_DWELL_G89)
(Current Tool: 2)
G54.1 P3
G91 G28 Z0.0
M06
G00 G90 X.5312 Y-.0982 B0.0 C2430. S800 M03
G43.4 Z.1181 H02
G99 G89 Z-.1969 R.1181 F9.8 P60
X.3526 Y-.3571
G80
 
G91 G28 Z0.0
M02
%

