%
O0001
(LeBolondMakino_RCM-55_Fanuc0M_in_Sample)
(PROGRAMMED Wed Jan 14 12:23:04 2009)
G91G28X0Y0Z0
G90G00G54X0Y0
G40G49G80G69G17
(PLANAR_FACING)
T06
M01
M06
N1M01
(UGTI0212_006)
(Milling Tool-5 Parameters)
G17
M03S458F600.0
G40G49G80G00
G90X34.7724Y-1.85
G43H6Z-2.3694M08T02
G00
X34.4974
G01X34.3974F9.8
Y-1.75
Y11.5925
Y11.6925
X34.4974
G00X34.7724
Y-1.85
Z-4.5203
X34.4974
G01X34.3974
Y-1.75
Y11.5925
Y11.6925
X34.4974
G00X34.7724
Z-2.3694
Y-1.85
X34.3224
G01X34.2224
Y-1.75
Y11.5925
Y11.6925
X34.3224
G00X34.7724
Y-1.85
Z-4.5203
X34.3224
G01X34.2224
Y-1.75
Y11.5925
Y11.6925
X34.3224
G00X34.7724
(PLANAR_FACING_1)
G00Z-2.3694
X-.3Y11.6925M03S458
X-.1
G01X0.0F9.8
Y11.5925
Y-1.75
Y-1.85
X-.1
G00X-.3
Y11.6925
Z-4.5203
X-.1
G01X0.0
Y11.5925
Y-1.75
Y-1.85
X-.1
G00X-.3
(PLANAR_FACING_2)
G00Z-2.3694
X36.0724Y10.1425M03S458
Y9.9425
G01Y9.8425F9.8
X35.9724
X-1.75
X-1.85
Y9.9425
G00Y10.1425
X36.0724
Z-4.5203
Y9.9425
G01Y9.8425
X35.9724
X-1.75
X-1.85
Y9.9425
G00Y10.1425
M09
G00G91G28Z0
(ROUGH_GENERAL_POCKET)
M01
M06
N2M01
(UGTI0201_102)
(Milling Tool-5 Parameters)
G17
M03S500F600.0
G40G49G80G00
G90X-.2524Y.0175
G43H0Z-1.7685M08T13
G00
Z-2.1513
G01Z-2.2513F9.8
X-.1702Y.036
X-.0866Y.0464
X-.0024Y.0486
X.0362Y.0489
X.9864
X1.035Y.0484
X1.0834Y.0516
X1.1319Y.0484
X1.1805Y.0489
X1.628
Y.0257
X1.6279Y-.0025
X1.626Y-.0867
X1.6158Y-.1703
X1.5974Y-.2525
Z-2.1513
G00Z-1.8685
X-.2524Y.4426
Z-2.1513
G01Z-2.2513
X-.1702Y.4611
X-.0866Y.4715
X-.0024Y.4736
X.0324Y.4739
X.9864
X1.035Y.4736
X1.0834Y.4776
X1.1319Y.4736
X1.1805Y.4739
X2.053
Y.0237
X2.0529Y-.0025
X2.0511Y-.0867
X2.041Y-.1703
X2.0227Y-.2525
Z-2.1513
G00Z-1.8685
X-.2524Y.8679
Z-2.1513
G01Z-2.2513
X-.1702Y.8863
X-.0865Y.8966
X-.0024Y.8986
X.0281Y.8989
X.9864
X1.0261Y.8986
X1.0656Y.9026
X1.0834Y.9044
X1.0935Y.9033
X1.1369Y.8988
X1.1805Y.8989
X2.053
X2.3796
X2.4288Y.8975
X2.478Y.9007
Y.4739
Y.0215
X2.4779Y-.0025
X2.4763Y-.0867
X2.4664Y-.1703
X2.4483Y-.2525
Z-2.1513
G00Z-1.8685
X-.2523Y1.2936
Z-2.1513
G01Z-2.2513
X-.1701Y1.3118
X-.0865Y1.3218
X-.0023Y1.3236
X.0227Y1.3239
X.9864
X1.0063Y1.3232
X1.026Y1.3257
X1.0538Y1.3277
X1.0813Y1.333
X1.0968Y1.3293
X1.1128Y1.3286
X1.137Y1.3261
X1.1587Y1.3233
X1.1805Y1.3239
X2.3857
X2.4187Y1.3224
X2.4516Y1.3248
X2.4882Y1.3269
X2.5243Y1.3332
X2.5562Y1.3278
X2.5885Y1.3248
X2.6209Y1.3242
X2.6369Y1.3239
X2.903
Y.9007
Y.0189
X2.9029Y-.0025
X2.9017Y-.0866
X2.8921Y-.1702
X2.8745Y-.2525
Z-2.1513
G00Z-1.7685
G01Z-1.6685
G00X-.2523Y1.7211
Z-2.1513
G01Z-2.2513
X-.1701Y1.7384
X-.0864Y1.7476
X-.0023Y1.7486
X.0154Y1.7489
X.9864
X1.0113Y1.751
X1.0357Y1.7564
X1.0592Y1.7648
X1.0921Y1.766
X1.1248Y1.7615
X1.1562Y1.7514
X1.1805Y1.7489
X2.3941
X2.4356Y1.7487
X2.4766Y1.7559
X2.5155Y1.7703
X2.555Y1.7583
X2.5957Y1.7511
X2.6369Y1.7489
X3.328
Y.0154
Y-.0023
X3.3279Y-.0864
X3.3195Y-.1701
X3.303Y-.2525
Z-2.1513
G00Z-1.7685
X10.6506
Z-2.1513
G01Z-2.2513
X10.6323Y-.1703
X10.6221Y-.0867
X10.6201Y-.0025
Y.0257
Y.0489
X11.7513
X11.798Y.0478
X11.8447Y.049
X11.8913Y.0524
X11.9316Y.0492
X11.9721
X12.0061Y.0489
X13.2198
X13.2504Y.0492
X13.2878Y.049
X13.3251Y.0519
X13.3807Y.0482
X13.4363Y.0471
X13.492Y.0489
X14.6761
X14.7247Y.0484
X14.7733Y.0516
X14.8217Y.0484
X14.8702Y.0489
X16.3999
X16.4527Y.0474
X16.5056Y.0485
X16.5584Y.0522
X16.603Y.0501
X16.6347Y.048
X16.6664Y.0489
X18.2685
X18.3036Y.0481
X18.3386Y.0503
X18.3708Y.0519
X18.4277Y.0481
X18.4848Y.0471
X18.5418Y.0489
X19.646
X19.7025Y.0471
X19.7589Y.0481
X19.8153Y.0519
X19.8725Y.0495
X19.919Y.0489
X21.395
X21.4503Y.0472
X21.5057Y.0482
X21.5609Y.0519
X21.5992Y.049
X21.6376Y.0491
X21.6666Y.0489
X22.589
X22.6413Y.0497
X22.6923Y.0519
X22.7489Y.0481
X22.8056Y.0471
X22.8623Y.0489
X24.3852
X24.4323Y.0483
X24.4793Y.0515
X24.4899Y.0521
X24.5452Y.0483
X24.6007Y.0472
X24.6561Y.0489
X26.1813
X26.2166Y.0481
X26.2519Y.0503
X26.2932Y.0525
X26.3415Y.0489
X26.3899Y.0477
X26.4383Y.0489
X28.3659
X28.4145Y.0484
X28.463Y.0516
X28.5114Y.0484
X28.56Y.0489
X29.4339
X29.489Y.0498
X29.537Y.0519
X29.5937Y.0481
X29.6504Y.0471
X29.7072Y.0489
X30.3171
X30.3383Y.0222
X30.3619Y-.0025
X30.4266Y-.0794
X30.4823Y-.1631
X30.5282Y-.2525
Z-2.1513
G00Z-1.8685
X10.2253
Z-2.1513
G01Z-2.2513
X10.2071Y-.1703
X10.197Y-.0867
X10.1951Y-.0025
Y.0237
Y.0489
Y.4739
X10.2811
X10.337Y.4721
X10.3928Y.4734
X10.4485Y.4779
X10.499Y.4737
X10.5497Y.4739
X10.6201
X11.7535
X11.7994Y.4729
X11.8452Y.4744
X11.8909Y.4784
X11.9357Y.4745
X11.9806Y.4741
X12.0061Y.4739
X13.2198
X13.2427Y.4741
X13.2845Y.4742
X13.3261Y.4778
X13.3795Y.4735
X13.433Y.4722
X13.4866Y.4739
X14.6761
X14.7248Y.4736
X14.7733Y.4776
X14.8217Y.4736
X14.8702Y.4739
X16.4042
X16.4554Y.4724
X16.5066Y.4738
X16.5576Y.4781
X16.6189Y.4748
X16.6664Y.4739
X18.2685
X18.321Y.475
X18.3714Y.4779
X18.4262Y.4734
X18.4812Y.4721
X18.5362Y.4739
X19.6515
X19.7059Y.4721
X19.7603Y.4735
X19.8145Y.4778
X19.8492Y.4745
X19.8841Y.4743
X19.919Y.4739
X21.4003
X21.4536Y.4722
X21.5069Y.4735
X21.5601Y.4778
X21.6024Y.4742
X21.6449Y.4741
X21.6666Y.4739
X22.589
X22.6283Y.4745
X22.6608Y.4746
X22.6931Y.4778
X22.7475Y.4734
X22.8021Y.4721
X22.8567Y.4739
X24.3852
X24.4205Y.4732
X24.4558Y.4758
X24.4801Y.4772
X24.4922Y.4779
X24.545Y.4736
X24.598Y.4722
X24.6509Y.4739
X26.1813
X26.2343Y.475
X26.2934Y.4784
X26.3407Y.4743
X26.3882Y.4728
X26.4357Y.4739
X28.3659
X28.4145Y.4736
X28.463Y.4776
X28.5114Y.4736
X28.56Y.4739
X29.4339
X29.4752Y.4745
X29.5066Y.4747
X29.5378Y.4778
X29.5923Y.4734
X29.6469Y.4721
X29.7016Y.4739
X30.3171
X30.5018
X30.5228Y.474
X30.5331Y.4742
X30.5662Y.421
X30.6028Y.3702
X30.6428Y.3219
X30.732Y.2243
X30.8317Y.1373
X30.9399Y.061
X31.0559Y-.0025
X31.1458Y-.0514
X31.2296Y-.1101
X31.3069Y-.1772
X31.3762Y-.2525
Z-2.1513
G00Z-1.8685
X9.7997
Z-2.1513
G01Z-2.2513
X9.7817Y-.1703
X9.7718Y-.0867
X9.7701Y-.0025
Y.0215
Y.8989
X10.2878
X10.3412Y.8971
X10.3946Y.899
X10.4477Y.9046
X10.4512Y.9042
X10.4755Y.9021
X10.5125Y.8985
X10.5497Y.8989
X11.7561
X11.8009Y.898
X11.8457Y.9
X11.8903Y.905
X11.9396Y.8999
X11.9891Y.899
X12.0061Y.8989
X13.2198
X13.2351Y.899
X13.2812Y.8996
X13.327Y.9044
X13.378Y.8991
X13.4292Y.8972
X13.4804Y.8989
X14.6761
X14.7085Y.8983
X14.7408Y.9001
X14.7728Y.9044
X14.7867Y.903
X14.8283Y.8987
X14.8702Y.8989
X16.4092
X16.4583Y.8975
X16.5075Y.8995
X16.5564Y.9048
X16.5954Y.9003
X16.6347Y.8995
X16.6664Y.8989
X18.2685
X18.3035Y.8996
X18.3379Y.9004
X18.372Y.9045
X18.4244Y.899
X18.4771Y.8972
X18.5297Y.8989
X19.6579
X19.7099Y.8972
X19.762Y.8991
X19.8137Y.9045
X19.8546Y.8999
X19.8957Y.8992
X19.919Y.8989
X21.4063
X21.4574Y.8973
X21.5085Y.8991
X21.5593Y.9045
X21.6056Y.8996
X21.6521Y.899
X21.6666Y.8989
X22.589
X22.6152Y.8993
X22.6547Y.9
X22.6939Y.9045
X22.7459Y.899
X22.7981Y.8972
X22.8503Y.8989
X24.3852
X24.4087Y.898
X24.4323Y.9002
X24.4565Y.9015
X24.494Y.9044
X24.5442Y.8992
X24.5946Y.8973
X24.645Y.8989
X26.1813
X26.2166Y.8996
X26.2554Y.9006
X26.294Y.9051
X26.34Y.9
X26.3863Y.8979
X26.4327Y.8989
X28.3659
X28.3981Y.8983
X28.4303Y.9001
X28.4622Y.9043
X28.4797Y.9027
X28.5198Y.8986
X28.56Y.8989
X29.4339
X29.4614Y.8993
X29.5001Y.9001
X29.5386Y.9045
X29.5906Y.899
X29.6429Y.8972
X29.6951Y.8989
X30.5018
X30.5158Y.899
X30.5234Y.8991
X30.571Y.9
X30.6183Y.905
X30.6625Y.9001
X30.7068Y.898
X30.7512Y.8989
X30.8051
X30.8281Y.8284
X30.8583Y.7607
X30.8953Y.6965
X30.9569Y.6072
X31.0302Y.5272
X31.113Y.4571
X31.2041Y.3982
X31.302Y.3514
X31.4051Y.3173
X31.5116Y.2967
X31.6199Y.291
X31.7041Y.2886
X31.7877Y.278
X31.8699Y.2592
Z-2.1513
G00Z-1.8685
X9.3736Y-.2525
Z-2.1513
G01Z-2.2513
X9.3559Y-.1702
X9.3464Y-.0866
X9.3451Y-.0025
Y.0189
Y1.3239
X10.2959
X10.3466Y1.3223
X10.3972Y1.3254
X10.4473Y1.3333
X10.4676Y1.3288
X10.4884Y1.3276
X10.5126Y1.3255
X10.5311Y1.3231
X10.5497Y1.3239
X11.7591
X11.8027Y1.3233
X11.8461Y1.3265
X11.8891Y1.3335
X11.925Y1.3275
X11.9612Y1.3243
X11.9976Y1.324
X12.0061Y1.3239
X13.2198
X13.2274
X13.2611Y1.3242
X13.2947Y1.3272
X13.3278Y1.333
X13.3758Y1.3255
X13.4243Y1.3224
X13.4729Y1.3239
X14.6761
X14.6971Y1.3232
X14.718Y1.3259
X14.7444Y1.3278
X14.7704Y1.333
X14.7871Y1.3292
X14.8042Y1.3283
X14.8285Y1.3259
X14.8493Y1.3232
X14.8702Y1.3239
X16.4153
X16.4617Y1.3227
X16.508Y1.3258
X16.5538Y1.3332
X16.5858Y1.3278
X16.6181Y1.3248
X16.6506Y1.3242
X16.6664Y1.3239
X18.2685
X18.286Y1.3242
X18.315Y1.3248
X18.3438Y1.3278
X18.3723Y1.3332
X18.4218Y1.3255
X18.4718Y1.3223
X18.5219Y1.3239
X19.6656
X19.715Y1.3224
X19.7644Y1.3255
X19.8133Y1.3331
X19.8443Y1.3275
X19.8758Y1.3244
X19.9073Y1.324
X19.919Y1.3239
X21.4137
X21.4622Y1.3225
X21.5107Y1.3255
X21.5587Y1.3331
X21.592Y1.3272
X21.6256Y1.3242
X21.6594Y1.3239
X21.6666
X22.589
X22.6021Y1.3241
X22.6331Y1.3245
X22.664Y1.3276
X22.6945Y1.3331
X22.7435Y1.3254
X22.7929Y1.3224
X22.8425Y1.3239
X24.3852
X24.4087Y1.3245
X24.433Y1.3259
X24.4613Y1.3272
X24.4891Y1.3327
X24.4925Y1.3334
X24.5406Y1.3257
X24.5892Y1.3225
X24.6379Y1.3239
X26.1813
X26.199Y1.3242
X26.2314Y1.325
X26.2637Y1.3281
X26.2957Y1.3336
X26.3398Y1.3265
X26.3844Y1.3232
X26.429Y1.3239
X28.3659
X28.3881Y1.3233
X28.41Y1.3262
X28.435Y1.328
X28.4596Y1.333
X28.4774Y1.329
X28.4956Y1.3281
X28.5199Y1.3258
X28.5399Y1.3232
X28.56Y1.3239
X29.4339
X29.4476Y1.3241
X29.4784Y1.3246
X29.5089Y1.3276
X29.5391Y1.3331
X29.5882Y1.3254
X29.6377Y1.3224
X29.6873Y1.3239
X30.5018
X30.5088
X30.5459Y1.3242
X30.5828Y1.3274
X30.6194Y1.3335
X30.6621Y1.3266
X30.7052Y1.3233
X30.7484Y1.3239
X30.8051
X31.1922
Y1.1802
X31.1918Y1.1482
X31.1939Y1.1163
X31.1986Y1.0847
X31.2009Y1.0626
X31.2056Y1.041
X31.2125Y1.0199
X31.2403Y.9472
X31.2819Y.8813
X31.3348Y.8241
X31.3973Y.7775
X31.4672Y.7431
X31.5423Y.7219
X31.6199Y.716
Z-2.1513
G00Z-1.7685
G01Z-1.6685
G00X8.945Y-.2524
Z-2.1513
G01Z-2.2513
X8.9285Y-.17
X8.9201Y-.0864
X8.92Y-.0024
X8.9201Y.0154
Y1.7489
X10.307
X10.3482Y1.7478
X10.3891Y1.7535
X10.4284Y1.7659
X10.4613Y1.7654
X10.4939Y1.7605
X10.5255Y1.751
X10.5497Y1.7489
X11.7634
X11.8049Y1.7495
X11.8458Y1.7572
X11.8847Y1.7715
X11.924Y1.7584
X11.9647Y1.7508
X12.0061Y1.7489
X13.2198
X13.2445Y1.7493
X13.2689Y1.753
X13.2926Y1.7601
X13.3411Y1.7681
X13.3802Y1.7546
X13.4211Y1.7481
X13.4625Y1.7489
X14.6761
X14.701Y1.7512
X14.7254Y1.7566
X14.7489Y1.7651
X14.7819Y1.7659
X14.8146Y1.7612
X14.846Y1.7513
X14.8702Y1.7489
X16.4237
X16.4652Y1.7487
X16.5062Y1.7559
X16.5451Y1.7703
X16.5846Y1.7583
X16.6252Y1.7511
X16.6664Y1.7489
X18.2685
X18.2932Y1.7498
X18.3177Y1.7542
X18.3413Y1.7619
X18.3898Y1.7662
X18.4291Y1.7537
X18.47Y1.7479
X18.5112Y1.7489
X19.6763
X19.7175Y1.748
X19.7584Y1.7541
X19.7976Y1.767
X19.8462Y1.7613
X19.8697Y1.7537
X19.8942Y1.7495
X19.919Y1.7489
X21.4239
X21.4652Y1.7481
X21.5061Y1.7545
X21.5452Y1.7679
X21.5938Y1.7605
X21.6174Y1.7532
X21.6419Y1.7493
X21.6666Y1.7489
X22.589
X22.6137Y1.7496
X22.6382Y1.7537
X22.6618Y1.7611
X22.7103Y1.767
X22.7495Y1.754
X22.7904Y1.7479
X22.8317Y1.7489
X24.3852
X24.4094Y1.7502
X24.5065Y1.7687
X24.5455Y1.755
X24.5865Y1.7483
X24.6279Y1.7489
X26.1813
X26.2225Y1.7513
X26.2632Y1.7585
X26.3027Y1.7706
X26.3417Y1.7566
X26.3826Y1.7493
X26.424Y1.7489
X28.3659
X28.3908Y1.7513
X28.4152Y1.7568
X28.4387Y1.7654
X28.4716Y1.7658
X28.5043Y1.761
X28.5358Y1.7512
X28.56Y1.7489
X29.4339
X29.4586Y1.7496
X29.4831Y1.7538
X29.5067Y1.7612
X29.5552Y1.7669
X29.5944Y1.754
X29.6353Y1.7479
X29.6766Y1.7489
X30.5018
X30.5432Y1.7507
X30.584Y1.7583
X30.6232Y1.7715
X30.6622Y1.7572
X30.7031Y1.7496
X30.7446Y1.7489
X31.6172
Y1.1802
X31.6167Y1.1605
X31.6199Y1.141
X31.6298Y1.0206
X31.624Y.9
X31.6036Y.7809
X31.5691Y.6651
X31.5199Y.5548
Z-2.1513
G00Z-1.7685
X10.2257Y-.2525
Z-2.4341
G01Z-2.5341
X10.2074Y-.1703
X10.1972Y-.0867
X10.1952Y-.0025
X10.1951Y.0268
Y.1911
X30.7701
X30.859Y.117
X30.9551Y.0522
X31.0571Y-.0025
X30.9265Y.0049
X30.798Y.0304
X30.674Y.0725
X30.5565Y.1304
X30.4477Y.2032
X30.3492Y.2896
X30.2628Y.388
X30.1901Y.4969
X30.1322Y.6144
X30.0901Y.7384
X30.0645Y.8668
X30.0571Y.9975
Z-2.4341
G00Z-2.1513
X9.8002Y-.2525
Z-2.4341
G01Z-2.5341
X9.782Y-.1703
X9.772Y-.0867
X9.7702Y-.0025
X9.7701Y.0238
Y.6161
X30.9518
X31.0242Y.5336
X31.1075Y.4619
X31.1993Y.4016
X31.2982Y.3535
X31.4024Y.3187
X31.5102Y.2975
X31.6199Y.2916
Z-2.4341
G00Z-2.1513
X9.3743Y-.2525
Z-2.4341
G01Z-2.5341
X9.3564Y-.1703
X9.3467Y-.0866
X9.3452Y-.0025
X9.3451Y.0202
Y1.0411
X31.2069
X31.2323Y.9643
X31.2728Y.8942
X31.3259Y.833
X31.3896Y.783
X31.4616Y.7459
X31.5393Y.7231
X31.6199Y.7166
Z-2.4341
G00Z-1.7685
G01Z-1.6685
G00X8.9461Y-.2524
Z-2.4341
G01Z-2.5341
X8.9293Y-.1701
X8.9206Y-.0864
X8.9201Y-.0024
Y.0154
Y1.4661
X31.6172
Y1.1802
X31.6167Y1.1608
X31.6199Y1.1416
X31.6154Y1.0354
X31.5985Y.9305
X31.5706Y.8279
X31.532Y.7288
X31.4821Y.635
Z-2.4341
G00Z-1.7685
X-.2524Y.1598
Z-2.4341
G01Z-2.5341
X-.1702Y.1783
X-.0866Y.1887
X-.0024Y.1908
X.0329Y.1911
X2.053
Y.0237
X2.0529Y-.0025
X2.0511Y-.0867
X2.041Y-.1703
X2.0227Y-.2525
Z-2.4341
G00Z-2.1513
X-.2524Y.5851
Z-2.4341
G01Z-2.5341
X-.1702Y.6035
X-.0866Y.6138
X-.0024Y.6158
X.0284Y.6161
X2.478
Y.0215
X2.4779Y-.0025
X2.4763Y-.0867
X2.4664Y-.1703
X2.4483Y-.2525
Z-2.4341
G00Z-2.1513
X-.2523Y1.0107
Z-2.4341
G01Z-2.5341
X-.1701Y1.0289
X-.0865Y1.039
X-.0023Y1.0408
X.023Y1.0411
X2.903
Y.0189
X2.9029Y-.0025
X2.9017Y-.0866
X2.8921Y-.1702
X2.8745Y-.2525
Z-2.4341
G00Z-1.7685
G01Z-1.6685
G00X-.2523Y1.438
Z-2.4341
G01Z-2.5341
X-.1701Y1.4555
X-.0864Y1.4648
X-.0023Y1.4658
X.0154Y1.4661
X3.328
Y.0154
Y-.0023
X3.3279Y-.0864
X3.3195Y-.1701
X3.303Y-.2525
Z-2.4341
G00Z-1.7685
X-.2524Y.3027
Z-2.7168
G01Z-2.8168
X-.1702Y.321
X-.0865Y.3312
X-.0024Y.3331
X.0267Y.3333
X2.478
Y.0217
X2.4779Y-.0025
X2.4763Y-.0867
X2.4664Y-.1703
X2.4483Y-.2525
Z-2.7168
G00Z-2.4341
X-.2524Y.7285
Z-2.7168
G01Z-2.8168
X-.1701Y.7466
X-.0865Y.7565
X-.0024Y.7581
X.022Y.7583
X2.903
Y.019
X2.9029Y-.0025
X2.9017Y-.0866
X2.8922Y-.1702
X2.8745Y-.2525
Z-2.7168
G00Z-1.7685
G01Z-1.6685
G00X-.2523Y1.1567
Z-2.7168
G01Z-2.8168
X-.17Y1.1737
X-.0864Y1.1825
X-.0023Y1.1832
X.0154Y1.1833
X3.328
Y.0154
Y-.0023
Y-.0864
X3.3197Y-.17
X3.3033Y-.2525
Z-2.7168
G00Z-1.7685
X9.7997
Z-2.7168
G01Z-2.8168
X9.7817Y-.1703
X9.7718Y-.0867
X9.7701Y-.0025
Y.0218
Y.3333
X30.7672
Y.0215
Y-.0025
X30.7655Y-.0867
X30.7556Y-.1703
X30.7376Y-.2525
Z-2.7168
G00Z-2.4341
X9.3735
Z-2.7168
G01Z-2.8168
X9.3559Y-.1702
X9.3464Y-.0866
X9.3451Y-.0025
Y.0191
Y.7583
X31.1922
Y.0189
Y-.0025
X31.1909Y-.0866
X31.1814Y-.1702
X31.1637Y-.2525
Z-2.7168
G00Z-1.7685
G01Z-1.6685
G00X8.9445Y-.2524
Z-2.7168
G01Z-2.8168
X8.9282Y-.17
X8.92Y-.0864
Y-.0024
X8.9201Y.0154
Y1.1833
X31.6172
Y.0154
X31.6173Y-.0023
X31.6171Y-.0863
X31.6087Y-.1701
X31.5922Y-.2525
Z-2.7168
G00Z-1.7685
X9.7997
Z-2.9996
G01Z-3.0996
X9.7817Y-.1703
X9.7718Y-.0867
X9.7701Y-.0025
Y.0218
Y.0508
X30.7672
Y.0218
Y-.0025
X30.7655Y-.0867
X30.7556Y-.1703
X30.7376Y-.2525
Z-2.9996
G00Z-2.7168
X9.3735
Z-2.9996
G01Z-3.0996
X9.3559Y-.1702
X9.3464Y-.0866
X9.3451Y-.0025
Y.0191
Y.4758
X31.1922
Y.0191
Y-.0025
X31.1909Y-.0866
X31.1815Y-.1702
X31.1638Y-.2525
Z-2.9996
G00Z-1.7685
G01Z-1.6685
G00X8.9445Y-.2524
Z-2.9996
G01Z-3.0996
X8.9282Y-.17
X8.92Y-.0864
Y-.0024
X8.9201Y.0154
Y.9008
X31.6172
Y.0154
X31.6173Y-.0023
Y-.0863
X31.609Y-.17
X31.5927Y-.2525
Z-2.9996
G00Z-1.7685
X-.2524Y.0201
Z-2.9996
G01Z-3.0996
X-.1702Y.0384
X-.0866Y.0486
X-.0024Y.0506
X.0274Y.0508
X2.478
Y.0217
X2.4779Y-.0025
X2.4763Y-.0867
X2.4664Y-.1703
X2.4483Y-.2525
Z-2.9996
G00Z-2.7168
X-.2524Y.4458
Z-2.9996
G01Z-3.0996
X-.1702Y.4639
X-.0865Y.4739
X-.0024Y.4756
X.0224Y.4758
X2.903
Y.019
X2.9029Y-.0025
X2.9017Y-.0866
X2.8922Y-.1702
X2.8745Y-.2525
Z-2.9996
G00Z-1.7685
G01Z-1.6685
G00X-.2524Y.8735
Z-2.9996
G01Z-3.0996
X-.1701Y.8907
X-.0864Y.8998
X-.0023Y.9006
X.0154Y.9008
X3.328
Y.0154
Y-.0023
Y-.0864
X3.3197Y-.17
X3.3033Y-.2525
Z-2.9996
G00Z-1.7685
(WALL_GENERAL_POCKET)
G00X-.2527Y1.8374M03S200
Z-2.1043
G01Z-2.2043F9.8
X-.1704Y1.8546
X-.0867Y1.8637
X-.0027Y1.8645
X.0076
X3.378
Y0.0
Y-.0023
X3.3764Y-.0865
X3.3666Y-.1701
X3.3486Y-.2524
Z-2.1043
G00Z-1.7685
X8.8997
Z-2.1043
G01Z-2.2043
X8.8816Y-.1701
X8.8717Y-.0864
X8.8701Y-.0021
Y0.0
Y1.8645
X31.6672
Y1.1811
X31.6667Y1.1633
X31.6697Y1.1458
X31.6809Y1.0154
X31.6737Y.8846
X31.6496Y.7559
X31.6088Y.6314
X31.5522Y.5134
X31.4806Y.4037
X31.3953Y.3043
X31.2978Y.2169
X31.1897Y.143
X31.0729Y.0838
X30.9493Y.0404
X30.821Y.0146
Y-.2524
Z-2.1043
G00Z-1.7685
X8.8997
Z-2.3401
G01Z-2.4401
X8.8816Y-.1701
X8.8717Y-.0864
X8.8701Y-.0021
Y0.0
Y1.6287
X31.6672
Y1.1811
X31.6667Y1.1633
X31.6697Y1.1458
X31.6809Y1.0154
X31.6737Y.8846
X31.6496Y.7559
X31.6088Y.6314
X31.5522Y.5134
X31.4806Y.4037
X31.3953Y.3043
X31.2978Y.2169
X31.1897Y.143
X31.0729Y.0838
X30.9493Y.0404
X30.821Y.0146
Y-.2524
Z-2.3401
G00Z-1.7685
X-.2527Y1.6003
Z-2.3401
G01Z-2.4401
X-.1704Y1.6179
X-.0868Y1.6274
X-.0027Y1.6286
X.0076Y1.6287
X3.378
Y0.0
Y-.0023
X3.3764Y-.0865
X3.3666Y-.1701
X3.3486Y-.2524
Z-2.3401
G00Z-1.7685
X-.2527Y1.3642
Z-2.576
G01Z-2.676
X-.1704Y1.3819
X-.0868Y1.3915
X-.0027Y1.3928
X.0076Y1.3929
X3.378
Y0.0
Y-.0023
X3.3764Y-.0865
X3.3666Y-.1701
X3.3486Y-.2524
Z-2.576
G00Z-1.7685
X8.8997
Z-2.576
G01Z-2.676
X8.8816Y-.1701
X8.8717Y-.0864
X8.8701Y-.0021
Y0.0
Y1.3929
X31.6672
Y0.0
Y-.0022
X31.6656Y-.0864
X31.6557Y-.1701
X31.6377Y-.2524
Z-2.576
G00Z-1.7685
X8.8997
Z-2.8118
G01Z-2.9118
X8.8816Y-.1701
X8.8717Y-.0864
X8.8701Y-.0021
Y0.0
Y1.1571
X31.6672
Y0.0
Y-.0022
X31.6656Y-.0864
X31.6557Y-.1701
X31.6377Y-.2524
Z-2.8118
G00Z-1.7685
X-.2527Y1.1284
Z-2.8118
G01Z-2.9118
X-.1704Y1.1461
X-.0868Y1.1557
X-.0027Y1.157
X.0076Y1.1571
X3.378
Y0.0
Y-.0023
X3.3764Y-.0865
X3.3666Y-.1701
X3.3486Y-.2524
Z-2.8118
G00Z-1.7685
X-.2527Y.8933
Z-3.0476
G01Z-3.1476
X-.1703Y.9109
X-.0866Y.9203
X-.0023Y.9215
X.0076Y.9216
X3.378
Y0.0
Y-.0023
X3.3764Y-.0865
X3.3666Y-.1701
X3.3486Y-.2524
Z-3.0476
G00Z-1.7685
X8.8997
Z-3.0476
G01Z-3.1476
X8.8816Y-.1701
X8.8717Y-.0864
X8.8701Y-.0021
Y0.0
Y.9216
X31.6672
Y0.0
Y-.0022
X31.6656Y-.0864
X31.6557Y-.1701
X31.6377Y-.2524
Z-3.0476
G00Z-1.7685
(FLOOR_GENERAL_POCKET)
G00X-.2524Y.0383M03S200
Z-3.0496
G01Z-3.1496F9.8
X-.1702Y.0569
X-.0866Y.0673
X-.0024Y.0695
X.0137Y.0696
X2.526
Y0.0
Y-.0024
X2.5236Y-.0866
X2.513Y-.1702
X2.4942Y-.2524
Z-3.0496
G00Z-1.8685
X-.2524Y.4637
Z-3.0496
G01Z-3.1496
X-.1702Y.4821
X-.0866Y.4924
X-.0024Y.4945
X.0108Y.4946
X2.951
Y0.0
Y-.0024
X2.9489Y-.0866
X2.9386Y-.1702
X2.9201Y-.2524
Z-3.0496
G00Z-1.7685
G01Z-1.6685
G00X-.2524Y.8904
Z-3.0496
G01Z-3.1496
X-.1702Y.9083
X-.0866Y.918
X-.0024Y.9195
X.0067Y.9196
X3.376
Y0.0
Y-.0024
X3.3744Y-.0865
X3.3646Y-.1701
X3.3466Y-.2524
Z-3.0496
G00Z-1.7685
X9.7538
Z-3.0496
G01Z-3.1496
X9.7351Y-.1703
X9.7245Y-.0866
X9.7221Y-.0024
Y0.0
Y.0696
X30.8152
Y0.0
Y-.0024
X30.8129Y-.0866
X30.8022Y-.1702
X30.7835Y-.2524
Z-3.0496
G00Z-1.8685
X9.3279
Z-3.0496
G01Z-3.1496
X9.3095Y-.1702
X9.2991Y-.0866
X9.2971Y-.0024
Y0.0
Y.4946
X31.2402
Y0.0
Y-.0024
X31.2382Y-.0866
X31.2278Y-.1702
X31.2094Y-.2524
Z-3.0496
G00Z-1.7685
G01Z-1.6685
G00X8.9014
Z-3.0496
G01Z-3.1496
X8.8834Y-.1702
X8.8736Y-.0865
X8.8721Y-.0024
Y0.0
Y.9196
X31.6652
Y0.0
Y-.0022
X31.6636Y-.0864
X31.6537Y-.1701
X31.6357Y-.2524
Z-3.0496
G00Z-1.7685
M09
G00G91G28Z0
(SPOT_DRILL_FIT_HOLE)
M01
M06
N3M01
(UGTI0321_013)
(Spot Drill)
G17
M03S300F9.8
G40G49G80G00
G90X3.1293Y8.4039
G43H1Z-1.8685M08T04
G00
G81Z-2.106R-1.8685
X20.898Y7.7693
G80
M09
G00G91G28Z0
(DRILL_FIT_HOLE)
M01
M06
N4M01
(UGTI0301_774)
(Drilling Tool)
G17
M03S300F9.8
G40G49G80G00
G90X3.1293Y8.4039
G43H1Z-1.8685M08T11
G00
G81Z-4.0149R-1.8685
X20.898Y7.7693
G80
M09
G00G91G28Z0
(REAM_FIT_HOLE)
M01
M06
N5M01
(UGTI0341_011)
(Reamer)
G17
M03S300F9.8
G40G49G80G00
G90X3.1293Y8.4039
G43H0Z-1.8685M08T06
G00
G81Z-4.004R-1.8685
X20.898Y7.7693
G80
M09
G17
G00G91G28Z0
G28X0Y0
M30
M09
%
