============================================================
Information listing created by :  lili
Date                           :  10/25/2006 5:12:18 PM
Current work part              :  D:\Projects\Post\Haas_ vf-0\3axis_sample.prt
Node name                      :  shappdclili
============================================================
%
O0001 (PROGRAM)
N0005 (**********)
N0010 (Start of Program Event)
N0015 (**********)
N0020 M06 T01
N0025 G00 G21
N0030 G40 G17 G80 G90 G54
N0035 G00 X50. Y-11. S556 M03
N0040 G43 Z110. H01
N0045 Z103.
N0050 G01 Z100. F18. M08
N0055 X-11. F20.
N0060 Y111.
N0065 X111.
N0070 Y-11.
N0075 X50.
N0080 X47.5
N0085 G03 X41.755 Y-14. R7.
N0090 G00 Z110.
N0095 S500 M03
N0100 (Rapid Move)
N0105 G00 X50. Y50.
N0110 Z105.
N0115 (Linear Move Event)
N0120 G01 X45.123 Y45.123 Z105.123 F300.
N0125 G01 X69.7 Y50. Z100. S556 F18. M03
N0130 (Circular move CCLW XY plane)
N0135 G03 X50. Y69.7 R19.7 F20.
N0140 X30.3 Y50.
N0145 X50. Y30.3
N0150 X69.7 Y50.
N0155 G01 X69.7 Y50. Z100. S556 F18. M03
N0160 (Circular move CLW XY plane)
N0165 G02 X50. Y30.3 F20.
N0170 X30.3 Y50.
N0175 X50. Y69.7
N0180 X69.7 Y50.
N0185 M05 M09
N0190 G00 Z200. M01
N0195 M06 T02
N0200 G40 G80 G90 G54
N0205 (Cycle Drill Event)
N0210 G00 X15. Y15. S564 M03
N0215 G43 Z103. H02
N0220 G99 G81 Z87.5 R103. F29.
N0225 Y85.
N0230 X85.
N0235 Y15.
N0240 G80
N0245 M05
N0250 G00 Z200. M01
N0255 M06 T03
N0260 G40 G80 G90 G54
N0265 (Drill Dwell Event)
N0270 G00 X15. Y15. S564 M03
N0275 G43 Z103. H03
N0280 G99 G82 Z68. R103. F57.
N0285 Y85.
N0290 X85.
N0295 Y15.
N0300 G80
N0305 M05
N0310 G00 Z200. M01
N0315 M06 T02
N0320 G40 G80 G90 G54
N0325 (Drill Deep Event)
N0330 G00 X15. Y15. S564 M03
N0335 G43 Z102. H02
N0340 G99 G83 Z82. R102. Q.1 F29.
N0345 Y85.
N0350 X85.
N0355 Y15.
N0360 G80
N0365 (Drill Break Chip Event)
N0370 G99 G73 X85. Y15. Z78. R103. Q.1 F29.
N0375 X15.
N0380 Y85.
N0385 X85.
N0390 G80
N0395 M05
N0400 (Cycle Tap)
N0405 G00 Z200. M01
N0410 M06 T04
N0415 G40 G80 G90 G54
N0420 G00 X15. Y15. S1129 M03
N0425 G43 Z103. H04
N0430 G99 G84 Z45. R103. F115.
N0435 Y85.
N0440 X85. Y15.
N0445 G80
N0450 M05
N0455 G00 Z200. M01
N0460 M06 T00
N0465 G40 G80 G90 G54
N0470 (Bore Event)
N0475 G00 X15. Y15. S1000 M03
N0480 G43 Z103. H00
N0485 G99 G85 Z86. R103. F250.
N0490 Y85.
N0495 X85.
N0500 Y15.
N0505 G80
N0510 (Bore Drag Event)
N0515 G99 G86 X15. Y15. Z67. R103. F250.
N0520 Y85.
N0525 X85.
N0530 Y15.
N0535 G80
N0540 (Bore Nodrag Event)
N0545 G99 G76 X15. Y15. Z78.1 R103. Q.1 F250.
N0550 Y85.
N0555 X85.
N0560 Y15.
N0565 G80
N0570 (Bore Dwell Event)
N0575 G99 G88 X15. Y15. Z76.124 R103. P2. F250.
N0580 Y85.
N0585 X85.
N0590 Y15.
N0595 G80
N0600 (Bore Manual Dwell Event)
N0605 G99 G87 X15. Y15. Z45. R103. P2. F250.
N0610 Y85.
N0615 X85.
N0620 Y15.
N0625 G80
N0630 (Bore Manual Event)
N0635 G99 G89 X15. Y15. Z66.2 R102.5 F250.
N0640 Y85.
N0645 X85.
N0650 Y15.
N0655 G80
N0660 (Bore Back Event)
N0665 G99 G77 X15. Y15. Z77.2 R103. F250.
N0670 Y85.
N0675 X85.
N0680 Y15.
N0685 G80
N0690 G00 Z200. M01
N0695 M06 T00
N0700 G91 G28 Y0.0 M05
N0705 G90
N0710 M30
%

