============================================================
Information listing created by :  suyo
Date                           :  8/27/2007 2:49:18 PM
Current work part              :  D:\post_kits\mikron_WF21D\mikron_WF21D_mm_070510\Mikron_WF21D_sample_mm.prt
Node name                      :  shappdcsuyo
============================================================
% 123 G71
N0010;**********
N0020;Start of Program Event
N0030;**********
N0040;**********
N0050;First Tool Change Event
N0060;**********
N0070G17T01S1000
N0080G90
N0090G00Z110.M13
N0100X50.Y-10.
N0110Z103.
N0120G01Z100.F250
N0130X-10.
N0140Y110.
N0150X110.
N0160Y-10.
N0170X50.
N0180X47.5
N0190G03X41.755Y-13.I47.5J-17.
N0200G00Z110.
N0210;Rapid Move
N0220G00Z105.
N0230X50.Y50.
N0240;Linear Move Event
N0250G01X45.123Y45.123Z105.123F300S0
N0260G01X70.Y50.Z100.F250S900
N0270;Circular move CCLW XY plane
N0280G03X70.Y50.I50.J50.
N0290G01X70.Y50.Z100.F250S800
N0300;Circular move CLW XY plane
N0310G02X70.Y50.I50.J50.
N0320M05M09
N0330G17T02S1000
N0340;Second Tool Change Event
N0350;Cycle Drill Event
N0360G00Z103.M13
N0370X15.Y15.
N0380G200DRILLING
Q200=3.
Q201=-22.8
Q206=250.
Q202=22.8
Q210=0.
Q203=100.
Q204=3.
Q211=.001
N0390G00X15.Y15.M99
N0400G00X15.Y85.M99
N0410G00X85.Y85.M99
N0420G00X85.Y15.M99
N0430M05M09
N0440G17T03S1000
N0450G00Z103.M13
N0460X15.Y15.
N0470G200DRILLING
Q200=3.
Q201=-32.
Q206=250.
Q202=32.
Q210=0.
Q203=100.
Q204=3.
Q211=.001
N0480G00X15.Y15.M99
N0490G00X15.Y85.M99
N0500G00X85.Y85.M99
N0510G00X85.Y15.M99
N0520M05M09
N0530G17T02S1000
N0540G00Z102.M13
N0550X15.Y15.
N0560G205UNIVERSAL PECKING
Q200=2.
Q201=-18.
Q206=250.
Q202=.1
Q203=100.
Q204=2.
Q212=0.
Q205=0.
Q258=0.
Q259=0.
Q257=0.
Q256=0.
Q211=.001
Q379=0.
Q253=0.
N0570G00X15.Y15.M99
N0580G00X15.Y85.M99
N0590G00X85.Y85.M99
N0600G00X85.Y15.M99
N0610M05M09
N0620G17T04S1000
N0630;Cycle Tap Float
N0640G00Z103.M13
N0650X15.Y15.
N0660G207RIGID TAPPING NEW
Q200=3.
Q201=-55.
Q239=.25
Q203=100.
Q204=3.
N0670G00X15.Y15.M99
N0680G00X15.Y85.M99
N0690G00X85.Y15.M99
N0700M05M09
N0710G17T02S1000
N0720G00Z103.M13
N0730X85.Y15.
N0740G205UNIVERSAL PECKING
Q200=3.
Q201=-22.
Q206=250.
Q202=.1
Q203=100.
Q204=3.
Q212=0.
Q205=0.
Q258=0.
Q259=0.
Q257=0.
Q256=0.
Q211=.001
Q379=0.
Q253=0.
N0750G00X85.Y15.M99
N0760G00X15.Y15.M99
N0770G00X15.Y85.M99
N0780G00X85.Y85.M99
N0790M05M09
N0800G17T04S1000
N0810;Cycle Tap Rigid
N0820G00Z103.M13
N0830X15.Y15.
N0840G207RIGID TAPPING NEW
Q200=3.
Q201=-23.535
Q239=.25
Q203=100.
Q204=3.
N0850G00X15.Y15.M99
N0860G00X15.Y85.M99
N0870G00X85.Y15.M99
N0880G00X85.Y85.M99
N0890M05M09
N0900G17T00S1000
N0910G00Z103.M13
N0920X15.Y15.
N0930G201REAMING
Q200=3.
Q201=-14.
Q206=250.
Q211=.001
Q208=250.
Q203=100.
Q204=3.
N0940G00X15.Y15.M99
N0950G00X15.Y85.M99
N0960G00X85.Y85.M99
N0970G00X85.Y15.M99
N0980G202BORING
Q200=3.
Q201=-33.
Q206=250.
Q211=.001
Q208=250.
Q203=100.
Q204=3.
Q214=0.
Q336=0.
N0990G00X15.Y15.M99
N1000G00X15.Y85.M99
N1010G00X85.Y85.M99
N1020G00X85.Y15.M99
N1030G202BORING
Q200=3.
Q201=-21.9
Q206=250.
Q211=.001
Q208=250.
Q203=100.
Q204=3.
Q214=0.
Q336=0.
N1040G00X15.Y15.M99
N1050G00X15.Y85.M99
N1060G00X85.Y85.M99
N1070G00X85.Y15.M99
N1080G202BORING
Q200=3.
Q201=-23.876
Q206=250.
Q211=2.
Q208=250.
Q203=100.
Q204=3.
Q214=0.
Q336=0.
N1090G00X15.Y15.M99
N1100G00X15.Y85.M99
N1110G00X85.Y85.M99
N1120G00X85.Y15.M99
N1130G204BACK BORING
Q200=3.
Q249=0.
Q250=0.
Q251=0.
Q252=0.
Q253=0.
Q254=0.
Q255=0.
Q203=100.
Q204=3.
Q214=0.
Q336=0.
N1140G00X15.Y15.M99
N1150G00X15.Y85.M99
N1160G00X85.Y85.M99
N1170G00X85.Y15.M99
N1180M05M09
N1190M00
N9999 % 123 G71 *

